; generated by Slic3r 1.1.7 on 2015-04-10 at 09:24:37

; perimeters extrusion width = 0.60mm
; infill extrusion width = 0.60mm
; solid infill extrusion width = 0.60mm
; top infill extrusion width = 0.30mm

G21 ; set units to millimeters
M190 S145 ; wait for bed temperature to be reached
;--------------------------------------
G28 ; home all axes
G1 Z5 F500 ; lift nozzle
M109 S270 ; wait for extruder temp to be reached
M3001 ; Aktivate Z-Compensation 
; Move Z-axis n-steps up (see manual)
;M3004 S0 ; + n-steps bed down // - n-steps bed up! old Firmware Version <= 0.91.48
;M3006 S0 ; configure the static z-offset (units are [um])
G90 ; use absolute coordinates
M82 ; use absolute distances for extrusion
G92 E0 ; start line
G1 F300 E-0.5
G1 X230 Y22 Z0.35 F5000
G1 F800 E13
G1 X20 E25 F1000
; Acceleration up to...
; Acc printing
M201 X3000 Y3000 Z100
; Acc travel
M202 X3000 Y3000 Z100
; ZJERK 
M205 Z0.1
;--------------------------------------
G90 ; use absolute coordinates
G92 E0
M82 ; use absolute distances for extrusion
G1 F1500.000 E-2.00000
G92 E0
G1 Z0.350 F7800.000
G1 X98.333 Y88.772 F7800.000
G1 E2.00000 F1500.000
G1 X98.606 Y88.476 E2.01047 F1080.000
G1 X99.476 Y87.606 E2.04247
G1 X99.772 Y87.333 E2.05294
G1 X100.709 Y86.539 E2.08487
G1 X101.028 Y86.291 E2.09536
G1 X102.030 Y85.576 E2.12736
G1 X103.422 Y84.727 E2.16974
G1 X103.777 Y84.534 E2.18025
G1 X104.883 Y83.994 E2.21224
G1 X106.395 Y83.386 E2.25460
G1 X106.778 Y83.255 E2.26513
G1 X107.957 Y82.904 E2.29712
G1 X109.548 Y82.553 E2.33947
G1 X109.948 Y82.486 E2.34999
G1 X111.165 Y82.335 E2.38188
G1 X111.564 Y82.302 E2.39228
G1 X112.898 Y82.250 E2.42700
G1 X133.306 Y82.254 E2.95749
G1 X134.835 Y82.335 E2.99732 F1080.000
G1 X136.053 Y82.486 E3.02921
G1 X136.452 Y82.553 E3.03972
G1 X137.654 Y82.805 E3.07166
G1 X139.222 Y83.255 E3.11405
G1 X139.605 Y83.386 E3.12458
G1 X140.749 Y83.833 E3.15650
G1 X142.222 Y84.534 E3.19893
G1 X142.578 Y84.727 E3.20945
G1 X143.634 Y85.356 E3.24139
G1 X144.972 Y86.291 E3.28382
G1 X145.290 Y86.539 E3.29432
G1 X146.228 Y87.333 E3.32625
G1 X146.524 Y87.606 E3.33672
G1 X147.395 Y88.476 E3.36873
G1 X147.667 Y88.772 E3.37919
G1 X148.461 Y89.710 E3.41113
G1 X148.709 Y90.028 E3.42162
G1 X149.424 Y91.030 E3.45361
G1 X150.273 Y92.421 E3.49598
G1 X150.465 Y92.777 E3.50649
G1 X151.006 Y93.883 E3.53848
G1 X151.614 Y95.395 E3.58087
G1 X151.745 Y95.778 E3.59139
G1 X152.195 Y97.346 E3.63379
G1 X152.447 Y98.548 E3.66571
G1 X152.514 Y98.947 E3.67624
G1 X152.665 Y100.164 E3.70810
G1 X152.746 Y101.693 E3.74792
G1 X152.750 Y165.439 E5.40501
G1 X151.266 Y169.023 E5.50584
G1 X140.023 Y180.266 E5.91916
G1 X136.439 Y181.750 E6.01999
G1 X109.561 Y181.750 E6.71871
G1 X105.977 Y180.266 E6.81954
G1 X94.734 Y169.023 E7.23286
G1 X93.250 Y165.439 E7.33369
G1 X93.250 Y101.898 E8.98546
G1 X93.302 Y100.564 E9.02018
G1 X93.486 Y98.948 E9.06246
G1 X93.553 Y98.548 E9.07298
G1 X93.805 Y97.346 E9.10493
G1 X94.255 Y95.778 E9.14732
G1 X94.386 Y95.395 E9.15785
G1 X94.833 Y94.251 E9.18978
G1 X95.535 Y92.777 E9.23221
G1 X95.727 Y92.422 E9.24272
G1 X96.356 Y91.366 E9.27466
G1 X97.291 Y90.028 E9.31708
G1 X98.284 Y88.830 E9.35756
G1 X98.708 Y89.103 F7800.000
G1 X99.822 Y87.966 E9.39895 F1080.000
G1 X101.025 Y86.927 E9.44026
G1 X102.312 Y85.989 E9.48167
G1 X103.669 Y85.162 E9.52298
G1 X105.093 Y84.448 E9.56440
G1 X106.567 Y83.856 E9.60568
G1 X108.090 Y83.386 E9.64712
G1 X109.641 Y83.044 E9.68840
G1 X111.216 Y82.832 E9.72972
G1 X111.595 Y82.801 E9.73959
G1 X112.903 Y82.750 E9.77364
G1 X133.097 Y82.750 E10.29857
G1 X134.405 Y82.801 E10.33261 F1080.000
G1 X134.784 Y82.832 E10.34249
G1 X136.359 Y83.044 E10.38381
G1 X137.910 Y83.386 E10.42508
G1 X139.069 Y83.731 E10.45652
G1 X140.557 Y84.295 E10.49789
G1 X141.994 Y84.979 E10.53925
G1 X143.369 Y85.780 E10.58063
G1 X144.673 Y86.692 E10.62198
G1 X144.975 Y86.927 E10.63194
G1 X146.178 Y87.966 E10.67326
G1 X147.292 Y89.104 E10.71466
G1 X148.308 Y90.327 E10.75600
G1 X149.011 Y91.312 E10.78746
G1 X149.838 Y92.668 E10.82875
G1 X150.552 Y94.093 E10.87017
G1 X151.145 Y95.568 E10.91148
G1 X151.269 Y95.931 E10.92146
G1 X151.708 Y97.459 E10.96279
G1 X152.019 Y99.020 E11.00416
G1 X152.168 Y100.215 E11.03548
G1 X152.246 Y101.709 E11.07437
G1 X152.250 Y165.340 E12.72847
G1 X150.842 Y168.740 E12.82413
G1 X139.740 Y179.842 E13.23227
G1 X136.340 Y181.250 E13.32793
G1 X109.660 Y181.250 E14.02148
G1 X106.260 Y179.842 E14.11714
G1 X95.158 Y168.740 E14.52529
G1 X93.750 Y165.340 E14.62095
G1 X93.750 Y101.903 E16.27000
G1 X93.801 Y100.595 E16.30404
G1 X93.981 Y99.020 E16.34526
G1 X94.293 Y97.459 E16.38664
G1 X94.731 Y95.930 E16.42796
G1 X95.295 Y94.442 E16.46934
G1 X95.979 Y93.006 E16.51069
G1 X96.780 Y91.631 E16.55206
G1 X97.692 Y90.327 E16.59341
G1 X98.659 Y89.161 E16.63281
G1 X99.082 Y89.434 F7800.000
G1 X100.169 Y88.327 E16.67312 F1080.000
G1 X101.340 Y87.315 E16.71337
G1 X102.594 Y86.402 E16.75370
G1 X103.916 Y85.597 E16.79394
G1 X105.304 Y84.902 E16.83428
G1 X106.739 Y84.325 E16.87449
G1 X108.223 Y83.868 E16.91485
G1 X109.733 Y83.536 E16.95506
G1 X111.268 Y83.330 E16.99531
G1 X112.909 Y83.250 E17.03801
G1 X133.274 Y83.254 E17.56742
G1 X134.732 Y83.330 E17.60537 F1080.000
G1 X135.909 Y83.476 E17.63618
G1 X137.428 Y83.780 E17.67647
G1 X138.917 Y84.207 E17.71672
G1 X140.366 Y84.757 E17.75702
G1 X141.765 Y85.424 E17.79730
G1 X143.104 Y86.204 E17.83760
G1 X144.374 Y87.093 E17.87788
G1 X144.660 Y87.315 E17.88730
G1 X145.831 Y88.327 E17.92755
G1 X146.918 Y89.435 E17.96787
G1 X147.907 Y90.626 E18.00813
G1 X148.598 Y91.594 E18.03906
G1 X149.403 Y92.916 E18.07928
G1 X150.098 Y94.303 E18.11962
G1 X150.675 Y95.740 E18.15986
G1 X150.793 Y96.083 E18.16930
G1 X151.220 Y97.572 E18.20956
G1 X151.524 Y99.092 E18.24985
G1 X151.670 Y100.267 E18.28064
G1 X151.746 Y101.725 E18.31859
G1 X151.750 Y165.240 E19.96970
G1 X150.418 Y168.456 E20.06018
G1 X139.457 Y179.418 E20.46316
G1 X136.241 Y180.750 E20.55365
G1 X109.760 Y180.750 E21.24203
G1 X106.544 Y179.418 E21.33252
G1 X95.582 Y168.456 E21.73549
G1 X94.250 Y165.240 E21.82598
G1 X94.250 Y101.909 E23.47231
G1 X94.300 Y100.626 E23.50568
G1 X94.476 Y99.092 E23.54582
G1 X94.780 Y97.571 E23.58613
G1 X95.207 Y96.083 E23.62638
G1 X95.757 Y94.634 E23.66668
G1 X96.424 Y93.235 E23.70696
G1 X97.205 Y91.896 E23.74725
G1 X98.093 Y90.626 E23.78753
G1 X99.034 Y89.492 E23.82585
G1 X99.457 Y89.766 F7800.000
G1 X100.515 Y88.688 E23.86509 F1080.000
G1 X101.655 Y87.704 E23.90426
G1 X102.876 Y86.815 E23.94352
G1 X104.163 Y86.031 E23.98268
G1 X105.514 Y85.355 E24.02195
G1 X106.911 Y84.795 E24.06109
G1 X108.356 Y84.350 E24.10037
G1 X109.826 Y84.027 E24.13951
G1 X111.320 Y83.827 E24.17868
G1 X112.914 Y83.750 E24.22017
G1 X133.086 Y83.750 E24.74456
G1 X134.681 Y83.827 E24.78606 F1080.000
G1 X136.174 Y84.027 E24.82522
G1 X137.644 Y84.350 E24.86436
G1 X138.764 Y84.683 E24.89473
G1 X140.175 Y85.219 E24.93394
G1 X141.536 Y85.868 E24.97316
G1 X142.839 Y86.629 E25.01238
G1 X144.075 Y87.494 E25.05159
G1 X144.345 Y87.704 E25.06047
G1 X145.485 Y88.688 E25.09964
G1 X146.543 Y89.766 E25.13889
G1 X147.506 Y90.925 E25.17808
G1 X148.185 Y91.876 E25.20846
G1 X148.968 Y93.163 E25.24761
G1 X149.644 Y94.514 E25.28688
G1 X150.205 Y95.912 E25.32604
G1 X150.317 Y96.236 E25.33495
G1 X150.733 Y97.685 E25.37413
G1 X151.029 Y99.164 E25.41335
G1 X151.173 Y100.319 E25.44360
G1 X151.246 Y101.741 E25.48061
G1 X151.250 Y165.141 E27.12873
G1 X149.994 Y168.173 E27.21404
G1 X139.173 Y178.994 E27.61185
G1 X136.141 Y180.250 E27.69716
G1 X109.859 Y180.250 E28.38037
G1 X106.827 Y178.994 E28.46569
G1 X96.006 Y168.173 E28.86350
G1 X94.750 Y165.141 E28.94881
G1 X94.750 Y101.914 E30.59242
G1 X94.799 Y100.657 E30.62512
G1 X94.971 Y99.164 E30.66419
G1 X95.267 Y97.684 E30.70342
G1 X95.683 Y96.236 E30.74260
G1 X96.219 Y94.825 E30.78182
G1 X96.869 Y93.464 E30.82103
G1 X97.629 Y92.161 E30.86025
G1 X98.494 Y90.925 E30.89945
G1 X99.409 Y89.823 E30.93670
G1 X99.832 Y90.097 F7800.000
G1 X100.861 Y89.049 E30.97487 F1080.000
G1 X101.971 Y88.092 E31.01296
G1 X103.158 Y87.228 E31.05115
G1 X104.410 Y86.466 E31.08923
G1 X105.724 Y85.809 E31.12742
G1 X107.083 Y85.264 E31.16549
G1 X108.488 Y84.832 E31.20370
G1 X109.919 Y84.519 E31.24176
G1 X111.371 Y84.324 E31.27986
G1 X112.919 Y84.250 E31.32014
G1 X133.243 Y84.253 E31.84847
G1 X134.629 Y84.324 E31.88455 F1080.000
G1 X135.764 Y84.466 E31.91429
G1 X137.203 Y84.754 E31.95242
G1 X138.612 Y85.160 E31.99053
G1 X139.983 Y85.681 E32.02867
G1 X141.307 Y86.313 E32.06682
G1 X142.574 Y87.053 E32.10496
G1 X143.776 Y87.895 E32.14310
G1 X144.029 Y88.092 E32.15144
G1 X145.139 Y89.049 E32.18954
G1 X146.168 Y90.097 E32.22771
G1 X147.105 Y91.224 E32.26582
G1 X147.773 Y92.159 E32.29567
G1 X148.534 Y93.410 E32.33375
G1 X149.191 Y94.724 E32.37194
G1 X149.736 Y96.084 E32.41003
G1 X149.840 Y96.388 E32.41840
G1 X150.246 Y97.797 E32.45651
G1 X150.534 Y99.236 E32.49465
G1 X150.676 Y100.370 E32.52436
G1 X150.747 Y101.756 E32.56044
G1 X150.750 Y165.042 E34.20556
G1 X149.570 Y167.890 E34.28571
G1 X138.890 Y178.570 E34.67834
G1 X136.042 Y179.750 E34.75849
G1 X109.958 Y179.750 E35.43653
G1 X107.110 Y178.570 E35.51667
G1 X96.430 Y167.890 E35.90931
G1 X95.250 Y165.042 E35.98945
G1 X95.250 Y101.919 E37.63034
G1 X95.298 Y100.688 E37.66236
G1 X95.466 Y99.236 E37.70036
G1 X95.754 Y97.797 E37.73852
G1 X96.160 Y96.388 E37.77663
G1 X96.681 Y95.017 E37.81477
G1 X97.313 Y93.693 E37.85291
G1 X98.053 Y92.426 E37.89105
G1 X98.895 Y91.224 E37.92918
G1 X99.784 Y90.154 E37.96535
G1 X100.207 Y90.428 F7800.000
G1 X101.207 Y89.410 E38.00245 F1080.000
G1 X102.286 Y88.480 E38.03947
G1 X103.440 Y87.641 E38.07658
G1 X104.657 Y86.901 E38.11359
G1 X105.934 Y86.263 E38.15071
G1 X107.256 Y85.734 E38.18770
G1 X108.621 Y85.315 E38.22483
G1 X110.011 Y85.010 E38.26182
G1 X111.423 Y84.822 E38.29884
G1 X112.924 Y84.750 E38.33792
G1 X133.076 Y84.750 E38.86176
G1 X134.577 Y84.822 E38.90085 F1080.000
G1 X135.989 Y85.010 E38.93786
G1 X137.379 Y85.315 E38.97485
G1 X138.459 Y85.636 E39.00415
G1 X139.792 Y86.143 E39.04121
G1 X141.078 Y86.758 E39.07828
G1 X142.309 Y87.477 E39.11535
G1 X143.714 Y88.480 E39.16021
G1 X144.793 Y89.410 E39.19723
G1 X145.793 Y90.428 E39.23433
G1 X146.704 Y91.523 E39.27137
G1 X147.360 Y92.441 E39.30068
G1 X148.099 Y93.657 E39.33768
G1 X148.737 Y94.934 E39.37480
G1 X149.266 Y96.256 E39.41182
G1 X149.759 Y97.910 E39.45668
G1 X150.039 Y99.308 E39.49374
G1 X150.178 Y100.422 E39.52292
G1 X150.247 Y101.772 E39.55806
G1 X150.250 Y164.942 E41.20019
G1 X149.146 Y167.607 E41.27516
G1 X138.607 Y178.146 E41.66262
G1 X135.942 Y179.250 E41.73760
G1 X110.058 Y179.250 E42.41047
G1 X107.393 Y178.146 E42.48545
G1 X96.854 Y167.607 E42.87291
G1 X95.750 Y164.942 E42.94788
G1 X95.750 Y101.924 E44.58605
G1 X95.797 Y100.719 E44.61740
G1 X95.961 Y99.308 E44.65433
G1 X96.241 Y97.910 E44.69140
G1 X96.636 Y96.541 E44.72844
G1 X97.143 Y95.208 E44.76551
G1 X97.758 Y93.922 E44.80257
G1 X98.477 Y92.690 E44.83964
G1 X99.296 Y91.523 E44.87670
G1 X100.159 Y90.485 E44.91179
G1 X100.582 Y90.759 F7800.000
G1 X101.554 Y89.771 E44.94782 F1080.000
G1 X102.601 Y88.868 E44.98376
G1 X103.723 Y88.053 E45.01980
G1 X104.904 Y87.336 E45.05574
G1 X106.145 Y86.717 E45.09178
G1 X107.428 Y86.203 E45.12770
G1 X108.754 Y85.797 E45.16375
G1 X110.104 Y85.502 E45.19967
G1 X111.474 Y85.319 E45.23562
G1 X112.930 Y85.250 E45.27349
G1 X133.212 Y85.253 E45.80072
G1 X134.526 Y85.319 E45.83493 F1080.000
G1 X135.620 Y85.456 E45.86360
G1 X136.977 Y85.729 E45.89958
G1 X138.307 Y86.112 E45.93555
G1 X139.600 Y86.605 E45.97154
G1 X140.849 Y87.202 E46.00753
G1 X142.045 Y87.901 E46.04352
G1 X143.399 Y88.868 E46.08678
G1 X144.446 Y89.771 E46.12273
G1 X145.418 Y90.759 E46.15875
G1 X146.303 Y91.822 E46.19471
G1 X146.947 Y92.723 E46.22349
G1 X147.664 Y93.904 E46.25941
G1 X148.283 Y95.145 E46.29546
G1 X148.797 Y96.428 E46.33140
G1 X149.271 Y98.023 E46.37465
G1 X149.544 Y99.380 E46.41064
G1 X149.681 Y100.474 E46.43928
G1 X149.747 Y101.788 E46.47349
G1 X149.750 Y164.843 E48.11262
G1 X148.722 Y167.324 E48.18242
G1 X138.324 Y177.722 E48.56471
G1 X135.843 Y178.750 E48.63452
G1 X110.157 Y178.750 E49.30222
G1 X107.676 Y177.722 E49.37202
G1 X97.278 Y167.324 E49.75431
G1 X96.250 Y164.843 E49.82412
G1 X96.250 Y101.929 E51.45957
G1 X96.296 Y100.750 E51.49024
G1 X96.456 Y99.380 E51.52610
G1 X96.729 Y98.023 E51.56210
G1 X97.112 Y96.693 E51.59807
G1 X97.605 Y95.399 E51.63406
G1 X98.203 Y94.150 E51.67005
G1 X98.901 Y92.955 E51.70604
G1 X99.696 Y91.822 E51.74203
G1 X100.533 Y90.816 E51.77604
G1 X100.957 Y91.090 F7800.000
G1 X101.900 Y90.132 E51.81099 F1080.000
G1 X102.916 Y89.256 E51.84586
G1 X104.005 Y88.466 E51.88082
G1 X105.151 Y87.771 E51.91569
G1 X106.355 Y87.170 E51.95065
G1 X107.600 Y86.673 E51.98550
G1 X108.886 Y86.279 E52.02048
G1 X110.452 Y85.950 E52.06207
G1 X111.782 Y85.795 E52.09686
G1 X112.935 Y85.750 E52.12686
G1 X133.065 Y85.750 E52.65016
G1 X134.474 Y85.817 E52.68682 F1080.000
G1 X135.804 Y85.993 E52.72169
G1 X137.114 Y86.279 E52.75654
G1 X138.154 Y86.589 E52.78476
G1 X139.409 Y87.067 E52.81967
G1 X140.621 Y87.647 E52.85459
G1 X141.780 Y88.326 E52.88950
G1 X143.084 Y89.256 E52.93115
G1 X144.100 Y90.132 E52.96602
G1 X145.043 Y91.090 E53.00097
G1 X145.903 Y92.121 E53.03586
G1 X146.534 Y93.005 E53.06410
G1 X147.229 Y94.151 E53.09895
G1 X147.830 Y95.355 E53.13392
G1 X148.327 Y96.601 E53.16879
G1 X148.784 Y98.136 E53.21043
G1 X149.050 Y99.452 E53.24534
G1 X149.183 Y100.525 E53.27345
G1 X149.247 Y101.803 E53.30672
G1 X149.250 Y164.743 E54.94286
G1 X148.298 Y167.040 E55.00749
G1 X138.040 Y177.298 E55.38461
G1 X135.743 Y178.250 E55.44924
G1 X110.257 Y178.250 E56.11177
G1 X107.960 Y177.298 E56.17641
G1 X97.702 Y167.040 E56.55353
G1 X96.750 Y164.743 E56.61816
G1 X96.750 Y101.935 E58.25089
G1 X96.795 Y100.782 E58.28088
G1 X96.950 Y99.452 E58.31567
G1 X97.216 Y98.135 E58.35060
G1 X97.589 Y96.846 E58.38550
G1 X98.067 Y95.591 E58.42041
G1 X98.647 Y94.379 E58.45533
G1 X99.326 Y93.220 E58.49024
G1 X100.097 Y92.121 E58.52516
G1 X100.908 Y91.147 E58.55810
G1 X101.332 Y91.421 F7800.000
G1 X102.246 Y90.492 E58.59197 F1080.000
G1 X103.232 Y89.645 E58.62577
G1 X104.287 Y88.879 E58.65965
G1 X105.398 Y88.205 E58.69345
G1 X106.565 Y87.624 E58.72733
G1 X107.772 Y87.142 E58.76111
G1 X109.019 Y86.761 E58.79501
G1 X110.524 Y86.445 E58.83499
G1 X111.813 Y86.295 E58.86871
G1 X112.940 Y86.250 E58.89804
G1 X133.180 Y86.253 E59.42419
G1 X134.423 Y86.314 E59.45652 F1080.000
G1 X135.476 Y86.445 E59.48411
G1 X136.752 Y86.703 E59.51795
G1 X138.002 Y87.065 E59.55177
G1 X139.218 Y87.529 E59.58561
G1 X140.392 Y88.092 E59.61946
G1 X141.515 Y88.750 E59.65329
G1 X142.768 Y89.645 E59.69333
G1 X143.754 Y90.492 E59.72713
G1 X144.669 Y91.421 E59.76100
G1 X145.502 Y92.420 E59.79482
G1 X146.121 Y93.287 E59.82252
G1 X146.794 Y94.398 E59.85630
G1 X147.376 Y95.565 E59.89019
G1 X147.858 Y96.773 E59.92399
G1 X148.297 Y98.249 E59.96402
G1 X148.555 Y99.524 E59.99785
G1 X148.686 Y100.577 E60.02542
G1 X148.747 Y101.819 E60.05776
G1 X148.750 Y164.644 E61.69090
G1 X147.875 Y166.757 E61.75036
G1 X137.757 Y176.875 E62.12231
G1 X135.644 Y177.750 E62.18178
G1 X110.356 Y177.750 E62.83913
G1 X108.243 Y176.875 E62.89860
G1 X98.125 Y166.757 E63.27055
G1 X97.250 Y164.644 E63.33001
G1 X97.250 Y101.940 E64.96002
G1 X97.295 Y100.813 E64.98934
G1 X97.445 Y99.524 E65.02306
G1 X97.703 Y98.248 E65.05690
G1 X98.065 Y96.998 E65.09073
G1 X98.529 Y95.782 E65.12457
G1 X99.092 Y94.608 E65.15841
G1 X99.750 Y93.485 E65.19225
G1 X100.498 Y92.420 E65.22610
G1 X101.283 Y91.478 E65.25796
G1 X101.706 Y91.752 F7800.000
G1 X102.592 Y90.853 E65.29076 F1080.000
G1 X103.547 Y90.033 E65.32348
G1 X104.569 Y89.292 E65.35629
