; generated by Slic3r 1.1.7 on 2015-04-10 at 09:25:37

; perimeters extrusion width = 0.60mm
; infill extrusion width = 0.60mm
; solid infill extrusion width = 0.60mm
; top infill extrusion width = 0.20mm

G21 ; set units to millimeters
M190 S145 ; wait for bed temperature to be reached
;--------------------------------------
G28 ; home all axes
G1 Z5 F500 ; lift nozzle
M109 S270 ; wait for extruder temp to be reached
M3001 ; Aktivate Z-Compensation 
; Move Z-axis n-steps up (see manual)
;M3004 S0 ; + n-steps bed down // - n-steps bed up! old Firmware Version <= 0.91.48
;M3006 S0 ; configure the static z-offset (units are [um])
G90 ; use absolute coordinates
M82 ; use absolute distances for extrusion
G92 E0 ; start line
G1 F300 E-0.5
G1 X230 Y22 Z0.35 F5000
G1 F800 E13
G1 X20 E25 F1000
; Acceleration up to...
; Acc printing
M201 X3000 Y3000 Z100
; Acc travel
M202 X3000 Y3000 Z100
; ZJERK 
M205 Z0.1
;--------------------------------------
G90 ; use absolute coordinates
G92 E0
M82 ; use absolute distances for extrusion
G1 F1500.000 E-2.00000
G92 E0
G1 Z0.350 F7800.000
G1 X108.961 Y112.250 F7800.000
G1 E2.00000 F1500.000
G1 X137.039 Y112.250 E2.72987 F1080.000
G1 X142.750 Y117.961 E2.93984
G1 X142.750 Y146.039 E3.66972 F1080.000
G1 X137.039 Y151.750 E3.87969
G1 X108.961 Y151.750 E4.60956
G1 X103.250 Y146.039 E4.81953
G1 X103.250 Y117.961 E5.54940
G1 X108.908 Y112.303 E5.75742
G1 X109.169 Y112.750 F7800.000
G1 X136.831 Y112.750 E6.47653 F1080.000
G1 X142.250 Y118.169 E6.67573 F1080.000
G1 X142.250 Y145.831 E7.39484
G1 X136.831 Y151.250 E7.59404
G1 X109.169 Y151.250 E8.31314
G1 X103.750 Y145.831 E8.51234
G1 X103.750 Y118.169 E9.23145
G1 X109.115 Y112.803 E9.42870
G1 X109.376 Y113.250 F7800.000
G1 X136.624 Y113.250 E10.13704 F1080.000
G1 X141.750 Y118.376 E10.32548
G1 X141.750 Y145.624 E11.03381 F1080.000
G1 X136.624 Y150.750 E11.22225
G1 X109.376 Y150.750 E11.93059
G1 X104.250 Y145.624 E12.11902
G1 X104.250 Y118.376 E12.82736
G1 X109.323 Y113.303 E13.01384
G1 X109.583 Y113.750 F7800.000
G1 X136.417 Y113.750 E13.71141 F1080.000
G1 X141.250 Y118.583 E13.88908 F1080.000
G1 X141.250 Y145.417 E14.58665
G1 X136.417 Y150.250 E14.76432
G1 X109.583 Y150.250 E15.46189
G1 X104.750 Y145.417 E15.63955
G1 X104.750 Y118.583 E16.33713
G1 X109.530 Y113.803 E16.51284
G1 X109.790 Y114.250 F7800.000
G1 X136.210 Y114.250 E17.19965 F1080.000
G1 X140.750 Y118.790 E17.36654
G1 X140.750 Y145.210 E18.05335 F1080.000
G1 X136.210 Y149.750 E18.22025
G1 X109.790 Y149.750 E18.90705
G1 X105.250 Y145.210 E19.07395
G1 X105.250 Y118.790 E19.76075
G1 X109.737 Y114.303 E19.92570
G1 X109.997 Y114.750 F7800.000
G1 X136.003 Y114.750 E20.60174 F1080.000
G1 X140.250 Y118.997 E20.75787 F1080.000
G1 X140.250 Y145.003 E21.43390
G1 X136.003 Y149.250 E21.59003
G1 X109.997 Y149.250 E22.26607
G1 X105.750 Y145.003 E22.42220
G1 X105.750 Y118.997 E23.09824
G1 X109.944 Y114.803 E23.25242
G1 X110.204 Y115.250 F7800.000
G1 X135.796 Y115.250 E23.91769 F1080.000
G1 X139.750 Y119.204 E24.06305
G1 X139.750 Y144.796 E24.72832 F1080.000
G1 X135.796 Y148.750 E24.87368
G1 X110.204 Y148.750 E25.53895
G1 X106.250 Y144.796 E25.68431
G1 X106.250 Y119.204 E26.34958
G1 X110.151 Y115.303 E26.49299
G1 X110.411 Y115.750 F7800.000
G1 X135.589 Y115.750 E27.14750 F1080.000
G1 X139.250 Y119.411 E27.28209 F1080.000
G1 X139.250 Y144.589 E27.93659
G1 X135.589 Y148.250 E28.07119
G1 X110.411 Y148.250 E28.72569
G1 X106.750 Y144.589 E28.86028
G1 X106.750 Y119.411 E29.51478
G1 X110.358 Y115.803 E29.64743
G1 X110.618 Y116.250 F7800.000
G1 X135.382 Y116.250 E30.29116 F1080.000
G1 X138.750 Y119.618 E30.41499
G1 X138.750 Y144.382 E31.05873 F1080.000
G1 X135.382 Y147.750 E31.18255
G1 X110.618 Y147.750 E31.82629
G1 X107.250 Y144.382 E31.95011
G1 X107.250 Y119.618 E32.59385
G1 X110.565 Y116.303 E32.71573
G1 X110.825 Y116.750 F7800.000
G1 X135.175 Y116.750 E33.34869 F1080.000
G1 X138.250 Y119.825 E33.46175 F1080.000
G1 X138.250 Y144.175 E34.09472
G1 X135.175 Y147.250 E34.20778
G1 X110.825 Y147.250 E34.84074
G1 X107.750 Y144.175 E34.95380
G1 X107.750 Y119.825 E35.58677
G1 X110.772 Y116.803 E35.69788
G1 X111.032 Y117.250 F7800.000
G1 X134.968 Y117.250 E36.32008 F1080.000
G1 X137.750 Y120.032 E36.42237
G1 X137.750 Y143.968 E37.04457 F1080.000
G1 X134.968 Y146.750 E37.14686
G1 X111.032 Y146.750 E37.76906
G1 X108.250 Y143.968 E37.87135
G1 X108.250 Y120.032 E38.49355
G1 X110.979 Y117.303 E38.59389
G1 X111.240 Y117.750 F7800.000
G1 X134.760 Y117.750 E39.20532 F1080.000
G1 X137.250 Y120.240 E39.29685 F1080.000
G1 X137.250 Y143.760 E39.90828
G1 X134.760 Y146.250 E39.99980
G1 X111.240 Y146.250 E40.61123
G1 X108.750 Y143.760 E40.70276
G1 X108.750 Y120.240 E41.31419
G1 X111.187 Y117.803 E41.40376
G1 X111.447 Y118.250 F7800.000
G1 X134.553 Y118.250 E42.00443 F1080.000
G1 X136.750 Y120.447 E42.08518
G1 X136.750 Y143.553 E42.68585 F1080.000
G1 X134.553 Y145.750 E42.76661
G1 X111.447 Y145.750 E43.36727
G1 X109.250 Y143.553 E43.44803
G1 X109.250 Y120.447 E44.04869
G1 X111.394 Y118.303 E44.12750
G1 X111.654 Y118.750 F7800.000
G1 X134.346 Y118.750 E44.71739 F1080.000
G1 X136.250 Y120.654 E44.78738 F1080.000
G1 X136.250 Y143.346 E45.37728
G1 X134.346 Y145.250 E45.44727
G1 X111.654 Y145.250 E46.03716
G1 X109.750 Y143.346 E46.10715
G1 X109.750 Y120.654 E46.69705
G1 X111.601 Y118.803 E46.76509
G1 X111.861 Y119.250 F7800.000
G1 X134.139 Y119.250 E47.34421 F1080.000
G1 X135.750 Y120.861 E47.40344
G1 X135.750 Y143.139 E47.98256 F1080.000
G1 X134.139 Y144.750 E48.04179
G1 X111.861 Y144.750 E48.62091
G1 X110.250 Y143.139 E48.68014
G1 X110.250 Y120.861 E49.25926
G1 X111.808 Y119.303 E49.31654
G1 X112.068 Y119.750 F7800.000
G1 X133.932 Y119.750 E49.88490 F1080.000
G1 X135.250 Y121.068 E49.93335 F1080.000
G1 X135.250 Y142.932 E50.50171
G1 X133.932 Y144.250 E50.55017
G1 X112.068 Y144.250 E51.11853
G1 X110.750 Y142.932 E51.16698
G1 X110.750 Y121.068 E51.73534
G1 X112.015 Y119.803 E51.78185
G1 X112.275 Y120.250 F7800.000
G1 X133.725 Y120.250 E52.33944 F1080.000
G1 X134.750 Y121.275 E52.37712
G1 X134.750 Y142.725 E52.93472 F1080.000
G1 X133.725 Y143.750 E52.97240
G1 X112.275 Y143.750 E53.53000
G1 X111.250 Y142.725 E53.56768
G1 X111.250 Y121.275 E54.12528
G1 X112.222 Y120.303 E54.16101
G1 X112.482 Y120.750 F7800.000
G1 X133.518 Y120.750 E54.70784 F1080.000
G1 X134.250 Y121.482 E54.73476 F1080.000
G1 X134.250 Y142.518 E55.28158
G1 X133.518 Y143.250 E55.30850
G1 X112.482 Y143.250 E55.85533
G1 X111.750 Y142.518 E55.88225
G1 X111.750 Y121.482 E56.42907
G1 X112.429 Y120.803 E56.45404
G1 X112.689 Y121.250 F7800.000
G1 X133.311 Y121.250 E56.99010 F1080.000
G1 X133.750 Y121.689 E57.00625
G1 X133.750 Y142.311 E57.54231 F1080.000
G1 X133.311 Y142.750 E57.55846
G1 X112.689 Y142.750 E58.09452
G1 X112.250 Y142.311 E58.11067
G1 X112.250 Y121.689 E58.64672
G1 X112.636 Y121.303 E58.66093
G1 X112.896 Y121.750 F7800.000
G1 X133.104 Y121.750 E59.18622 F1080.000
G1 X133.250 Y121.896 E59.19160
G1 X133.250 Y142.104 E59.71689
G1 X133.104 Y142.250 E59.72227
G1 X112.896 Y142.250 E60.24756
G1 X112.750 Y142.104 E60.25295
G1 X112.750 Y121.896 E60.77824
G1 X112.843 Y121.803 E60.78167
G1 F1500.000 E58.78167
G92 E0
G1 X132.700 Y141.700 F7800.000
G1 E2.00000 F1500.000
G1 X113.300 Y141.700 E2.58353 F756.000
G1 X113.300 Y122.300 E3.16705
G1 X132.700 Y122.300 E3.75058
G1 X132.700 Y141.625 E4.33185
G1 X132.267 Y141.450 F7800.000
G1 X132.121 Y141.121 F7800.000
G1 X113.879 Y141.121 E4.88057 F1080.000
G1 X113.879 Y122.879 E5.42929
G1 X132.121 Y122.879 E5.97801
G1 X132.121 Y141.046 E6.52448
G1 X126.734 Y135.734 F7800.000
G1 X126.408 Y136.061 E6.53838 F756.000
G1 X125.651 Y136.591 E6.56617
G1 X124.813 Y136.981 E6.59397
G1 X123.921 Y137.221 E6.62176
G1 X123.000 Y137.301 E6.64956
G1 X122.079 Y137.221 E6.67735
G1 X121.187 Y136.981 E6.70514
G1 X120.322 Y136.571 E6.73394
G1 X119.593 Y136.061 E6.76072
G1 X118.939 Y135.408 E6.78851
G1 X118.409 Y134.651 E6.81630
G1 X118.019 Y133.813 E6.84410
G1 X117.779 Y132.921 E6.87189
G1 X117.699 Y132.000 E6.89969
G1 X117.788 Y131.047 E6.92849
G1 X118.019 Y130.187 E6.95526
G1 X118.409 Y129.349 E6.98306
G1 X118.963 Y128.569 E7.01185
G1 X119.592 Y127.939 E7.03863
G1 X120.349 Y127.409 E7.06642
G1 X121.187 Y127.019 E7.09422
G1 X122.113 Y126.776 E7.12302
G1 X123.000 Y126.699 E7.14979 F756.000
G1 X123.921 Y126.779 E7.17758
G1 X124.813 Y127.019 E7.20538
G1 X125.651 Y127.409 E7.23317
G1 X126.408 Y127.939 E7.26097
G1 X127.061 Y128.592 E7.28876
G1 X127.591 Y129.349 E7.31656
G1 X127.981 Y130.187 E7.34435
G1 X128.221 Y131.079 E7.37214
G1 X128.301 Y132.000 E7.39994
G1 X128.221 Y132.921 E7.42773
G1 X127.981 Y133.813 E7.45553
G1 X127.591 Y134.651 E7.48332
G1 X127.061 Y135.408 E7.51112
G1 X126.787 Y135.681 E7.52275
G1 F1500.000 E5.52275
G92 E0
G1 X121.998 Y126.290 F7800.000
G1 X127.143 Y136.143 F7800.000
G1 E2.00000 F1500.000
G1 X126.781 Y136.506 E2.01542 F1080.000
G1 X125.941 Y137.094 E2.04626
G1 X125.012 Y137.527 E2.07710
G1 X124.021 Y137.793 E2.10794
G1 X123.000 Y137.882 E2.13878
G1 X121.979 Y137.793 E2.16962
G1 X120.988 Y137.527 E2.20046
G1 X120.059 Y137.094 E2.23129
G1 X119.219 Y136.506 E2.26213
G1 X118.494 Y135.781 E2.29297
G1 X117.906 Y134.941 E2.32381
G1 X117.473 Y134.012 E2.35465
G1 X117.207 Y133.021 E2.38549
G1 X117.118 Y132.000 E2.41633
G1 X117.207 Y130.979 E2.44717
G1 X117.473 Y129.988 E2.47801
G1 X117.906 Y129.059 E2.50885
G1 X118.494 Y128.219 E2.53968
G1 X119.219 Y127.494 E2.57052
G1 X120.059 Y126.906 E2.60136
G1 X120.988 Y126.473 E2.63220
G1 X121.979 Y126.207 E2.66304
G1 X123.000 Y126.118 E2.69388
G1 X123.084 Y126.125 E2.69642
G1 X124.021 Y126.207 E2.72472 F1080.000
G1 X125.012 Y126.473 E2.75556
G1 X125.941 Y126.906 E2.78640
G1 X126.781 Y127.494 E2.81724
G1 X127.506 Y128.219 E2.84808
G1 X127.554 Y128.288 E2.85062
G1 X128.094 Y129.059 E2.87892
G1 X128.527 Y129.988 E2.90976
G1 X128.793 Y130.979 E2.94059
G1 X128.882 Y132.000 E2.97143
G1 X128.793 Y133.021 E3.00227
G1 X128.527 Y134.012 E3.03311
G1 X128.094 Y134.941 E3.06395
G1 X127.506 Y135.781 E3.09479
G1 X127.196 Y136.090 E3.10795
G1 X129.121 Y130.662 F7800.000
G1 X131.722 Y133.263 E3.21858 F1080.000
G1 X131.722 Y134.092 E3.24351
G1 X129.250 Y131.619 E3.34868
G1 X129.244 Y132.443 E3.37345
G1 X131.722 Y134.921 E3.47885
G1 X131.722 Y135.749 E3.50378
G1 X129.161 Y133.189 E3.61271
G1 X128.986 Y133.842 E3.63306
G1 X131.722 Y136.578 E3.74944
G1 X131.722 Y137.407 E3.77437
G1 X128.764 Y134.449 E3.90020
G1 X128.500 Y135.014 E3.91896
G1 X131.722 Y138.236 E4.05600
G1 X131.722 Y139.065 E4.08093
G1 X128.177 Y135.519 E4.23174
G1 X127.835 Y136.007 E4.24964
G1 X131.722 Y139.893 E4.41497
G1 X131.702 Y140.702 E4.43930
G1 X127.426 Y136.426 E4.62121
G1 X127.007 Y136.835 E4.63883
G1 X130.893 Y140.722 E4.80417
G1 X130.065 Y140.722 E4.82909
G1 X126.519 Y137.177 E4.97991
G1 X126.014 Y137.500 E4.99795
G1 X129.236 Y140.722 E5.13499
G1 X128.407 Y140.722 E5.15992
G1 X125.449 Y137.764 E5.28574
G1 X124.842 Y137.986 E5.30518
G1 X127.578 Y140.722 E5.42156
G1 X126.749 Y140.722 E5.44649
G1 X124.189 Y138.161 E5.55542
G1 X123.443 Y138.244 E5.57799
G1 X125.921 Y140.722 E5.68340
G1 X125.092 Y140.722 E5.70832
G1 X122.619 Y138.250 E5.81350
G1 X121.662 Y138.121 E5.84254
G1 X124.263 Y140.722 E5.95317
G1 X123.434 Y140.722 E5.97810
G1 X120.411 Y137.699 E6.10670
G1 X120.119 Y140.722 F7800.000
G1 X114.278 Y134.881 E6.35518 F1080.000
G1 X114.278 Y135.709 E6.38011
G1 X119.291 Y140.722 E6.59333
G1 X118.462 Y140.722 E6.61826
G1 X114.278 Y136.538 E6.79623
G1 X114.278 Y137.367 E6.82116
G1 X117.633 Y140.722 E6.96387
G1 X116.804 Y140.722 E6.98880
G1 X114.278 Y138.196 E7.09626
G1 X114.278 Y139.025 E7.12119
G1 X115.975 Y140.722 E7.19340
G1 X115.147 Y140.722 E7.21833
G1 X114.278 Y139.853 E7.25528
G1 X114.278 Y140.682 E7.28021
G1 X114.318 Y140.722 E7.28191
G1 X120.948 Y140.722 F7800.000
G1 X114.278 Y134.052 E7.56565 F1080.000
G1 X114.278 Y133.223 E7.59057
G1 X121.777 Y140.722 E7.90956
G1 X122.606 Y140.722 E7.93449
G1 X114.278 Y132.394 E8.28873
G1 X114.278 Y131.566 E8.31365
G1 X117.301 Y134.589 E8.44226
G1 X116.879 Y133.338 F7800.000
G1 X114.278 Y130.737 E8.55289 F1080.000
G1 X114.278 Y129.908 E8.57781
G1 X116.750 Y132.381 E8.68299
G1 X116.756 Y131.557 E8.70775
G1 X114.278 Y129.079 E8.81316
G1 X114.278 Y128.251 E8.83809
G1 X116.839 Y130.811 E8.94702
G1 X117.014 Y130.158 E8.96737
G1 X114.278 Y127.422 E9.08375
G1 X114.278 Y126.593 E9.10868
G1 X117.236 Y129.551 E9.23451
G1 X117.500 Y128.986 E9.25326
G1 X114.278 Y125.764 E9.39030
G1 X114.278 Y124.935 E9.41523
G1 X117.823 Y128.481 E9.56604
G1 X118.165 Y127.993 E9.58394
G1 X114.278 Y124.107 E9.74927
G1 X114.298 Y123.298 E9.77361
G1 X118.574 Y127.574 E9.95551
G1 X118.993 Y127.165 E9.97314
G1 X115.107 Y123.278 E10.13847
G1 X115.935 Y123.278 E10.16340
G1 X119.481 Y126.823 E10.31421
G1 X119.986 Y126.500 E10.33226
G1 X116.764 Y123.278 E10.46930
G1 X117.593 Y123.278 E10.49422
G1 X120.551 Y126.236 E10.62005
G1 X121.158 Y126.014 E10.63948
G1 X118.422 Y123.278 E10.75586
G1 X119.251 Y123.278 E10.78079
G1 X121.811 Y125.839 E10.88972
G1 X122.557 Y125.756 E10.91230
G1 X120.079 Y123.278 E11.01770
G1 X120.908 Y123.278 E11.04263
G1 X123.381 Y125.750 E11.14780
G1 X124.338 Y125.879 E11.17685
G1 X121.737 Y123.278 E11.28747
G1 X122.566 Y123.278 E11.31240
G1 X125.589 Y126.301 E11.44101
G1 X128.699 Y129.411 F7800.000
G1 X131.722 Y132.434 E11.56961 F1080.000
G1 X131.722 Y131.606 E11.59454
G1 X123.394 Y123.278 E11.94878
G1 X124.223 Y123.278 E11.97371
G1 X131.722 Y130.777 E12.29269
G1 X131.722 Y129.948 E12.31762
G1 X125.052 Y123.278 E12.60135
G1 X125.881 Y123.278 E12.62628
G1 X131.722 Y129.119 E12.87476
G1 X131.722 Y128.291 E12.89968
G1 X126.709 Y123.278 E13.11291
G1 X127.538 Y123.278 E13.13784
G1 X131.722 Y127.462 E13.31581
G1 X131.722 Y126.633 E13.34073
G1 X128.367 Y123.278 E13.48345
G1 X129.196 Y123.278 E13.50838
G1 X131.722 Y125.804 E13.61584
G1 X131.722 Y124.975 E13.64077
G1 X130.025 Y123.278 E13.71298
G1 X130.853 Y123.278 E13.73791
G1 X131.722 Y124.147 E13.77486
G1 X131.722 Y123.318 E13.79979
G1 X131.682 Y123.278 E13.80149
M104 S260 ; set temperature
M140 S110 ; set bed temperature
G1 F1500.000 E11.80149
G92 E0
G1 Z0.550 F7800.000
G1 X127.143 Y136.143 F7800.000
G1 E2.00000 F1500.000
G1 X126.781 Y136.506 E2.00881 F1800.000
G1 X125.941 Y137.094 E2.02643
G1 X125.012 Y137.527 E2.04406
G1 X124.021 Y137.793 E2.06168
G1 X123.000 Y137.882 E2.07930
G1 X121.979 Y137.793 E2.09692
G1 X120.988 Y137.527 E2.11455
G1 X120.059 Y137.094 E2.13217
G1 X119.219 Y136.506 E2.14979
G1 X118.811 Y136.098 E2.15971
G1 X118.716 Y136.098 E2.16134
G1 X117.906 Y134.941 E2.18561
G1 X117.473 Y134.012 E2.20324
G1 X117.207 Y133.021 E2.22086
G1 X117.199 Y132.925 E2.22252
G1 X117.118 Y132.000 E2.23848
G1 X117.207 Y130.979 E2.25610
G1 X117.473 Y129.988 E2.27373
G1 X117.514 Y129.901 E2.27538
G1 X117.906 Y129.059 E2.29135
G1 X118.494 Y128.219 E2.30897
G1 X119.219 Y127.494 E2.32659
G1 X120.059 Y126.906 E2.34422
G1 X120.988 Y126.473 E2.36184
G1 X121.979 Y126.207 E2.37946
G1 X123.000 Y126.118 E2.39708
G1 X123.096 Y126.127 E2.39874
G1 X124.021 Y126.207 E2.41470 F1800.000
G1 X125.012 Y126.473 E2.43233
G1 X125.941 Y126.906 E2.44995
G1 X126.781 Y127.494 E2.46757
G1 X127.189 Y127.902 E2.47749
G1 X127.284 Y127.902 E2.47912
G1 X128.094 Y129.059 E2.50340
G1 X128.527 Y129.988 E2.52102
G1 X128.793 Y130.979 E2.53864
G1 X128.882 Y132.000 E2.55626
G1 X128.793 Y133.021 E2.57389
G1 X128.527 Y134.012 E2.59151
G1 X128.094 Y134.941 E2.60913
G1 X127.506 Y135.781 E2.62675
G1 X127.196 Y136.090 E2.63427
G1 X126.734 Y135.734 F7800.000
G1 X126.408 Y136.061 E2.64222 F1260.000
G1 X125.651 Y136.591 E2.65810
G1 X124.813 Y136.981 E2.67398
G1 X123.921 Y137.221 E2.68986
G1 X123.000 Y137.301 E2.70575
