; generated by Slic3r 1.1.7 on 2015-04-10 at 09:26:03

; perimeters extrusion width = 0.60mm
; infill extrusion width = 0.60mm
; solid infill extrusion width = 0.60mm
; top infill extrusion width = 0.30mm

G21 ; set units to millimeters
M190 S145 ; wait for bed temperature to be reached
;--------------------------------------
G28 ; home all axes
G1 Z5 F500 ; lift nozzle
M109 S270 ; wait for extruder temp to be reached
M3001 ; Aktivate Z-Compensation 
; Move Z-axis n-steps up (see manual)
;M3004 S0 ; + n-steps bed down // - n-steps bed up! old Firmware Version <= 0.91.48
;M3006 S0 ; configure the static z-offset (units are [um])
G90 ; use absolute coordinates
M82 ; use absolute distances for extrusion
G92 E0 ; start line
G1 F300 E-0.5
G1 X230 Y22 Z0.35 F5000
G1 F800 E13
G1 X20 E25 F1000
; Acceleration up to...
; Acc printing
M201 X3000 Y3000 Z100
; Acc travel
M202 X3000 Y3000 Z100
; ZJERK 
M205 Z0.1
;--------------------------------------
G90 ; use absolute coordinates
G92 E0
M82 ; use absolute distances for extrusion
G1 F1500.000 E-2.00000
G92 E0
G1 Z0.350 F7800.000
G1 X18.961 Y107.250 F7800.000
G1 E2.00000 F1500.000
G1 X227.039 Y107.250 E7.40903 F1080.000
G1 X232.750 Y112.961 E7.61900
G1 X232.750 Y151.039 E8.60883 F1080.000
G1 X227.039 Y156.750 E8.81879
G1 X18.961 Y156.750 E14.22782
G1 X13.250 Y151.039 E14.43779
G1 X13.250 Y112.961 E15.42762
G1 X18.908 Y107.303 E15.63564
G1 X19.169 Y107.750 F7800.000
G1 X226.831 Y107.750 E21.03390 F1080.000
G1 X232.250 Y113.169 E21.23310 F1080.000
G1 X232.250 Y150.831 E22.21216
G1 X226.831 Y156.250 E22.41136
G1 X19.169 Y156.250 E27.80962
G1 X13.750 Y150.831 E28.00883
G1 X13.750 Y113.169 E28.98789
G1 X19.115 Y107.803 E29.18514
G1 X19.376 Y108.250 F7800.000
G1 X226.624 Y108.250 E34.57263 F1080.000
G1 X231.750 Y113.376 E34.76106
G1 X231.750 Y150.624 E35.72936 F1080.000
G1 X226.624 Y155.750 E35.91779
G1 X19.376 Y155.750 E41.30528
G1 X14.250 Y150.624 E41.49372
G1 X14.250 Y113.376 E42.46201
G1 X19.323 Y108.303 E42.64849
G1 X19.583 Y108.750 F7800.000
G1 X226.417 Y108.750 E48.02522 F1080.000
G1 X231.250 Y113.583 E48.20289 F1080.000
G1 X231.250 Y150.417 E49.16041
G1 X226.417 Y155.250 E49.33808
G1 X19.583 Y155.250 E54.71480
G1 X14.750 Y150.417 E54.89247
G1 X14.750 Y113.583 E55.84999
G1 X19.530 Y108.803 E56.02571
G1 X19.790 Y109.250 F7800.000
G1 X226.210 Y109.250 E61.39167 F1080.000
G1 X230.750 Y113.790 E61.55857
G1 X230.750 Y150.210 E62.50532 F1080.000
G1 X226.210 Y154.750 E62.67222
G1 X19.790 Y154.750 E68.03818
G1 X15.250 Y150.210 E68.20508
G1 X15.250 Y113.790 E69.15184
G1 X19.737 Y109.303 E69.31678
G1 X19.997 Y109.750 F7800.000
G1 X226.003 Y109.750 E74.67198 F1080.000
G1 X230.250 Y113.997 E74.82811 F1080.000
G1 X230.250 Y150.003 E75.76410
G1 X226.003 Y154.250 E75.92023
G1 X19.997 Y154.250 E81.27542
G1 X15.750 Y150.003 E81.43155
G1 X15.750 Y113.997 E82.36754
G1 X19.944 Y109.803 E82.52172
G1 X20.204 Y110.250 F7800.000
G1 X225.796 Y110.250 E87.86614 F1080.000
G1 X229.750 Y114.204 E88.01150
G1 X229.750 Y149.796 E88.93673 F1080.000
G1 X225.796 Y153.750 E89.08209
G1 X20.204 Y153.750 E94.42651
G1 X16.250 Y149.796 E94.57188
G1 X16.250 Y114.204 E95.49710
G1 X20.151 Y110.303 E95.64051
G1 X20.411 Y110.750 F7800.000
G1 X225.589 Y110.750 E100.97417 F1080.000
G1 X229.250 Y114.411 E101.10876 F1080.000
G1 X229.250 Y149.589 E102.02322
G1 X225.589 Y153.250 E102.15781
G1 X20.411 Y153.250 E107.49147
G1 X16.750 Y149.589 E107.62606
G1 X16.750 Y114.411 E108.54052
G1 X20.358 Y110.803 E108.67316
G1 X20.618 Y111.250 F7800.000
G1 X225.382 Y111.250 E113.99605 F1080.000
G1 X228.750 Y114.618 E114.11988
G1 X228.750 Y149.382 E115.02357 F1080.000
G1 X225.382 Y152.750 E115.14739
G1 X20.618 Y152.750 E120.47028
G1 X17.250 Y149.382 E120.59411
G1 X17.250 Y114.618 E121.49780
G1 X20.565 Y111.303 E121.61967
G1 X20.825 Y111.750 F7800.000
G1 X225.175 Y111.750 E126.93180 F1080.000
G1 X228.250 Y114.825 E127.04486 F1080.000
G1 X228.250 Y149.175 E127.93778
G1 X225.175 Y152.250 E128.05084
G1 X20.825 Y152.250 E133.36296
G1 X17.750 Y149.175 E133.47602
G1 X17.750 Y114.825 E134.36894
G1 X20.772 Y111.803 E134.48005
G1 X21.032 Y112.250 F7800.000
G1 X224.968 Y112.250 E139.78140 F1080.000
G1 X227.750 Y115.032 E139.88369
G1 X227.750 Y148.968 E140.76584 F1080.000
G1 X224.968 Y151.750 E140.86814
G1 X21.032 Y151.750 E146.16949
G1 X18.250 Y148.968 E146.27178
G1 X18.250 Y115.032 E147.15393
G1 X20.979 Y112.303 E147.25428
G1 X21.240 Y112.750 F7800.000
G1 X224.760 Y112.750 E152.54486 F1080.000
G1 X227.250 Y115.240 E152.63639 F1080.000
G1 X227.250 Y148.760 E153.50777
G1 X224.760 Y151.250 E153.59929
G1 X21.240 Y151.250 E158.88988
G1 X18.750 Y148.760 E158.98141
G1 X18.750 Y115.240 E159.85279
G1 X21.187 Y112.803 E159.94236
G1 X21.447 Y113.250 F7800.000
G1 X224.553 Y113.250 E165.22218 F1080.000
G1 X226.750 Y115.447 E165.30294
G1 X226.750 Y148.553 E166.16356 F1080.000
G1 X224.553 Y150.750 E166.24431
G1 X21.447 Y150.750 E171.52413
G1 X19.250 Y148.553 E171.60489
G1 X19.250 Y115.447 E172.46550
G1 X21.394 Y113.303 E172.54431
G1 X21.654 Y113.750 F7800.000
G1 X224.346 Y113.750 E177.81336 F1080.000
G1 X226.250 Y115.654 E177.88335 F1080.000
G1 X226.250 Y148.346 E178.73320
G1 X224.346 Y150.250 E178.80319
G1 X21.654 Y150.250 E184.07224
G1 X19.750 Y148.346 E184.14223
G1 X19.750 Y115.654 E184.99208
G1 X21.601 Y113.803 E185.06012
G1 X21.861 Y114.250 F7800.000
G1 X224.139 Y114.250 E190.31840 F1080.000
G1 X225.750 Y115.861 E190.37762
G1 X225.750 Y148.139 E191.21671 F1080.000
G1 X224.139 Y149.750 E191.27593
G1 X21.861 Y149.750 E196.53421
G1 X20.250 Y148.139 E196.59343
G1 X20.250 Y115.861 E197.43251
G1 X21.808 Y114.303 E197.48979
G1 X22.068 Y114.750 F7800.000
G1 X223.932 Y114.750 E202.73730 F1080.000
G1 X225.250 Y116.068 E202.78576 F1080.000
G1 X225.250 Y147.932 E203.61407
G1 X223.932 Y149.250 E203.66252
G1 X22.068 Y149.250 E208.91004
G1 X20.750 Y147.932 E208.95849
G1 X20.750 Y116.068 E209.78681
G1 X22.015 Y114.803 E209.83331
G1 X22.275 Y115.250 F7800.000
G1 X223.725 Y115.250 E215.07006 F1080.000
G1 X224.750 Y116.275 E215.10775
G1 X224.750 Y147.725 E215.92529 F1080.000
G1 X223.725 Y148.750 E215.96298
G1 X22.275 Y148.750 E221.19973
G1 X21.250 Y147.725 E221.23741
G1 X21.250 Y116.275 E222.05496
G1 X22.222 Y115.303 E222.09070
G1 X22.482 Y115.750 F7800.000
G1 X223.518 Y115.750 E227.31668 F1080.000
G1 X224.250 Y116.482 E227.34360 F1080.000
G1 X224.250 Y147.518 E228.15037
G1 X223.518 Y148.250 E228.17729
G1 X22.482 Y148.250 E233.40327
G1 X21.750 Y147.518 E233.43019
G1 X21.750 Y116.482 E234.23697
G1 X22.429 Y115.803 E234.26194
G1 X22.689 Y116.250 F7800.000
G1 X223.311 Y116.250 E239.47715 F1080.000
G1 X223.750 Y116.689 E239.49330
G1 X223.750 Y147.311 E240.28931 F1080.000
G1 X223.311 Y147.750 E240.30547
G1 X22.689 Y147.750 E245.52068
G1 X22.250 Y147.311 E245.53683
G1 X22.250 Y116.689 E246.33284
G1 X22.636 Y116.303 E246.34704
G1 X22.896 Y116.750 F7800.000
G1 X223.104 Y116.750 E251.55149 F1080.000
G1 X223.250 Y116.896 E251.55687
G1 X223.250 Y147.104 E252.34211
G1 X223.104 Y147.250 E252.34750
G1 X22.896 Y147.250 E257.55194
G1 X22.750 Y147.104 E257.55733
G1 X22.750 Y116.896 E258.34257
G1 X22.843 Y116.803 E258.34600
G1 F1500.000 E256.34600
G92 E0
G1 X23.300 Y146.700 F7800.000
G1 E2.00000 F1500.000
G1 X23.300 Y117.300 E2.88431 F756.000
G1 X222.700 Y117.300 E8.88199
G1 X222.700 Y146.700 E9.76631
G1 X23.375 Y146.700 E15.76173
G1 X23.550 Y146.267 F7800.000
G1 X23.879 Y146.121 F7800.000
G1 X23.879 Y117.879 E16.61124 F1080.000
G1 X222.121 Y117.879 E22.57412
G1 X222.121 Y146.121 E23.42363
G1 X23.954 Y146.121 E29.38425
G1 X195.912 Y132.684 F7800.000
G1 X195.912 Y131.316 E29.42539 F756.000
G1 X196.049 Y130.211 E29.45887
G1 X196.081 Y129.959 E29.46653
G1 X196.414 Y128.632 E29.50766
G1 X196.908 Y127.357 E29.54880
G1 X197.555 Y126.152 E29.58994
G1 X198.346 Y125.036 E29.63108
G1 X199.267 Y124.025 E29.67222
G1 X200.306 Y123.135 E29.71336
G1 X201.446 Y122.380 E29.75450
G1 X202.670 Y121.770 E29.79564
G1 X203.960 Y121.315 E29.83677
G1 X205.296 Y121.023 E29.87791
G1 X206.404 Y120.920 E29.91139
G1 X206.658 Y120.897 E29.91905 F756.000
G1 X208.025 Y120.939 E29.96019
G1 X209.376 Y121.149 E30.00133
G1 X210.692 Y121.523 E30.04247
G1 X211.952 Y122.056 E30.08361
G1 X213.136 Y122.740 E30.12475
G1 X214.227 Y123.564 E30.16588
G1 X215.209 Y124.516 E30.20702
G1 X216.067 Y125.582 E30.24816
G1 X216.787 Y126.745 E30.28930
G1 X217.358 Y127.987 E30.33044
G1 X217.773 Y129.290 E30.37158
G1 X218.024 Y130.635 E30.41272
G1 X218.109 Y132.000 E30.45386
G1 X218.024 Y133.365 E30.49500
G1 X217.773 Y134.710 E30.53613
G1 X217.436 Y135.770 E30.56962
G1 X217.358 Y136.013 E30.57727
G1 X216.787 Y137.255 E30.61841
G1 X216.067 Y138.418 E30.65955
G1 X215.209 Y139.484 E30.70069
G1 X214.227 Y140.436 E30.74183
G1 X213.136 Y141.260 E30.78297
G1 X211.952 Y141.944 E30.82411
G1 X210.692 Y142.477 E30.86525
G1 X209.621 Y142.782 E30.89873
G1 X209.376 Y142.851 E30.90638
G1 X208.025 Y143.061 E30.94752
G1 X206.658 Y143.103 E30.98866
G1 X205.296 Y142.977 E31.02980
G1 X203.960 Y142.685 E31.07094
G1 X202.670 Y142.230 E31.11208
G1 X201.446 Y141.620 E31.15322
G1 X200.306 Y140.865 E31.19436
G1 X199.267 Y139.975 E31.23549
G1 X198.346 Y138.964 E31.27663
G1 X197.555 Y137.848 E31.31777
G1 X196.908 Y136.643 E31.35891
G1 X196.414 Y135.368 E31.40005
G1 X196.081 Y134.041 E31.44119
G1 X195.922 Y132.758 E31.48007
G1 F1500.000 E29.48007
G92 E0
G1 X206.445 Y120.669 F7800.000
G1 X195.334 Y132.684 F7800.000
G1 E2.00000 F1500.000
G1 X195.334 Y131.280 E2.04221 F1080.000
G1 X195.511 Y129.852 E2.08550
G1 X195.862 Y128.457 E2.12878
G1 X196.382 Y127.115 E2.17207
G1 X197.062 Y125.847 E2.21535
G1 X197.726 Y124.909 E2.24991
G1 X197.894 Y124.672 E2.25864
G1 X198.863 Y123.609 E2.30192
G1 X199.956 Y122.673 E2.34521
G1 X201.156 Y121.878 E2.38850
G1 X202.444 Y121.236 E2.43178
G1 X203.801 Y120.758 E2.47507
G1 X205.207 Y120.450 E2.51835
G1 X206.640 Y120.317 E2.56164
G1 X207.788 Y120.353 E2.59619
G1 X208.078 Y120.362 E2.60492 F1080.000
G1 X209.500 Y120.582 E2.64821
G1 X210.885 Y120.976 E2.69149
G1 X212.210 Y121.537 E2.73478
G1 X213.456 Y122.257 E2.77806
G1 X214.605 Y123.124 E2.82135
G1 X215.638 Y124.126 E2.86463
G1 X216.358 Y125.021 E2.89919
G1 X216.540 Y125.247 E2.90792
G1 X217.297 Y126.470 E2.95121
G1 X217.899 Y127.778 E2.99449
G1 X218.335 Y129.149 E3.03778
G1 X218.600 Y130.564 E3.08106
G1 X218.688 Y132.000 E3.12435
G1 X218.600 Y133.436 E3.16763
G1 X218.389 Y134.566 E3.20219
G1 X218.335 Y134.851 E3.21092
G1 X217.899 Y136.222 E3.25420
G1 X217.297 Y137.530 E3.29749
G1 X216.540 Y138.753 E3.34077
G1 X215.638 Y139.874 E3.38406
G1 X214.605 Y140.876 E3.42735
G1 X213.456 Y141.743 E3.47063
G1 X212.210 Y142.463 E3.51392
G1 X210.885 Y143.024 E3.55720
G1 X209.780 Y143.338 E3.59176
G1 X209.500 Y143.418 E3.60049
G1 X208.078 Y143.638 E3.64377
G1 X206.640 Y143.683 E3.68706
G1 X205.207 Y143.550 E3.73034
G1 X203.801 Y143.242 E3.77363
G1 X202.444 Y142.764 E3.81691
G1 X201.156 Y142.122 E3.86020
G1 X199.956 Y141.327 E3.90349
G1 X198.863 Y140.391 E3.94677
G1 X197.894 Y139.328 E3.99006
G1 X197.062 Y138.153 E4.03334
G1 X196.382 Y136.885 E4.07663
G1 X195.862 Y135.543 E4.11991
G1 X195.511 Y134.148 E4.16320
G1 X195.339 Y132.759 E4.20530
G1 X75.551 Y132.000 F7800.000
G1 X75.512 Y132.443 E4.21868 F756.000
G1 X75.397 Y132.873 E4.23205
G1 X75.209 Y133.276 E4.24543
G1 X74.954 Y133.640 E4.25880
G1 X74.640 Y133.954 E4.27218
G1 X74.276 Y134.209 E4.28556
G1 X73.873 Y134.397 E4.29893
G1 X73.443 Y134.512 E4.31231
G1 X73.000 Y134.551 E4.32568
G1 X72.557 Y134.512 E4.33906
G1 X72.127 Y134.397 E4.35243
G1 X71.724 Y134.209 E4.36581
G1 X71.360 Y133.954 E4.37919
G1 X71.046 Y133.640 E4.39256
G1 X70.791 Y133.276 E4.40594
G1 X70.590 Y132.827 E4.42072
G1 X70.488 Y132.443 E4.43267
G1 X70.449 Y132.000 E4.44605
G1 X70.488 Y131.557 E4.45942
G1 X70.603 Y131.127 E4.47280
G1 X70.791 Y130.724 E4.48617
G1 X71.046 Y130.360 E4.49955
G1 X71.360 Y130.046 E4.51292
G1 X71.724 Y129.791 E4.52630
G1 X72.127 Y129.603 E4.53968
G1 X72.604 Y129.483 E4.55446
G1 X73.000 Y129.449 E4.56641 F756.000
G1 X73.443 Y129.488 E4.57978
G1 X73.873 Y129.603 E4.59316
G1 X74.276 Y129.791 E4.60654
G1 X74.640 Y130.046 E4.61991
G1 X74.954 Y130.360 E4.63329
G1 X75.209 Y130.724 E4.64666
G1 X75.397 Y131.127 E4.66004
G1 X75.512 Y131.557 E4.67341
G1 X75.545 Y131.925 E4.68453
G1 F1500.000 E2.68453
G92 E0
G1 X72.459 Y129.114 F7800.000
G1 X76.127 Y131.950 F7800.000
G1 E2.00000 F1500.000
G1 X76.084 Y132.544 E2.01792 F1080.000
G1 X75.943 Y133.071 E2.03434
G1 X75.712 Y133.566 E2.05076
G1 X75.399 Y134.013 E2.06718
G1 X75.013 Y134.399 E2.08360
G1 X74.566 Y134.712 E2.10003
G1 X74.071 Y134.943 E2.11645
G1 X73.544 Y135.084 E2.13287
G1 X73.000 Y135.132 E2.14929
G1 X72.456 Y135.084 E2.16571
G1 X71.929 Y134.943 E2.18213
G1 X71.434 Y134.712 E2.19855
G1 X70.987 Y134.399 E2.21497
G1 X70.601 Y134.013 E2.23139
G1 X70.288 Y133.566 E2.24781
G1 X70.057 Y133.071 E2.26423
G1 X69.916 Y132.544 E2.28065
G1 X69.868 Y132.000 E2.29707
G1 X69.916 Y131.456 E2.31349
G1 X70.057 Y130.929 E2.32991
G1 X70.288 Y130.434 E2.34634
G1 X70.601 Y129.987 E2.36276
G1 X70.987 Y129.601 E2.37918
G1 X71.434 Y129.288 E2.39560
G1 X71.929 Y129.057 E2.41202
G1 X72.456 Y128.916 E2.42844
G1 X73.000 Y128.868 E2.44486
G1 X73.098 Y128.877 E2.44781
G1 X73.544 Y128.916 E2.46128 F1080.000
G1 X74.071 Y129.057 E2.47770
G1 X74.566 Y129.288 E2.49412
G1 X75.013 Y129.601 E2.51054
G1 X75.399 Y129.987 E2.52696
G1 X75.712 Y130.434 E2.54338
G1 X75.943 Y130.929 E2.55981
G1 X76.084 Y131.456 E2.57622
G1 X76.121 Y131.875 E2.58887
G1 F1500.000 E0.58887
G92 E0
G1 X35.551 Y132.000 F7800.000
G1 E2.00000 F1500.000
G1 X35.512 Y132.443 E2.01338 F756.000
G1 X35.397 Y132.873 E2.02675
G1 X35.209 Y133.276 E2.04013
G1 X34.954 Y133.640 E2.05350
G1 X34.640 Y133.954 E2.06688
G1 X34.232 Y134.229 E2.08167
G1 X33.873 Y134.397 E2.09361
G1 X33.443 Y134.512 E2.10699
G1 X33.000 Y134.551 E2.12036
G1 X32.557 Y134.512 E2.13374
G1 X32.127 Y134.397 E2.14711
G1 X31.724 Y134.209 E2.16049
G1 X31.360 Y133.954 E2.17387
G1 X31.046 Y133.640 E2.18724
G1 X30.791 Y133.276 E2.20062
G1 X30.603 Y132.873 E2.21399
G1 X30.574 Y132.764 E2.21738
G1 X30.488 Y132.443 E2.22737
G1 X30.449 Y132.000 E2.24074
G1 X30.488 Y131.557 E2.25412
G1 X30.603 Y131.127 E2.26750
G1 X30.791 Y130.724 E2.28087
G1 X31.046 Y130.360 E2.29425
G1 X31.360 Y130.046 E2.30762
G1 X31.724 Y129.791 E2.32100
G1 X32.127 Y129.603 E2.33437
G1 X32.604 Y129.483 E2.34916
G1 X33.000 Y129.449 E2.36111 F756.000
G1 X33.443 Y129.488 E2.37448
G1 X33.873 Y129.603 E2.38786
G1 X34.276 Y129.791 E2.40123
G1 X34.640 Y130.046 E2.41461
G1 X34.954 Y130.360 E2.42799
G1 X35.209 Y130.724 E2.44136
G1 X35.397 Y131.127 E2.45474
G1 X35.512 Y131.557 E2.46811
G1 X35.545 Y131.925 E2.47923
G1 F1500.000 E0.47923
G92 E0
G1 X32.459 Y129.114 F7800.000
G1 X36.127 Y131.950 F7800.000
G1 E2.00000 F1500.000
G1 X36.084 Y132.544 E2.01792 F1080.000
G1 X35.943 Y133.071 E2.03434
G1 X35.712 Y133.566 E2.05076
G1 X35.399 Y134.013 E2.06718
G1 X35.013 Y134.399 E2.08361
G1 X34.566 Y134.712 E2.10003
G1 X34.071 Y134.943 E2.11644
G1 X33.544 Y135.084 E2.13287
G1 X33.000 Y135.132 E2.14929
G1 X32.456 Y135.084 E2.16571
G1 X31.929 Y134.943 E2.18213
G1 X31.434 Y134.712 E2.19855
G1 X30.987 Y134.399 E2.21497
G1 X30.601 Y134.013 E2.23139
G1 X30.288 Y133.566 E2.24781
G1 X30.057 Y133.071 E2.26423
G1 X29.916 Y132.544 E2.28065
G1 X29.907 Y132.446 E2.28361
G1 X29.868 Y132.000 E2.29707
G1 X29.916 Y131.456 E2.31349
G1 X30.057 Y130.929 E2.32991
G1 X30.288 Y130.434 E2.34634
G1 X30.601 Y129.987 E2.36276
G1 X30.987 Y129.601 E2.37918
G1 X31.434 Y129.288 E2.39560
G1 X31.929 Y129.057 E2.41202
G1 X32.456 Y128.916 E2.42844
G1 X33.000 Y128.868 E2.44486
G1 X33.098 Y128.877 E2.44781
