; generated by Slic3r 1.1.7 on 2015-04-10 at 09:27:11

; perimeters extrusion width = 0.60mm
; infill extrusion width = 0.60mm
; solid infill extrusion width = 0.60mm
; top infill extrusion width = 0.30mm

G21 ; set units to millimeters
M190 S145 ; wait for bed temperature to be reached
;--------------------------------------
G28 ; home all axes
G1 Z5 F500 ; lift nozzle
M109 S270 ; wait for extruder temp to be reached
M3001 ; Aktivate Z-Compensation 
; Move Z-axis n-steps up (see manual)
;M3004 S0 ; + n-steps bed down // - n-steps bed up! old Firmware Version <= 0.91.48
;M3006 S0 ; configure the static z-offset (units are [um])
G90 ; use absolute coordinates
M82 ; use absolute distances for extrusion
G92 E0 ; start line
G1 F300 E-0.5
G1 X230 Y22 Z0.35 F5000
G1 F800 E13
G1 X20 E25 F1000
; Acceleration up to...
; Acc printing
M201 X3000 Y3000 Z100
; Acc travel
M202 X3000 Y3000 Z100
; ZJERK 
M205 Z0.1
;--------------------------------------
G90 ; use absolute coordinates
G92 E0
M82 ; use absolute distances for extrusion
G1 F1500.000 E-2.00000
G92 E0
G1 Z0.350 F7800.000
G1 X110.856 Y110.856 F7800.000
G1 E2.00000 F1500.000
G1 X117.461 Y104.250 E2.24285 F1080.000
G1 X128.539 Y104.250 E2.53080
G1 X152.250 Y127.961 E3.40250
G1 X152.250 Y148.039 E3.92441 F1080.000
G1 X140.539 Y159.750 E4.35496
G1 X123.461 Y159.750 E4.79888
G1 X123.207 Y159.496 E4.80823
G1 X122.793 Y159.496 E4.81900
G1 X122.539 Y159.750 E4.82835
G1 X105.461 Y159.750 E5.27228
G1 X93.750 Y148.039 E5.70282
G1 X93.750 Y127.961 E6.22473
G1 X110.803 Y110.909 E6.85164
G1 F1500.000 E4.85164
G92 E0
G1 X123.207 Y158.789 F7800.000
G1 E2.00000 F1500.000
G1 X122.793 Y158.789 E2.01077 F1080.000
G1 X122.331 Y159.250 E2.02773
G1 X105.669 Y159.250 E2.46089
G1 X94.250 Y147.831 E2.88067
G1 X94.250 Y128.169 E3.39181
G1 X117.669 Y104.750 E4.25275
G1 X128.331 Y104.750 E4.52993
G1 X151.750 Y128.169 E5.39087
G1 X151.750 Y147.831 E5.90201
G1 X140.331 Y159.250 E6.32179
G1 X123.669 Y159.250 E6.75495
G1 X123.260 Y158.842 E6.76996
G1 X123.207 Y158.081 F7800.000
G1 X122.793 Y158.081 E6.78073 F1080.000
G1 X122.124 Y158.750 E6.80530
G1 X105.876 Y158.750 E7.22770
G1 X94.750 Y147.624 E7.63671
G1 X94.750 Y128.376 E8.13708
G1 X117.876 Y105.250 E8.98725
G1 X128.124 Y105.250 E9.25367
G1 X151.250 Y128.376 E10.10383
G1 X151.250 Y147.624 E10.60421
G1 X140.124 Y158.750 E11.01322
G1 X123.876 Y158.750 E11.43561
G1 X123.260 Y158.135 E11.45824
G1 X123.207 Y157.374 F7800.000
G1 X122.793 Y157.374 E11.46901 F1080.000
G1 X121.917 Y158.250 E11.50120
G1 X106.083 Y158.250 E11.91282
G1 X95.250 Y147.417 E12.31106
G1 X95.250 Y128.583 E12.80067
G1 X118.083 Y105.750 E13.64007
G1 X127.917 Y105.750 E13.89572
G1 X150.750 Y128.583 E14.73512
G1 X150.750 Y147.417 E15.22473
G1 X139.917 Y158.250 E15.62297
G1 X124.083 Y158.250 E16.03460
G1 X123.260 Y157.427 E16.06484
G1 X123.207 Y156.667 F7800.000
G1 X122.793 Y156.667 E16.07560 F1080.000
G1 X121.710 Y157.750 E16.11541
G1 X106.290 Y157.750 E16.51626
G1 X95.750 Y147.210 E16.90374
G1 X95.750 Y128.790 E17.38258
G1 X118.290 Y106.250 E18.21121
G1 X127.710 Y106.250 E18.45610
G1 X150.250 Y128.790 E19.28473
G1 X150.250 Y147.210 E19.76357
G1 X139.710 Y157.750 E20.15104
G1 X124.290 Y157.750 E20.55190
G1 X123.260 Y156.720 E20.58975
G1 X123.207 Y155.960 F7800.000
G1 X122.793 Y155.960 E20.60052 F1080.000
G1 X121.503 Y157.250 E20.64794
G1 X106.497 Y157.250 E21.03803
G1 X96.250 Y147.003 E21.41474
G1 X96.250 Y128.997 E21.88281
G1 X118.497 Y106.750 E22.70067
G1 X127.503 Y106.750 E22.93479
G1 X149.750 Y128.997 E23.75265
G1 X149.750 Y147.003 E24.22073
G1 X139.503 Y157.250 E24.59743
G1 X124.497 Y157.250 E24.98752
G1 X123.260 Y156.013 E25.03299
G1 X123.561 Y155.607 F7800.000
G1 X123.207 Y155.253 E25.04599 F1080.000
G1 X122.793 Y155.253 E25.05676
G1 X121.296 Y156.750 E25.11179
G1 X106.704 Y156.750 E25.49111
G1 X96.750 Y146.796 E25.85705
G1 X96.750 Y129.204 E26.31436
G1 X118.704 Y107.250 E27.12145
G1 X127.296 Y107.250 E27.34480
G1 X149.250 Y129.204 E28.15189
G1 X149.250 Y146.796 E28.60920 F1080.000
G1 X139.296 Y156.750 E28.97514
G1 X124.704 Y156.750 E29.35446
G1 X123.614 Y155.660 E29.39455
G1 X123.914 Y155.253 F7800.000
G1 X123.207 Y154.546 E29.42054 F1080.000
G1 X122.793 Y154.546 E29.43131
G1 X121.089 Y156.250 E29.49396
G1 X106.911 Y156.250 E29.86251
G1 X97.250 Y146.589 E30.21768
G1 X97.250 Y129.411 E30.66422
G1 X118.911 Y107.750 E31.46055
G1 X127.089 Y107.750 E31.67313
G1 X148.750 Y129.411 E32.46946 F1080.000
G1 X148.750 Y146.589 E32.91599
G1 X139.089 Y156.250 E33.27117
G1 X124.911 Y156.250 E33.63972
G1 X123.967 Y155.306 E33.67442
G1 X124.268 Y154.899 F7800.000
G1 X123.207 Y153.839 E33.71341 F1080.000
G1 X122.793 Y153.839 E33.72418
G1 X120.882 Y155.750 E33.79444
G1 X107.118 Y155.750 E34.15223
G1 X97.750 Y146.382 E34.49663
G1 X97.750 Y129.618 E34.93240
G1 X119.118 Y108.250 E35.71796
G1 X126.882 Y108.250 E35.91978
G1 X148.250 Y129.618 E36.70534
G1 X148.250 Y146.382 E37.14111 F1080.000
G1 X138.882 Y155.750 E37.48551
G1 X125.118 Y155.750 E37.84330
G1 X124.321 Y154.953 E37.87262
G1 X124.621 Y154.546 F7800.000
G1 X123.207 Y153.132 E37.92461 F1080.000
G1 X122.793 Y153.132 E37.93537
G1 X120.675 Y155.250 E38.01325
G1 X107.325 Y155.250 E38.36027
G1 X98.250 Y146.175 E38.69390
G1 X98.250 Y129.825 E39.11891
G1 X119.325 Y108.750 E39.89370
G1 X126.675 Y108.750 E40.08474
G1 X147.750 Y129.825 E40.85954 F1080.000
G1 X147.750 Y146.175 E41.28454
G1 X138.675 Y155.250 E41.61818
G1 X125.325 Y155.250 E41.96520
G1 X124.674 Y154.599 E41.98913
G1 X124.975 Y154.192 F7800.000
G1 X123.207 Y152.425 E42.05412 F1080.000
G1 X122.793 Y152.425 E42.06489
G1 X120.468 Y154.750 E42.15037
G1 X107.532 Y154.750 E42.48662
G1 X98.750 Y145.968 E42.80949
G1 X98.750 Y130.032 E43.22373
G1 X119.532 Y109.250 E43.98775
G1 X126.468 Y109.250 E44.16803
G1 X147.250 Y130.032 E44.93206
G1 X147.250 Y145.968 E45.34629 F1080.000
G1 X138.468 Y154.750 E45.66916
G1 X125.532 Y154.750 E46.00541
G1 X125.028 Y154.245 E46.02396
G1 X125.328 Y153.839 F7800.000
G1 X123.207 Y151.718 E46.10195 F1080.000
G1 X122.793 Y151.718 E46.11272
G1 X120.260 Y154.250 E46.20582
G1 X107.740 Y154.250 E46.53130
G1 X105.250 Y151.760 E46.62282
G1 X105.250 Y151.543 E46.62848
G1 X104.957 Y151.250 E46.63925
G1 X104.740 Y151.250 E46.64490
G1 X102.250 Y148.760 E46.73643
G1 X102.250 Y148.543 E46.74208
G1 X101.957 Y148.250 E46.75285
G1 X101.740 Y148.250 E46.75850
G1 X99.250 Y145.760 E46.85003
G1 X99.250 Y130.240 E47.25349
G1 X101.740 Y127.750 E47.34502
G1 X101.957 Y127.750 E47.35067
G1 X102.250 Y127.457 E47.36144
G1 X102.250 Y127.240 E47.36710
G1 X104.740 Y124.750 E47.45862
G1 X104.957 Y124.750 E47.46427
G1 X105.250 Y124.457 E47.47504
G1 X105.250 Y124.240 E47.48070
G1 X107.740 Y121.750 E47.57222
G1 X107.957 Y121.750 E47.57788
G1 X108.250 Y121.457 E47.58864
G1 X108.250 Y121.240 E47.59430
G1 X110.740 Y118.750 E47.68582
G1 X110.957 Y118.750 E47.69148
G1 X111.250 Y118.457 E47.70224
G1 X111.250 Y118.240 E47.70790
G1 X113.740 Y115.750 E47.79942
G1 X113.957 Y115.750 E47.80508
G1 X114.250 Y115.457 E47.81585
G1 X114.250 Y115.240 E47.82150
G1 X116.740 Y112.750 E47.91302
G1 X116.957 Y112.750 E47.91868
G1 X117.250 Y112.457 E47.92945
G1 X117.250 Y112.240 E47.93510
G1 X119.740 Y109.750 E48.02663
G1 X126.260 Y109.750 E48.19614
G1 X128.750 Y112.240 E48.28766 F1080.000
G1 X128.750 Y112.457 E48.29331
G1 X129.043 Y112.750 E48.30408
G1 X129.260 Y112.750 E48.30974
G1 X131.750 Y115.240 E48.40126
G1 X131.750 Y115.457 E48.40692
G1 X132.043 Y115.750 E48.41768
G1 X132.260 Y115.750 E48.42334
G1 X134.750 Y118.240 E48.51486
G1 X134.750 Y118.457 E48.52052
G1 X135.043 Y118.750 E48.53128
G1 X135.260 Y118.750 E48.53694
G1 X137.750 Y121.240 E48.62846
G1 X137.750 Y121.457 E48.63412
G1 X138.043 Y121.750 E48.64489
G1 X138.260 Y121.750 E48.65054
G1 X140.750 Y124.240 E48.74206
G1 X140.750 Y124.457 E48.74772
G1 X141.043 Y124.750 E48.75849
G1 X141.260 Y124.750 E48.76414
G1 X143.750 Y127.240 E48.85567
G1 X143.750 Y127.457 E48.86132
G1 X144.043 Y127.750 E48.87209
G1 X144.260 Y127.750 E48.87774
G1 X146.750 Y130.240 E48.96927
G1 X146.750 Y145.760 E49.37273
G1 X144.260 Y148.250 E49.46426
G1 X144.043 Y148.250 E49.46991
G1 X143.750 Y148.543 E49.48068
G1 X143.750 Y148.760 E49.48634
G1 X141.260 Y151.250 E49.57786
G1 X141.043 Y151.250 E49.58351
G1 X140.750 Y151.543 E49.59428
G1 X140.750 Y151.760 E49.59994
G1 X138.260 Y154.250 E49.69146
G1 X125.740 Y154.250 E50.01694
G1 X125.381 Y153.892 E50.03011
G1 F1500.000 E48.03011
G92 E0
G1 X123.457 Y150.750 F7800.000
G1 E2.00000 F1500.000
G1 X122.543 Y150.750 E2.02377 F1080.000
G1 X122.250 Y151.043 E2.03453
G1 X122.250 Y151.553 E2.04780
G1 X120.053 Y153.750 E2.12856
G1 X107.947 Y153.750 E2.44327
G1 X105.750 Y151.553 E2.52403
G1 X105.750 Y151.043 E2.53730
G1 X105.457 Y150.750 E2.54807
G1 X104.947 Y150.750 E2.56133
G1 X102.750 Y148.553 E2.64209
G1 X102.750 Y148.043 E2.65536
G1 X102.457 Y147.750 E2.66613
G1 X101.947 Y147.750 E2.67940
G1 X99.750 Y145.553 E2.76015
G1 X99.750 Y130.447 E3.15285
G1 X101.947 Y128.250 E3.23361
G1 X102.457 Y128.250 E3.24688
G1 X102.750 Y127.957 E3.25765
G1 X102.750 Y127.447 E3.27091
G1 X104.947 Y125.250 E3.35167
G1 X105.457 Y125.250 E3.36494
G1 X105.750 Y124.957 E3.37571
G1 X105.750 Y124.447 E3.38898
G1 X107.947 Y122.250 E3.46973
G1 X108.457 Y122.250 E3.48300
G1 X108.750 Y121.957 E3.49377
G1 X108.750 Y121.447 E3.50704
G1 X110.947 Y119.250 E3.58779
G1 X111.457 Y119.250 E3.60106
G1 X111.750 Y118.957 E3.61183
G1 X111.750 Y118.447 E3.62510
G1 X113.947 Y116.250 E3.70585
G1 X114.457 Y116.250 E3.71912
G1 X114.750 Y115.957 E3.72989
G1 X114.750 Y115.447 E3.74316
G1 X116.947 Y113.250 E3.82392
G1 X117.457 Y113.250 E3.83718
G1 X117.750 Y112.957 E3.84795
G1 X117.750 Y112.447 E3.86122
G1 X119.947 Y110.250 E3.94198
G1 X126.053 Y110.250 E4.10072
G1 X128.250 Y112.447 E4.18148
G1 X128.250 Y112.957 E4.19474
G1 X128.543 Y113.250 E4.20551
G1 X129.053 Y113.250 E4.21878
G1 X131.250 Y115.447 E4.29954
G1 X131.250 Y115.957 E4.31281
G1 X131.543 Y116.250 E4.32357
G1 X132.053 Y116.250 E4.33684
G1 X134.250 Y118.447 E4.41760
G1 X134.250 Y118.957 E4.43087
G1 X134.543 Y119.250 E4.44163
G1 X135.053 Y119.250 E4.45490
G1 X137.250 Y121.447 E4.53566
G1 X137.250 Y121.957 E4.54893
G1 X137.543 Y122.250 E4.55970
G1 X138.053 Y122.250 E4.57296
G1 X140.250 Y124.447 E4.65372
G1 X140.250 Y124.957 E4.66699
G1 X140.543 Y125.250 E4.67776
G1 X141.053 Y125.250 E4.69102
G1 X143.250 Y127.447 E4.77178
G1 X143.250 Y127.957 E4.78505
G1 X143.543 Y128.250 E4.79582
G1 X144.053 Y128.250 E4.80909
G1 X146.250 Y130.447 E4.88984
G1 X146.250 Y145.553 E5.28254
G1 X144.053 Y147.750 E5.36330
G1 X143.543 Y147.750 E5.37657
G1 X143.250 Y148.043 E5.38734
G1 X143.250 Y148.553 E5.40060
G1 X141.053 Y150.750 E5.48136
G1 X140.543 Y150.750 E5.49463
G1 X140.250 Y151.043 E5.50540
G1 X140.250 Y151.553 E5.51867
G1 X138.053 Y153.750 E5.59942
G1 X125.947 Y153.750 E5.91414
G1 X123.750 Y151.553 E5.99489
G1 X123.750 Y151.043 E6.00816
G1 X123.510 Y150.803 E6.01698
G1 X123.957 Y150.250 F7800.000
G1 X122.043 Y150.250 E6.06674 F1080.000
G1 X121.750 Y150.543 E6.07751
G1 X121.750 Y151.346 E6.09839
G1 X119.846 Y153.250 E6.16838
G1 X108.154 Y153.250 E6.47233
G1 X106.250 Y151.346 E6.54232
G1 X106.250 Y150.543 E6.56320
G1 X105.957 Y150.250 E6.57397
G1 X105.154 Y150.250 E6.59485
G1 X103.250 Y148.346 E6.66484
G1 X103.250 Y147.543 E6.68572
G1 X102.957 Y147.250 E6.69649
G1 X102.154 Y147.250 E6.71737
G1 X100.250 Y145.346 E6.78736
G1 X100.250 Y130.654 E7.16929
G1 X102.154 Y128.750 E7.23928
G1 X102.957 Y128.750 E7.26016
G1 X103.250 Y128.457 E7.27093
G1 X103.250 Y127.654 E7.29181
G1 X105.154 Y125.750 E7.36180
G1 X105.957 Y125.750 E7.38269
G1 X106.250 Y125.457 E7.39345
G1 X106.250 Y124.654 E7.41434
G1 X108.154 Y122.750 E7.48432
G1 X108.957 Y122.750 E7.50521
G1 X109.250 Y122.457 E7.51597
G1 X109.250 Y121.654 E7.53686
G1 X111.154 Y119.750 E7.60685
G1 X111.957 Y119.750 E7.62773
G1 X112.250 Y119.457 E7.63850
G1 X112.250 Y118.654 E7.65938
G1 X114.154 Y116.750 E7.72937
G1 X114.957 Y116.750 E7.75025
G1 X115.250 Y116.457 E7.76102
G1 X115.250 Y115.654 E7.78190
G1 X117.154 Y113.750 E7.85189
G1 X117.957 Y113.750 E7.87277
G1 X118.250 Y113.457 E7.88354
G1 X118.250 Y112.654 E7.90442
G1 X120.154 Y110.750 E7.97441
G1 X125.846 Y110.750 E8.12238
G1 X127.750 Y112.654 E8.19237
G1 X127.750 Y113.457 E8.21326
G1 X128.043 Y113.750 E8.22402
G1 X128.846 Y113.750 E8.24491
G1 X130.750 Y115.654 E8.31490
G1 X130.750 Y116.457 E8.33578
G1 X131.043 Y116.750 E8.34654
G1 X131.846 Y116.750 E8.36743
G1 X133.750 Y118.654 E8.43742
G1 X133.750 Y119.457 E8.45830
G1 X134.043 Y119.750 E8.46907
G1 X134.846 Y119.750 E8.48995
G1 X136.750 Y121.654 E8.55994
G1 X136.750 Y122.457 E8.58082
G1 X137.043 Y122.750 E8.59159
G1 X137.846 Y122.750 E8.61247
G1 X139.750 Y124.654 E8.68246
G1 X139.750 Y125.457 E8.70334
G1 X140.043 Y125.750 E8.71411
G1 X140.846 Y125.750 E8.73499
G1 X142.750 Y127.654 E8.80498
G1 X142.750 Y128.457 E8.82586
G1 X143.043 Y128.750 E8.83663
G1 X143.846 Y128.750 E8.85751
G1 X145.750 Y130.654 E8.92750
G1 X145.750 Y145.346 E9.30943
G1 X143.846 Y147.250 E9.37942
G1 X143.043 Y147.250 E9.40031
G1 X142.750 Y147.543 E9.41107
G1 X142.750 Y148.346 E9.43196
G1 X140.846 Y150.250 E9.50194
G1 X140.043 Y150.250 E9.52283
G1 X139.750 Y150.543 E9.53359
G1 X139.750 Y151.346 E9.55448
G1 X137.846 Y153.250 E9.62447
G1 X126.154 Y153.250 E9.92841
G1 X124.250 Y151.346 E9.99840
G1 X124.250 Y150.543 E10.01928
G1 X124.010 Y150.303 E10.02810
G1 X124.750 Y150.043 F7800.000
G1 X124.457 Y149.750 E10.03887 F1080.000
G1 X123.361 Y149.750 E10.06737
G1 X123.207 Y149.596 E10.07302
G1 X122.793 Y149.596 E10.08379
G1 X122.639 Y149.750 E10.08944
G1 X121.543 Y149.750 E10.11794
G1 X121.250 Y150.043 E10.12871
G1 X121.250 Y151.139 E10.15720
G1 X119.639 Y152.750 E10.21642
G1 X108.361 Y152.750 E10.50960
G1 X106.750 Y151.139 E10.56883
G1 X106.750 Y150.043 E10.59732
G1 X106.457 Y149.750 E10.60809
G1 X105.361 Y149.750 E10.63658
G1 X103.750 Y148.139 E10.69581
G1 X103.750 Y147.043 E10.72430
G1 X103.457 Y146.750 E10.73507
G1 X102.361 Y146.750 E10.76357
G1 X100.750 Y145.139 E10.82279
G1 X100.750 Y130.861 E11.19395
G1 X102.361 Y129.250 E11.25318
G1 X103.457 Y129.250 E11.28167
G1 X103.750 Y128.957 E11.29244
G1 X103.750 Y127.861 E11.32093
G1 X105.361 Y126.250 E11.38016
G1 X106.457 Y126.250 E11.40865
G1 X106.750 Y125.957 E11.41942
G1 X106.750 Y124.861 E11.44792
G1 X108.361 Y123.250 E11.50714
G1 X109.457 Y123.250 E11.53563
G1 X109.750 Y122.957 E11.54640
G1 X109.750 Y121.861 E11.57490
G1 X111.361 Y120.250 E11.63412
G1 X112.457 Y120.250 E11.66261
G1 X112.750 Y119.957 E11.67338
G1 X112.750 Y118.861 E11.70188
G1 X114.361 Y117.250 E11.76110
G1 X115.457 Y117.250 E11.78960
G1 X115.750 Y116.957 E11.80036
G1 X115.750 Y115.861 E11.82886
G1 X117.361 Y114.250 E11.88808
G1 X118.457 Y114.250 E11.91658
G1 X118.750 Y113.957 E11.92735
G1 X118.750 Y112.861 E11.95584
G1 X120.361 Y111.250 E12.01506
G1 X125.639 Y111.250 E12.15227
G1 X127.250 Y112.861 E12.21149
G1 X127.250 Y113.957 E12.23999
G1 X127.543 Y114.250 E12.25076
G1 X128.639 Y114.250 E12.27925
G1 X130.250 Y115.861 E12.33847
G1 X130.250 Y116.957 E12.36697
G1 X130.543 Y117.250 E12.37774
G1 X131.639 Y117.250 E12.40623
G1 X133.250 Y118.861 E12.46545
G1 X133.250 Y119.957 E12.49395
G1 X133.543 Y120.250 E12.50472
G1 X134.639 Y120.250 E12.53321
G1 X136.250 Y121.861 E12.59244
G1 X136.250 Y122.957 E12.62093
G1 X136.543 Y123.250 E12.63170
G1 X137.639 Y123.250 E12.66020
G1 X139.250 Y124.861 E12.71942
G1 X139.250 Y125.957 E12.74791
G1 X139.543 Y126.250 E12.75868
G1 X140.639 Y126.250 E12.78718
G1 X142.250 Y127.861 E12.84640
G1 X142.250 Y128.957 E12.87489
G1 X142.543 Y129.250 E12.88566
G1 X143.639 Y129.250 E12.91416
