; generated by Slic3r 1.1.7 on 2015-04-10 at 09:23:58

; perimeters extrusion width = 0.60mm
; infill extrusion width = 0.60mm
; solid infill extrusion width = 0.60mm
; top infill extrusion width = 0.30mm

G21 ; set units to millimeters
M190 S145 ; wait for bed temperature to be reached
;--------------------------------------
G28 ; home all axes
G1 Z5 F500 ; lift nozzle
M109 S270 ; wait for extruder temp to be reached
M3001 ; Aktivate Z-Compensation 
; Move Z-axis n-steps up (see manual)
;M3004 S0 ; + n-steps bed down // - n-steps bed up! old Firmware Version <= 0.91.48
;M3006 S0 ; configure the static z-offset (units are [um])
G90 ; use absolute coordinates
M82 ; use absolute distances for extrusion
G92 E0 ; start line
G1 F300 E-0.5
G1 X230 Y22 Z0.35 F5000
G1 F800 E13
G1 X20 E25 F1000
; Acceleration up to...
; Acc printing
M201 X3000 Y3000 Z100
; Acc travel
M202 X3000 Y3000 Z100
; ZJERK 
M205 Z0.1
;--------------------------------------
G90 ; use absolute coordinates
G92 E0
M82 ; use absolute distances for extrusion
G1 F1500.000 E-2.00000
G92 E0
G1 Z0.350 F7800.000
G1 X69.593 Y69.593 F7800.000
G1 E2.00000 F1500.000
G1 X71.886 Y67.300 E2.08431 F1080.000
G1 X169.864 Y67.300 E4.63125
G1 X175.575 Y73.011 E4.84122
G1 X175.575 Y118.654 E6.02771 F1080.000
G1 X175.651 Y118.838 E6.03288
G1 X179.825 Y123.011 E6.18632
G1 X179.825 Y162.189 E7.20474
G1 X175.651 Y166.362 E7.35819
G1 X175.575 Y166.546 E7.36336
G1 X175.575 Y190.989 E7.99875
G1 X169.864 Y196.700 E8.20871
G1 X71.886 Y196.700 E10.75566
G1 X66.175 Y190.989 E10.96563
G1 X66.175 Y73.011 E14.03248
G1 X69.540 Y69.646 E14.15620
G1 X69.947 Y69.947 F7800.000
G1 X72.094 Y67.800 E14.23512 F1080.000
G1 X169.656 Y67.800 E16.77130
G1 X175.075 Y73.219 E16.97050 F1080.000
G1 X175.075 Y118.861 E18.15698
G1 X175.151 Y119.045 E18.16215
G1 X179.325 Y123.219 E18.31560
G1 X179.325 Y161.981 E19.32325
G1 X175.151 Y166.155 E19.47670
G1 X175.075 Y166.339 E19.48187
G1 X175.075 Y190.781 E20.11725
G1 X169.656 Y196.200 E20.31645
G1 X72.094 Y196.200 E22.85263
G1 X66.675 Y190.781 E23.05183
G1 X66.675 Y73.219 E26.10792
G1 X69.894 Y70.000 E26.22625
G1 X70.300 Y70.300 F7800.000
G1 X72.301 Y68.300 E26.29979 F1080.000
G1 X169.449 Y68.300 E28.82520
G1 X174.575 Y73.426 E29.01363
G1 X174.575 Y119.068 E30.20012 F1080.000
G1 X174.651 Y119.252 E30.20529
G1 X178.825 Y123.426 E30.35873
G1 X178.825 Y161.774 E31.35562
G1 X174.651 Y165.948 E31.50906
G1 X174.575 Y166.132 E31.51424
G1 X174.575 Y190.574 E32.14962
G1 X169.449 Y195.700 E32.33805
G1 X72.301 Y195.700 E34.86347
G1 X67.175 Y190.574 E35.05190
G1 X67.175 Y73.426 E38.09722
G1 X70.247 Y70.353 E38.21016
G1 X70.654 Y70.654 F7800.000
G1 X72.508 Y68.800 E38.27832 F1080.000
G1 X169.242 Y68.800 E40.79296
G1 X174.075 Y73.633 E40.97063 F1080.000
G1 X174.075 Y119.275 E42.15711
G1 X174.151 Y119.459 E42.16228
G1 X178.325 Y123.633 E42.31573
G1 X178.325 Y161.567 E43.30185
G1 X174.151 Y165.741 E43.45529
G1 X174.075 Y165.925 E43.46046
G1 X174.075 Y190.367 E44.09585
G1 X169.242 Y195.200 E44.27351
G1 X72.508 Y195.200 E46.78816
G1 X67.675 Y190.367 E46.96582
G1 X67.675 Y73.633 E50.00037
G1 X70.601 Y70.707 E50.10793
G1 X71.007 Y71.007 F7800.000
G1 X72.715 Y69.300 E50.17070 F1080.000
G1 X169.035 Y69.300 E52.67458
G1 X173.575 Y73.840 E52.84148
G1 X173.575 Y119.482 E54.02797 F1080.000
G1 X173.651 Y119.666 E54.03314
G1 X177.825 Y123.840 E54.18658
G1 X177.825 Y161.360 E55.16193
G1 X173.651 Y165.534 E55.31538
G1 X173.575 Y165.718 E55.32055
G1 X173.575 Y190.160 E55.95593
G1 X169.035 Y194.700 E56.12283
G1 X72.715 Y194.700 E58.62671
G1 X68.175 Y190.160 E58.79361
G1 X68.175 Y73.840 E61.81739
G1 X70.954 Y71.060 E61.91957
G1 X71.361 Y71.361 F7800.000
G1 X72.922 Y69.800 E61.97695 F1080.000
G1 X168.828 Y69.800 E64.47006
G1 X173.075 Y74.047 E64.62619 F1080.000
G1 X173.075 Y119.689 E65.81268
G1 X173.151 Y119.873 E65.81785
G1 X177.325 Y124.047 E65.97129
G1 X177.325 Y161.153 E66.93588
G1 X173.151 Y165.327 E67.08932
G1 X173.075 Y165.511 E67.09449
G1 X173.075 Y189.953 E67.72988
G1 X168.828 Y194.200 E67.88601
G1 X72.922 Y194.200 E70.37912
G1 X68.675 Y189.953 E70.53525
G1 X68.675 Y74.047 E73.54826
G1 X71.308 Y71.414 E73.64506
G1 X71.715 Y71.715 F7800.000
G1 X73.129 Y70.300 E73.69706 F1080.000
G1 X168.621 Y70.300 E76.17940
G1 X172.575 Y74.254 E76.32476
G1 X172.575 Y120.007 E77.51413 F1080.000
G1 X176.825 Y124.254 E77.67031
G1 X176.825 Y160.946 E78.62413
G1 X172.575 Y165.193 E78.78032
G1 X172.575 Y189.746 E79.41858
G1 X168.621 Y193.700 E79.56394
G1 X73.129 Y193.700 E82.04628
G1 X69.175 Y189.746 E82.19165
G1 X69.175 Y74.254 E85.19389
G1 X71.661 Y71.768 E85.28531
G1 X72.068 Y72.068 F7800.000
G1 X73.336 Y70.800 E85.33192 F1080.000
G1 X168.414 Y70.800 E87.80350
G1 X172.075 Y74.461 E87.93809 F1080.000
G1 X172.075 Y120.507 E89.13507
G1 X172.368 Y120.800 E89.14584
G1 X172.664 Y120.800 E89.15353
G1 X176.325 Y124.461 E89.28813
G1 X176.325 Y160.739 E90.23118
G1 X172.664 Y164.400 E90.36577
G1 X172.368 Y164.400 E90.37346
G1 X172.075 Y164.693 E90.38423
G1 X172.075 Y189.539 E91.03011
G1 X168.414 Y193.200 E91.16470
G1 X73.336 Y193.200 E93.63628
G1 X69.675 Y189.539 E93.77087
G1 X69.675 Y74.461 E96.76235
G1 X72.015 Y72.121 E96.84838
G1 F1500.000 E94.84838
G92 E0
G1 X171.575 Y121.007 F7800.000
G1 E2.00000 F1500.000
G1 X171.868 Y121.300 E2.01077 F1080.000
G1 X172.457 Y121.300 E2.02607
G1 X175.825 Y124.668 E2.14990
G1 X175.825 Y160.532 E3.08218
G1 X172.457 Y163.900 E3.20601
G1 X171.868 Y163.900 E3.22132
G1 X171.575 Y164.193 E3.23209
G1 X171.575 Y189.332 E3.88558
G1 X168.207 Y192.700 E4.00941
G1 X73.543 Y192.700 E6.47021
G1 X70.175 Y189.332 E6.59404
G1 X70.175 Y74.668 E9.57475
G1 X73.543 Y71.300 E9.69858
G1 X168.207 Y71.300 E12.15938
G1 X171.575 Y74.668 E12.28321
G1 X171.575 Y120.932 E13.48585
G1 X171.075 Y121.507 F7800.000
G1 X171.368 Y121.800 E13.49662 F1080.000
G1 X172.250 Y121.800 E13.51954
G1 X175.325 Y124.875 E13.63260
G1 X175.325 Y160.325 E14.55412
G1 X172.250 Y163.400 E14.66718
G1 X171.368 Y163.400 E14.69010
G1 X171.075 Y163.693 E14.70086
G1 X171.075 Y189.125 E15.36197
G1 X168.000 Y192.200 E15.47503
G1 X73.750 Y192.200 E17.92507
G1 X70.675 Y189.125 E18.03813
G1 X70.675 Y74.875 E21.00807
G1 X73.750 Y71.800 E21.12113
G1 X168.000 Y71.800 E23.57117
G1 X171.075 Y74.875 E23.68423
G1 X171.075 Y121.432 E24.89449
G1 X170.575 Y122.007 F7800.000
G1 X170.868 Y122.300 E24.90525 F1080.000
G1 X172.043 Y122.300 E24.93579
G1 X174.825 Y125.082 E25.03808
G1 X174.825 Y160.118 E25.94883
G1 X172.043 Y162.900 E26.05112
G1 X170.868 Y162.900 E26.08165
G1 X170.575 Y163.193 E26.09242
G1 X170.575 Y188.918 E26.76114
G1 X167.793 Y191.700 E26.86343
G1 X73.957 Y191.700 E29.30270
G1 X71.175 Y188.918 E29.40500
G1 X71.175 Y75.082 E32.36417
G1 X73.957 Y72.300 E32.46647
G1 X167.793 Y72.300 E34.90574
G1 X170.575 Y75.082 E35.00803
G1 X170.575 Y121.932 E36.22590
G1 X170.075 Y122.507 F7800.000
G1 X170.368 Y122.800 E36.23667 F1080.000
G1 X171.835 Y122.800 E36.27481
G1 X174.325 Y125.290 E36.36634
G1 X174.325 Y159.910 E37.26632
G1 X171.835 Y162.400 E37.35784
G1 X170.368 Y162.400 E37.39599
G1 X170.075 Y162.693 E37.40676
G1 X170.075 Y188.710 E38.08309
G1 X167.585 Y191.200 E38.17462
G1 X74.165 Y191.200 E40.60312
G1 X71.675 Y188.710 E40.69464
G1 X71.675 Y75.290 E43.64305
G1 X74.165 Y72.800 E43.73458
G1 X167.585 Y72.800 E46.16308
G1 X170.075 Y75.290 E46.25461
G1 X170.075 Y122.432 E47.48009
G1 X169.575 Y123.007 F7800.000
G1 X169.868 Y123.300 E47.49086 F1080.000
G1 X171.628 Y123.300 E47.53662
G1 X173.825 Y125.497 E47.61738
G1 X173.825 Y159.703 E48.50659
G1 X171.628 Y161.900 E48.58734
G1 X169.868 Y161.900 E48.63311
G1 X169.575 Y162.193 E48.64387
G1 X169.575 Y188.503 E49.32782
G1 X167.378 Y190.700 E49.40858
G1 X74.372 Y190.700 E51.82631
G1 X72.175 Y188.503 E51.90707
G1 X72.175 Y75.497 E54.84471
G1 X74.372 Y73.300 E54.92547
G1 X167.378 Y73.300 E57.34320
G1 X169.575 Y75.497 E57.42396
G1 X169.575 Y122.932 E58.65706
G1 X169.075 Y123.007 F7800.000
G1 X169.075 Y123.507 E58.67006 F1080.000
G1 X169.368 Y123.800 E58.68082
G1 X171.421 Y123.800 E58.73420
G1 X173.325 Y125.704 E58.80419
G1 X173.325 Y159.496 E59.68263
G1 X171.421 Y161.400 E59.75262
G1 X169.368 Y161.400 E59.80600
G1 X169.075 Y161.693 E59.81677
G1 X169.075 Y188.296 E60.50833
G1 X167.171 Y190.200 E60.57832
G1 X74.579 Y190.200 E62.98529
G1 X72.675 Y188.296 E63.05528
G1 X72.675 Y75.704 E65.98215
G1 X74.579 Y73.800 E66.05214
G1 X167.171 Y73.800 E68.45911
G1 X169.075 Y75.704 E68.52910 F1080.000
G1 X169.075 Y122.932 E69.75681
G1 X168.575 Y123.007 F7800.000
G1 X168.575 Y124.007 E69.78280 F1080.000
G1 X168.868 Y124.300 E69.79357
G1 X171.214 Y124.300 E69.85456
G1 X172.825 Y125.911 E69.91378
G1 X172.825 Y159.289 E70.78146
G1 X171.214 Y160.900 E70.84068
G1 X168.868 Y160.900 E70.90167
G1 X168.575 Y161.193 E70.91244
G1 X168.575 Y188.089 E71.61162
G1 X166.964 Y189.700 E71.67084
G1 X74.786 Y189.700 E74.06704
G1 X73.175 Y188.089 E74.12626
G1 X73.175 Y75.911 E77.04237
G1 X74.786 Y74.300 E77.10159
G1 X166.964 Y74.300 E79.49779
G1 X168.575 Y75.911 E79.55701
G1 X168.575 Y122.932 E80.77934 F1080.000
G1 X168.075 Y123.007 F7800.000
G1 X168.075 Y124.507 E80.81833 F1080.000
G1 X168.368 Y124.800 E80.82910
G1 X171.007 Y124.800 E80.89770
G1 X172.325 Y126.118 E80.94616
G1 X172.325 Y159.082 E81.80307
G1 X171.007 Y160.400 E81.85152
G1 X168.368 Y160.400 E81.92012
G1 X168.075 Y160.693 E81.93089
G1 X168.075 Y187.882 E82.63768
G1 X166.757 Y189.200 E82.68613
G1 X74.993 Y189.200 E85.07157
G1 X73.675 Y187.882 E85.12002
G1 X73.675 Y76.118 E88.02536
G1 X74.993 Y74.800 E88.07381
G1 X166.757 Y74.800 E90.45925
G1 X168.075 Y76.118 E90.50770 F1080.000
G1 X168.075 Y122.932 E91.72465
G1 X167.575 Y123.007 F7800.000
G1 X167.575 Y125.007 E91.77664 F1080.000
G1 X167.868 Y125.300 E91.78741
G1 X170.800 Y125.300 E91.86362
G1 X171.825 Y126.325 E91.90131
G1 X171.825 Y158.875 E92.74745
G1 X170.800 Y159.900 E92.78514
G1 X167.868 Y159.900 E92.86136
G1 X167.575 Y160.193 E92.87212
G1 X167.575 Y187.675 E93.58653
G1 X166.550 Y188.700 E93.62421
G1 X75.200 Y188.700 E95.99888
G1 X74.175 Y187.675 E96.03656
G1 X74.175 Y76.325 E98.93113
G1 X75.200 Y75.300 E98.96882
G1 X166.550 Y75.300 E101.34349
G1 X167.575 Y76.325 E101.38117
G1 X167.575 Y122.932 E102.59274 F1080.000
G1 X167.075 Y123.007 F7800.000
G1 X167.075 Y125.507 E102.65772 F1080.000
G1 X167.368 Y125.800 E102.66849
G1 X170.593 Y125.800 E102.75232
G1 X171.325 Y126.532 E102.77924
G1 X171.325 Y158.668 E103.61462
G1 X170.593 Y159.400 E103.64153
G1 X167.368 Y159.400 E103.72537
G1 X167.075 Y159.693 E103.73613
G1 X167.075 Y187.468 E104.45815
G1 X166.343 Y188.200 E104.48507
G1 X75.407 Y188.200 E106.84897
G1 X74.675 Y187.468 E106.87588
G1 X74.675 Y76.532 E109.75969
G1 X75.407 Y75.800 E109.78661
G1 X166.343 Y75.800 E112.15050
G1 X167.075 Y76.532 E112.17742 F1080.000
G1 X167.075 Y122.932 E113.38360
G1 X166.575 Y123.007 F7800.000
G1 X166.575 Y126.007 E113.46159 F1080.000
G1 X166.868 Y126.300 E113.47236
G1 X170.386 Y126.300 E113.56380
G1 X170.825 Y126.739 E113.57995
G1 X170.825 Y158.461 E114.40456
G1 X170.386 Y158.900 E114.42071
G1 X166.868 Y158.900 E114.51216
G1 X166.575 Y159.193 E114.52292
G1 X166.575 Y187.261 E115.25255
G1 X166.136 Y187.700 E115.26870
G1 X75.614 Y187.700 E117.62183
G1 X75.175 Y187.261 E117.63799
G1 X75.175 Y76.739 E120.51102
G1 X75.614 Y76.300 E120.52717
G1 X166.136 Y76.300 E122.88030
G1 X166.575 Y76.739 E122.89645
G1 X166.575 Y122.932 E124.09725 F1080.000
G1 F1500.000 E122.09725
G92 E0
G1 X170.325 Y126.946 F7800.000
G1 E2.00000 F1500.000
G1 X170.325 Y158.254 E2.81384 F1080.000
G1 X170.179 Y158.400 E2.81922
G1 X166.368 Y158.400 E2.91828
G1 X166.075 Y158.693 E2.92905
G1 X166.075 Y187.054 E3.66629
G1 X165.929 Y187.200 E3.67168
G1 X75.821 Y187.200 E6.01404
G1 X75.675 Y187.054 E6.01942
G1 X75.675 Y76.946 E8.88169
G1 X75.821 Y76.800 E8.88707
G1 X165.929 Y76.800 E11.22944
G1 X166.075 Y76.946 E11.23482
G1 X166.075 Y126.507 E12.52316
G1 X166.368 Y126.800 E12.53393
G1 X170.179 Y126.800 E12.63299
G1 X170.272 Y126.893 E12.63643
G1 F1500.000 E10.63643
G92 E0
G1 X165.525 Y157.850 F7800.000
G1 E2.00000 F1500.000
G1 X165.525 Y186.650 E2.86626 F756.000
G1 X76.225 Y186.650 E5.55229
G1 X76.225 Y77.350 E8.83988
G1 X165.525 Y77.350 E11.52591
G1 X165.525 Y127.350 E13.02984
G1 X169.775 Y127.350 E13.15767
G1 X169.775 Y157.850 E14.07507
G1 X165.600 Y157.850 E14.20065
G1 X165.025 Y157.850 F7800.000
G1 X164.946 Y157.271 F7800.000
G1 X164.946 Y186.071 E15.06691 F1080.000
G1 X76.804 Y186.071 E17.71813
G1 X76.804 Y77.929 E20.97093
G1 X164.946 Y77.929 E23.62214
G1 X164.946 Y127.929 E25.12608
G1 X169.196 Y127.929 E25.25391
G1 X169.196 Y157.271 E26.13651
G1 X165.021 Y157.271 E26.26209
G1 X168.797 Y132.707 F7800.000
G1 X114.418 Y78.328 E28.57524 F1080.000
G1 X113.597 Y78.328 E28.59994
G1 X168.797 Y133.528 E30.94802
G1 X168.797 Y134.349 E30.97272
G1 X112.776 Y78.328 E33.35573
G1 X111.955 Y78.328 E33.38043
G1 X168.797 Y135.170 E35.79837
G1 X168.797 Y135.991 E35.82307
G1 X111.133 Y78.328 E38.27594
G1 X110.312 Y78.328 E38.30064
G1 X168.797 Y136.813 E40.78844
G1 X168.797 Y137.634 E40.81314
G1 X109.491 Y78.328 E43.33587
G1 X108.670 Y78.328 E43.36056
G1 X168.797 Y138.455 E45.91822
G1 X168.797 Y139.276 E45.94292
G1 X107.849 Y78.328 E48.53551
G1 X107.028 Y78.328 E48.56020
G1 X168.797 Y140.097 E51.18772
G1 X168.797 Y140.918 E51.21242
G1 X106.207 Y78.328 E53.87486
G1 X105.386 Y78.328 E53.89956
G1 X168.797 Y141.739 E56.59693
G1 X168.797 Y142.561 E56.62163
G1 X104.564 Y78.328 E59.35393
G1 X103.743 Y78.328 E59.37863
G1 X168.797 Y143.382 E62.14586
G1 X168.797 Y144.203 E62.17056
G1 X102.922 Y78.328 E64.97272
G1 X102.101 Y78.328 E64.99742
G1 X168.797 Y145.024 E67.83451
G1 X168.797 Y145.845 E67.85921
G1 X101.280 Y78.328 E70.73123
G1 X100.459 Y78.328 E70.75592
G1 X168.797 Y146.666 E73.66287
G1 X168.797 Y147.487 E73.68757
G1 X99.638 Y78.328 E76.62945
G1 X98.817 Y78.328 E76.65415
G1 X168.797 Y148.308 E79.63095
G1 X168.797 Y149.130 E79.65565
G1 X97.995 Y78.328 E82.66738
G1 X97.174 Y78.328 E82.69208
G1 X168.797 Y149.951 E85.73874
G1 X168.797 Y150.772 E85.76344
G1 X96.353 Y78.328 E88.84503
G1 X95.532 Y78.328 E88.86973
G1 X168.797 Y151.593 E91.98625
G1 X168.797 Y152.414 E92.01095
G1 X94.711 Y78.328 E95.16240
G1 X93.890 Y78.328 E95.18710
G1 X168.797 Y153.235 E98.37348
G1 X168.797 Y154.056 E98.39818
G1 X93.069 Y78.328 E101.61949
G1 X92.247 Y78.328 E101.64419
G1 X168.797 Y154.878 E104.90042
G1 X168.797 Y155.699 E104.92512
G1 X91.426 Y78.328 E108.21629
G1 X90.605 Y78.328 E108.24098
G1 X168.797 Y156.520 E111.56708
G1 X168.328 Y156.872 E111.58472
G1 X89.784 Y78.328 E114.92580
G1 X88.963 Y78.328 E114.95050
G1 X167.507 Y156.872 E118.29158
G1 X166.686 Y156.872 E118.31627
G1 X88.142 Y78.328 E121.65735
G1 X87.321 Y78.328 E121.68205
G1 X165.865 Y156.872 E125.02313
G1 X165.044 Y156.872 E125.04783
G1 X86.500 Y78.328 E128.38891
G1 X85.678 Y78.328 E128.41361
G1 X164.547 Y157.197 E131.76849
G1 X164.547 Y158.018 E131.79319
G1 X84.857 Y78.328 E135.18300
G1 X84.036 Y78.328 E135.20770
G1 X164.547 Y158.839 E138.63244
G1 X164.547 Y159.660 E138.65714
G1 X83.215 Y78.328 E142.11681
G1 X82.394 Y78.328 E142.14151
G1 X164.547 Y160.481 E145.63611
G1 X164.547 Y161.302 E145.66081
G1 X81.573 Y78.328 E149.19034
G1 X80.752 Y78.328 E149.21504
G1 X164.547 Y162.123 E152.77949
G1 X164.547 Y162.944 E152.80419
G1 X79.930 Y78.328 E156.40358
G1 X79.109 Y78.328 E156.42828
G1 X164.547 Y163.766 E160.06259
G1 X164.547 Y164.587 E160.08729
G1 X78.288 Y78.328 E163.75654
G1 X77.467 Y78.328 E163.78124
G1 X164.547 Y165.408 E167.48541
G1 X164.547 Y166.229 E167.51011
G1 X77.203 Y78.885 E171.22552
G1 X77.203 Y79.706 E171.25022
G1 X164.547 Y167.050 E174.96562
G1 X164.547 Y167.871 E174.99032
