; generated by Slic3r 1.1.7 on 2015-04-10 at 09:31:08

; perimeters extrusion width = 0.60mm
; infill extrusion width = 0.60mm
; solid infill extrusion width = 0.60mm
; top infill extrusion width = 0.30mm

G21 ; set units to millimeters
M190 S145 ; wait for bed temperature to be reached
;--------------------------------------
G28 ; home all axes
G1 Z5 F500 ; lift nozzle
M109 S270 ; wait for extruder temp to be reached
M3001 ; Aktivate Z-Compensation 
; Move Z-axis n-steps up (see manual)
;M3004 S0 ; + n-steps bed down // - n-steps bed up! old Firmware Version <= 0.91.48
;M3006 S0 ; configure the static z-offset (units are [um])
G90 ; use absolute coordinates
M82 ; use absolute distances for extrusion
G92 E0 ; start line
G1 F300 E-0.5
G1 X230 Y22 Z0.35 F5000
G1 F800 E13
G1 X20 E25 F1000
; Acceleration up to...
; Acc printing
M201 X3000 Y3000 Z100
; Acc travel
M202 X3000 Y3000 Z100
; ZJERK 
M205 Z0.1
;--------------------------------------
G90 ; use absolute coordinates
G92 E0
M82 ; use absolute distances for extrusion
G1 F1500.000 E-2.00000
G92 E0
G1 Z0.350 F7800.000
G1 X89.102 Y95.586 F7800.000
G1 E2.00000 F1500.000
G1 X90.329 Y94.481 E2.04293 F1080.000
G1 X90.989 Y93.917 E2.06550
G1 X91.724 Y93.310 E2.09028
G1 X93.026 Y92.294 E2.13321
G1 X93.792 Y91.726 E2.15800
G1 X95.088 Y90.818 E2.19914
G1 X96.673 Y89.787 E2.24828
G1 X98.088 Y88.937 E2.29120
G1 X98.843 Y88.508 E2.31378
G1 X100.452 Y87.653 E2.36113
G1 X101.874 Y86.959 E2.40227
G1 X102.726 Y86.568 E2.42664
G1 X103.600 Y86.188 E2.45142
G1 X105.132 Y85.570 E2.49435
G1 X106.843 Y84.947 E2.54170
G1 X108.414 Y84.436 E2.58463
G1 X109.328 Y84.166 E2.60941
G1 X110.923 Y83.738 E2.65234
G1 X111.850 Y83.516 E2.67712
G1 X113.465 Y83.172 E2.72005
G1 X114.319 Y83.013 E2.74262
G1 X116.118 Y82.728 E2.78998
G1 X117.758 Y82.527 E2.83291
G1 X118.706 Y82.436 E2.85769
G1 X120.285 Y82.325 E2.89883
G1 X121.222 Y82.282 E2.92320
G1 X123.043 Y82.250 E2.97055
G1 X123.911 Y82.258 E2.99312 F1080.000
G1 X125.561 Y82.316 E3.03605
G1 X127.378 Y82.443 E3.08340
G1 X128.243 Y82.527 E3.10597
G1 X129.882 Y82.728 E3.14890
G1 X131.681 Y83.013 E3.19625
G1 X133.235 Y83.315 E3.23740
G1 X134.150 Y83.516 E3.26176
G1 X135.917 Y83.956 E3.30911
G1 X137.439 Y84.392 E3.35025
G1 X138.333 Y84.672 E3.37460
G1 X139.976 Y85.236 E3.41975
G1 X141.676 Y85.889 E3.46710
G1 X143.196 Y86.534 E3.51002
G1 X143.987 Y86.893 E3.53260
G1 X145.624 Y87.692 E3.57996
G1 X146.394 Y88.093 E3.60253
G1 X147.838 Y88.894 E3.64546
G1 X149.400 Y89.832 E3.69281
G1 X150.727 Y90.694 E3.73395
G1 X151.501 Y91.223 E3.75831
G1 X152.974 Y92.293 E3.80566
G1 X153.663 Y92.823 E3.82824
G1 X154.946 Y93.862 E3.87117
G1 X156.321 Y95.057 E3.91852
G1 X156.961 Y95.644 E3.94109
G1 X158.148 Y96.791 E3.98400
G1 X159.414 Y98.102 E4.03137
G1 X160.519 Y99.329 E4.07430
G1 X161.084 Y99.989 E4.09690
G1 X162.230 Y101.404 E4.14423
G1 X163.223 Y102.723 E4.18714
G1 X163.729 Y103.430 E4.20974
G1 X164.747 Y104.940 E4.25707
G1 X165.213 Y105.673 E4.27966
G1 X166.029 Y107.029 E4.32080
G1 X166.907 Y108.607 E4.36775
G1 X167.734 Y110.229 E4.41507
G1 X168.432 Y111.726 E4.45800
G1 X168.779 Y112.523 E4.48059
G1 X169.461 Y114.211 E4.52793
G1 X170.026 Y115.762 E4.57084
G1 X170.302 Y116.587 E4.59345
G1 X170.834 Y118.328 E4.64078
G1 X171.245 Y119.857 E4.68193
G1 X171.465 Y120.768 E4.70630
G1 X171.844 Y122.549 E4.75364
G1 X172.120 Y124.108 E4.79479
G1 X172.260 Y125.035 E4.81917
G1 X172.482 Y126.842 E4.86648
G1 X172.564 Y127.707 E4.88907
G1 X172.680 Y129.354 E4.93199
G1 X172.743 Y131.174 E4.97935
G1 X172.744 Y132.757 E5.02050
G1 X172.721 Y133.693 E5.04483
G1 X172.626 Y135.513 E5.09220
G1 X172.482 Y137.157 E5.13510
G1 X172.384 Y138.021 E5.15772
G1 X172.131 Y139.824 E5.20504
G1 X171.857 Y141.384 E5.24620
G1 X171.672 Y142.302 E5.27055
G1 X171.262 Y144.077 E5.31790
G1 X170.853 Y145.606 E5.35905
G1 X170.588 Y146.505 E5.38342
G1 X170.026 Y148.237 E5.43075
G1 X169.735 Y149.056 E5.45334
G1 X169.144 Y150.597 E5.49624
G1 X168.432 Y152.274 E5.54361
G1 X167.696 Y153.847 E5.58876
G1 X166.978 Y155.258 E5.62991
G1 X166.534 Y156.081 E5.65423
G1 X165.622 Y157.659 E5.70160
G1 X164.748 Y159.059 E5.74451
G1 X164.268 Y159.785 E5.76713
G1 X163.224 Y161.277 E5.81446
G1 X162.271 Y162.542 E5.85563
G1 X161.690 Y163.276 E5.87996
G1 X160.519 Y164.671 E5.92731
G1 X159.460 Y165.848 E5.96846
G1 X158.816 Y166.530 E5.99285
G1 X157.529 Y167.817 E6.04017
G1 X156.321 Y168.942 E6.08308
G1 X155.671 Y169.519 E6.10567
G1 X154.276 Y170.690 E6.15301
G1 X153.596 Y171.230 E6.17560
G1 X152.277 Y172.223 E6.21851
G1 X150.785 Y173.268 E6.26588
G1 X150.060 Y173.747 E6.28844
G1 X148.660 Y174.622 E6.33137
G1 X147.082 Y175.533 E6.37872
G1 X146.318 Y175.947 E6.40131
G1 X144.848 Y176.696 E6.44421
G1 X143.196 Y177.466 E6.49159
G1 X142.399 Y177.812 E6.51417
G1 X140.932 Y178.405 E6.55530
G1 X139.238 Y179.026 E6.60221
G1 X137.505 Y179.589 E6.64958
G1 X135.918 Y180.044 E6.69249
G1 X135.077 Y180.262 E6.71508
G1 X133.302 Y180.672 E6.76244
G1 X132.451 Y180.844 E6.78501
G1 X130.824 Y181.131 E6.82795
G1 X129.021 Y181.384 E6.87528
G1 X127.447 Y181.550 E6.91643
G1 X126.513 Y181.626 E6.94079
G1 X124.694 Y181.721 E6.98813
G1 X123.826 Y181.743 E7.01072
G1 X122.174 Y181.743 E7.05365
G1 X120.353 Y181.680 E7.10101
G1 X118.707 Y181.564 E7.14391
G1 X117.843 Y181.482 E7.16647
G1 X116.034 Y181.260 E7.21386
G1 X115.176 Y181.131 E7.23641
G1 X113.548 Y180.844 E7.27937
G1 X111.767 Y180.465 E7.32670
G1 X110.165 Y180.066 E7.36962
G1 X109.327 Y179.834 E7.39223
G1 X107.586 Y179.302 E7.43956
G1 X106.763 Y179.026 E7.46212
G1 X105.275 Y178.485 E7.50329
G1 X103.600 Y177.811 E7.55022
G1 X101.936 Y177.071 E7.59756
G1 X100.513 Y176.377 E7.63870
G1 X99.681 Y175.946 E7.66307
G1 X98.088 Y175.063 E7.71041
G1 X97.341 Y174.622 E7.73297
G1 X95.940 Y173.747 E7.77589
G1 X94.430 Y172.729 E7.82325
G1 X93.723 Y172.224 E7.84583
G1 X92.404 Y171.229 E7.88878
G1 X90.989 Y170.083 E7.93612
G1 X89.794 Y169.045 E7.97726
G1 X89.101 Y168.413 E8.00163
G1 X87.791 Y167.148 E8.04897
G1 X86.645 Y165.961 E8.09188
G1 X86.057 Y165.321 E8.11447
G1 X84.862 Y163.946 E8.16182
G1 X83.865 Y162.716 E8.20297
G1 X83.294 Y161.974 E8.22732
G1 X82.223 Y160.501 E8.27467
G1 X81.732 Y159.785 E8.29725
G1 X80.832 Y158.400 E8.34018
G1 X79.894 Y156.838 E8.38753
G1 X79.126 Y155.454 E8.42867
G1 X78.692 Y154.624 E8.45304
G1 X77.893 Y152.987 E8.50038
G1 X77.534 Y152.196 E8.52296
G1 X76.889 Y150.676 E8.56588
G1 X76.265 Y149.055 E8.61103
G1 X75.672 Y147.333 E8.65838
G1 X75.411 Y146.505 E8.68095
G1 X74.956 Y144.917 E8.72388
G1 X74.515 Y143.150 E8.77124
G1 X74.172 Y141.535 E8.81416
G1 X74.013 Y140.681 E8.83673
G1 X73.728 Y138.882 E8.88409
G1 X73.527 Y137.243 E8.92701
G1 X73.443 Y136.379 E8.94958
G1 X73.316 Y134.561 E8.99694
G1 X73.258 Y132.911 E9.03987
G1 X73.250 Y132.043 E9.06243
G1 X73.282 Y130.221 E9.10980
G1 X73.320 Y129.354 E9.13237
G1 X73.436 Y127.706 E9.17530
G1 X73.626 Y125.895 E9.22265
G1 X73.740 Y125.034 E9.24522
G1 X73.998 Y123.403 E9.28814
G1 X74.346 Y121.615 E9.33550
G1 X74.535 Y120.767 E9.35808
G1 X74.934 Y119.165 E9.40101
G1 X75.436 Y117.414 E9.44836
G1 X75.947 Y115.843 E9.49128
G1 X76.236 Y115.025 E9.51386
G1 X76.889 Y113.324 E9.56121
G1 X77.506 Y111.867 E9.60235
G1 X77.893 Y111.013 E9.62671
G1 X78.692 Y109.376 E9.67406
G1 X79.467 Y107.918 E9.71699
G1 X79.894 Y107.162 E9.73956
G1 X80.832 Y105.600 E9.78692
G1 X81.694 Y104.273 E9.82806
G1 X82.223 Y103.499 E9.85242
G1 X83.293 Y102.026 E9.89977
G1 X84.267 Y100.778 E9.94091
G1 X84.862 Y100.054 E9.96527
G1 X86.057 Y98.679 E10.01262
G1 X86.644 Y98.039 E10.03520
G1 X87.791 Y96.852 E10.07813
G1 X89.047 Y95.637 E10.12353
G1 X89.441 Y95.953 F7800.000
G1 X90.659 Y94.857 E10.16612 F1080.000
G1 X91.312 Y94.298 E10.18847
G1 X92.710 Y93.166 E10.23525
G1 X94.019 Y92.180 E10.27784
G1 X94.718 Y91.680 E10.30018
G1 X95.493 Y91.147 E10.32463
G1 X96.867 Y90.255 E10.36721
G1 X98.410 Y89.328 E10.41400
G1 X99.843 Y88.534 E10.45659
G1 X100.677 Y88.100 E10.48103
G1 X102.090 Y87.410 E10.52190
G1 X102.932 Y87.024 E10.54597
G1 X104.588 Y86.321 E10.59276
G1 X106.118 Y85.734 E10.63534
G1 X106.928 Y85.446 E10.65769
G1 X107.819 Y85.148 E10.68213
G1 X109.386 Y84.669 E10.72472
G1 X110.292 Y84.418 E10.74916
G1 X111.882 Y84.021 E10.79175
G1 X113.642 Y83.647 E10.83853
G1 X114.488 Y83.491 E10.86088
G1 X116.106 Y83.235 E10.90347
G1 X117.038 Y83.112 E10.92792
G1 X118.667 Y82.941 E10.97050
G1 X120.463 Y82.815 E11.01729
G1 X122.033 Y82.760 E11.05815
G1 X122.960 Y82.750 E11.08223
G1 X124.759 Y82.781 E11.12901 F1080.000
G1 X125.618 Y82.820 E11.15136
G1 X127.252 Y82.934 E11.19394
G1 X129.042 Y83.122 E11.24073
G1 X129.894 Y83.235 E11.26307
G1 X131.512 Y83.491 E11.30566
G1 X133.200 Y83.818 E11.35036
G1 X134.954 Y84.223 E11.39714
G1 X135.786 Y84.439 E11.41948
G1 X137.361 Y84.890 E11.46208
G1 X139.072 Y85.446 E11.50886
G1 X139.882 Y85.734 E11.53120
G1 X141.412 Y86.321 E11.57378
G1 X143.069 Y87.024 E11.62057
G1 X144.493 Y87.688 E11.66143
G1 X145.323 Y88.100 E11.68551
G1 X146.912 Y88.945 E11.73229
G1 X147.660 Y89.368 E11.75464
G1 X149.064 Y90.212 E11.79722
G1 X150.574 Y91.192 E11.84402
G1 X151.861 Y92.093 E11.88487
G1 X152.607 Y92.643 E11.90895
G1 X154.025 Y93.751 E11.95573
G1 X155.230 Y94.761 E11.99660
G1 X155.925 Y95.373 E12.02067
G1 X157.241 Y96.601 E12.06746
G1 X157.853 Y97.203 E12.08979
G1 X158.991 Y98.382 E12.13237
G1 X160.196 Y99.720 E12.17917
G1 X161.248 Y100.974 E12.22174
G1 X161.785 Y101.647 E12.24410
G1 X162.868 Y103.084 E12.29089
G1 X163.366 Y103.785 E12.31324
G1 X164.282 Y105.142 E12.35581
G1 X165.236 Y106.669 E12.40261
G1 X166.055 Y108.087 E12.44519
G1 X166.467 Y108.844 E12.46758
G1 X167.283 Y110.446 E12.51433
G1 X168.009 Y112.005 E12.55902
G1 X168.648 Y113.512 E12.60158
G1 X168.965 Y114.313 E12.62397
G1 X169.580 Y116.004 E12.67074
G1 X170.086 Y117.562 E12.71332
G1 X170.331 Y118.385 E12.73566
G1 X170.797 Y120.125 E12.78246
G1 X171.151 Y121.656 E12.82332
G1 X171.338 Y122.563 E12.84741
G1 X171.650 Y124.336 E12.89419
G1 X171.776 Y125.186 E12.91654
G1 X171.976 Y126.811 E12.95909
G1 X172.133 Y128.605 E13.00590
G1 X172.185 Y129.463 E13.02825
G1 X172.242 Y131.100 E13.07084
G1 X172.242 Y132.900 E13.11763
G1 X172.188 Y134.471 E13.15848
G1 X172.133 Y135.395 E13.18256
G1 X171.976 Y137.188 E13.22933
G1 X171.878 Y138.042 E13.25169
G1 X171.650 Y139.663 E13.29424
G1 X171.353 Y141.358 E13.33897
G1 X170.979 Y143.118 E13.38574
G1 X170.582 Y144.707 E13.42833
G1 X170.353 Y145.537 E13.45070
G1 X169.827 Y147.258 E13.49747
G1 X169.316 Y148.744 E13.53834
G1 X168.993 Y149.612 E13.56242
G1 X168.319 Y151.281 E13.60919
G1 X167.976 Y152.068 E13.63152
G1 X167.283 Y153.554 E13.67413
G1 X166.466 Y155.157 E13.72091
G1 X165.705 Y156.532 E13.76176
G1 X165.237 Y157.330 E13.78581
G1 X164.283 Y158.857 E13.83262
G1 X163.367 Y160.215 E13.87520
G1 X162.868 Y160.915 E13.89755
G1 X161.784 Y162.353 E13.94435
G1 X161.249 Y163.025 E13.96669
G1 X160.196 Y164.280 E14.00926
G1 X158.992 Y165.618 E14.05607
G1 X157.854 Y166.796 E14.09864
G1 X157.241 Y167.400 E14.12101
G1 X155.925 Y168.627 E14.16778
G1 X155.280 Y169.196 E14.19013
G1 X154.026 Y170.248 E14.23269
G1 X152.607 Y171.357 E14.27949
G1 X151.916 Y171.868 E14.30184
G1 X150.573 Y172.808 E14.34445
G1 X149.064 Y173.788 E14.39123
G1 X147.717 Y174.598 E14.43208
G1 X146.913 Y175.055 E14.45614
G1 X145.323 Y175.900 E14.50294
G1 X144.554 Y176.283 E14.52528
G1 X143.069 Y176.976 E14.56787
G1 X141.412 Y177.679 E14.61466
G1 X139.883 Y178.266 E14.65724
G1 X139.073 Y178.553 E14.67958
G1 X137.361 Y179.110 E14.72638
G1 X135.787 Y179.561 E14.76895
G1 X134.954 Y179.777 E14.79132
G1 X133.200 Y180.182 E14.83811
G1 X132.358 Y180.353 E14.86045
G1 X130.744 Y180.637 E14.90305
G1 X128.962 Y180.888 E14.94982
G1 X127.398 Y181.053 E14.99070
G1 X126.476 Y181.127 E15.01476
G1 X124.679 Y181.221 E15.06153
G1 X123.819 Y181.243 E15.08389
G1 X122.247 Y181.244 E15.12475
G1 X120.462 Y181.185 E15.17120
G1 X118.667 Y181.059 E15.21795
G1 X117.104 Y180.895 E15.25881
G1 X116.185 Y180.776 E15.28291
G1 X114.408 Y180.495 E15.32966
G1 X113.563 Y180.337 E15.35202
G1 X111.961 Y179.997 E15.39458
G1 X110.214 Y179.561 E15.44138
G1 X108.703 Y179.129 E15.48225
G1 X107.819 Y178.852 E15.50634
G1 X106.117 Y178.266 E15.55311
G1 X104.589 Y177.679 E15.59568
G1 X103.793 Y177.350 E15.61806
G1 X102.149 Y176.619 E15.66483
G1 X100.736 Y175.930 E15.70569
G1 X99.914 Y175.504 E15.72978
G1 X98.340 Y174.631 E15.77655
G1 X97.600 Y174.195 E15.79889
G1 X96.211 Y173.327 E15.84147
G1 X94.718 Y172.320 E15.88826
G1 X94.019 Y171.820 E15.91061
G1 X92.710 Y170.834 E15.95322
G1 X91.312 Y169.702 E15.99999
G1 X90.125 Y168.671 E16.04084
G1 X89.441 Y168.046 E16.06494
G1 X88.146 Y166.796 E16.11171
G1 X87.009 Y165.618 E16.15428
G1 X86.427 Y164.985 E16.17664
G1 X85.246 Y163.626 E16.22342
G1 X84.257 Y162.405 E16.26429
G1 X83.692 Y161.672 E16.28836
G1 X82.634 Y160.216 E16.33514
G1 X82.147 Y159.507 E16.35749
G1 X81.255 Y158.133 E16.40008
G1 X80.328 Y156.590 E16.44687
G1 X79.566 Y155.216 E16.48772
G1 X79.136 Y154.395 E16.51180
G1 X78.347 Y152.777 E16.55858
G1 X77.991 Y151.995 E16.58093
G1 X77.351 Y150.487 E16.62352
G1 X76.734 Y148.882 E16.66821
G1 X76.148 Y147.181 E16.71499
G1 X75.890 Y146.361 E16.73734
G1 X75.439 Y144.786 E16.77993
G1 X75.003 Y143.039 E16.82671
G1 X74.663 Y141.437 E16.86929
G1 X74.505 Y140.592 E16.89165
G1 X74.224 Y138.814 E16.93843
G1 X74.024 Y137.188 E16.98102
G1 X73.941 Y136.333 E17.00336
G1 X73.815 Y134.537 E17.05015
G1 X73.758 Y132.900 E17.09274
G1 X73.750 Y132.041 E17.11508
G1 X73.781 Y130.241 E17.16187
G1 X73.820 Y129.382 E17.18422
G1 X73.934 Y127.748 E17.22681
G1 X74.122 Y125.958 E17.27359
G1 X74.235 Y125.106 E17.29594
G1 X74.491 Y123.488 E17.33852
G1 X74.835 Y121.721 E17.38531
G1 X75.021 Y120.882 E17.40766
G1 X75.418 Y119.292 E17.45025
G1 X75.914 Y117.562 E17.49703
G1 X76.420 Y116.004 E17.53961
G1 X76.706 Y115.193 E17.56196
G1 X77.351 Y113.513 E17.60875
G1 X77.965 Y112.066 E17.64961
G1 X78.347 Y111.223 E17.67368
G1 X79.136 Y109.605 E17.72047
G1 X79.905 Y108.159 E17.76306
G1 X80.328 Y107.410 E17.78540
G1 X81.255 Y105.867 E17.83219
G1 X82.111 Y104.549 E17.87304
G1 X82.634 Y103.784 E17.89712
G1 X83.691 Y102.328 E17.94391
G1 X84.659 Y101.090 E17.98477
G1 X85.246 Y100.374 E18.00884
G1 X86.427 Y99.015 E18.05562
G1 X87.008 Y98.382 E18.07798
G1 X88.146 Y97.204 E18.12056
G1 X89.386 Y96.004 E18.16540
G1 X89.781 Y96.320 F7800.000
G1 X90.988 Y95.233 E18.20765 F1080.000
G1 X91.635 Y94.680 E18.22977
G1 X92.350 Y94.090 E18.25387
G1 X93.631 Y93.090 E18.29612
G1 X94.376 Y92.538 E18.32022
G1 X95.655 Y91.642 E18.36079
G1 X97.199 Y90.637 E18.40869
G1 X98.592 Y89.800 E18.45093
G1 X99.332 Y89.381 E18.47305
G1 X100.902 Y88.546 E18.51927
G1 X102.305 Y87.861 E18.55985
G1 X103.137 Y87.480 E18.58364
G1 X103.987 Y87.110 E18.60774
G1 X105.494 Y86.502 E18.64999
G1 X107.165 Y85.894 E18.69621
G1 X108.710 Y85.391 E18.73846
G1 X109.599 Y85.128 E18.76256
G1 X111.169 Y84.707 E18.80481
G1 X112.071 Y84.491 E18.82891
G1 X113.660 Y84.153 E18.87115
G1 X114.497 Y83.997 E18.89328
G1 X116.253 Y83.719 E18.93950
G1 X117.866 Y83.521 E18.98175
G1 X118.789 Y83.432 E19.00585
G1 X120.346 Y83.323 E19.04642
G1 X121.261 Y83.281 E19.07023
G1 X123.038 Y83.250 E19.11644
G1 X123.889 Y83.258 E19.13856 F1080.000
G1 X125.513 Y83.315 E19.18081
G1 X127.287 Y83.439 E19.22702
G1 X128.134 Y83.521 E19.24914
G1 X129.747 Y83.719 E19.29139
G1 X131.503 Y83.997 E19.33761
G1 X133.035 Y84.295 E19.37818
G1 X133.929 Y84.491 E19.40198
G1 X135.654 Y84.921 E19.44819
G1 X137.155 Y85.351 E19.48877
G1 X138.028 Y85.624 E19.51256
G1 X139.638 Y86.177 E19.55680
G1 X141.297 Y86.814 E19.60301
G1 X142.793 Y87.449 E19.64525
G1 X143.568 Y87.801 E19.66738
G1 X145.166 Y88.581 E19.71360
G1 X145.920 Y88.974 E19.73572
