; generated by Slic3r 1.1.7 on 2015-04-10 at 09:27:29

; perimeters extrusion width = 0.60mm
; infill extrusion width = 0.60mm
; solid infill extrusion width = 0.60mm
; top infill extrusion width = 0.30mm

G21 ; set units to millimeters
M190 S145 ; wait for bed temperature to be reached
;--------------------------------------
G28 ; home all axes
G1 Z5 F500 ; lift nozzle
M109 S270 ; wait for extruder temp to be reached
M3001 ; Aktivate Z-Compensation 
; Move Z-axis n-steps up (see manual)
;M3004 S0 ; + n-steps bed down // - n-steps bed up! old Firmware Version <= 0.91.48
;M3006 S0 ; configure the static z-offset (units are [um])
G90 ; use absolute coordinates
M82 ; use absolute distances for extrusion
G92 E0 ; start line
G1 F300 E-0.5
G1 X230 Y22 Z0.35 F5000
G1 F800 E13
G1 X20 E25 F1000
; Acceleration up to...
; Acc printing
M201 X3000 Y3000 Z100
; Acc travel
M202 X3000 Y3000 Z100
; ZJERK 
M205 Z0.1
;--------------------------------------
G90 ; use absolute coordinates
G92 E0
M82 ; use absolute distances for extrusion
G1 F1500.000 E-2.00000
G92 E0
G1 Z0.350 F7800.000
G1 X97.836 Y110.741 F7800.000
G1 E2.00000 F1500.000
G1 X98.488 Y110.193 E2.02213 F1080.000
G1 X99.756 Y109.305 E2.06239
G1 X100.494 Y108.879 E2.08452
G1 X101.897 Y108.225 E2.12478
G1 X102.697 Y107.934 E2.14691
G1 X104.193 Y107.533 E2.18717
G1 X105.032 Y107.385 E2.20930
G1 X106.362 Y107.269 E2.24403
G1 X106.787 Y107.250 E2.25508
G1 X139.213 Y107.250 E3.09799
G1 X139.638 Y107.269 E3.10905
G1 X140.969 Y107.385 E3.14378 F1080.000
G1 X141.807 Y107.533 E3.16591
G1 X143.303 Y107.934 E3.20616
G1 X144.103 Y108.225 E3.22829
G1 X145.506 Y108.879 E3.26855
G1 X146.244 Y109.305 E3.29068
G1 X147.512 Y110.193 E3.33095
G1 X148.164 Y110.741 E3.35308
G1 X149.259 Y111.836 E3.39333
G1 X149.807 Y112.488 E3.41547
G1 X150.695 Y113.756 E3.45573
G1 X151.121 Y114.494 E3.47785
G1 X151.775 Y115.897 E3.51812
G1 X152.066 Y116.697 E3.54024
G1 X152.467 Y118.193 E3.58049
G1 X152.615 Y119.032 E3.60263
G1 X152.731 Y120.362 E3.63735
G1 X152.750 Y120.787 E3.64842
G1 X152.750 Y143.213 E4.23137
G1 X152.731 Y143.638 E4.24243
G1 X152.615 Y144.968 E4.27715
G1 X152.467 Y145.807 E4.29929
G1 X152.066 Y147.303 E4.33955
G1 X151.775 Y148.103 E4.36168
G1 X151.121 Y149.506 E4.40192
G1 X150.695 Y150.244 E4.42406
G1 X149.807 Y151.512 E4.46431
G1 X149.260 Y152.164 E4.48645
G1 X148.164 Y153.259 E4.52671
G1 X147.512 Y153.807 E4.54885
G1 X146.244 Y154.695 E4.58910
G1 X145.506 Y155.121 E4.61123
G1 X144.103 Y155.775 E4.65149
G1 X143.303 Y156.066 E4.67362
G1 X141.807 Y156.467 E4.71388
G1 X140.968 Y156.615 E4.73601
G1 X139.638 Y156.731 E4.77073
G1 X139.213 Y156.750 E4.78179
G1 X106.787 Y156.750 E5.62471
G1 X106.362 Y156.731 E5.63577
G1 X105.031 Y156.615 E5.67049
G1 X104.193 Y156.467 E5.69262
G1 X102.697 Y156.066 E5.73288
G1 X101.897 Y155.775 E5.75501
G1 X100.493 Y155.121 E5.79527
G1 X99.756 Y154.695 E5.81740
G1 X98.488 Y153.807 E5.85765
G1 X97.836 Y153.260 E5.87979
G1 X96.741 Y152.164 E5.92005
G1 X96.193 Y151.512 E5.94218
G1 X95.305 Y150.243 E5.98244
G1 X94.879 Y149.506 E6.00457
G1 X94.225 Y148.103 E6.04482
G1 X93.934 Y147.303 E6.06696
G1 X93.654 Y146.257 E6.09509
G1 X93.533 Y145.807 E6.10721
G1 X93.385 Y144.968 E6.12935
G1 X93.269 Y143.638 E6.16406
G1 X93.250 Y143.213 E6.17513
G1 X93.250 Y120.787 E6.75809
G1 X93.269 Y120.362 E6.76915
G1 X93.385 Y119.032 E6.80387
G1 X93.533 Y118.193 E6.82600
G1 X93.934 Y116.697 E6.86626
G1 X94.225 Y115.897 E6.88839
G1 X94.879 Y114.494 E6.92864
G1 X95.305 Y113.756 E6.95078
G1 X96.193 Y112.488 E6.99104
G1 X96.741 Y111.836 E7.01317
G1 X97.783 Y110.794 E7.05148
G1 X98.174 Y111.110 F7800.000
G1 X98.792 Y110.590 E7.07247 F1080.000
G1 X100.025 Y109.727 E7.11160
G1 X100.725 Y109.323 E7.13259
G1 X102.089 Y108.687 E7.17171
G1 X102.848 Y108.411 E7.19271
G1 X104.302 Y108.021 E7.23184
G1 X105.097 Y107.881 E7.25283
G1 X106.395 Y107.768 E7.28671
G1 X106.798 Y107.750 E7.29720
G1 X139.202 Y107.750 E8.13954
G1 X139.605 Y107.768 E8.15003 F1080.000
G1 X140.903 Y107.881 E8.18391
G1 X141.699 Y108.021 E8.20490
G1 X143.152 Y108.411 E8.24402
G1 X143.911 Y108.687 E8.26502
G1 X145.275 Y109.323 E8.30414
G1 X145.975 Y109.727 E8.32514
G1 X147.208 Y110.590 E8.36426
G1 X147.826 Y111.110 E8.38526
G1 X148.891 Y112.174 E8.42438
G1 X149.410 Y112.792 E8.44538
G1 X150.273 Y114.025 E8.48450
G1 X150.677 Y114.725 E8.50550
G1 X151.313 Y116.089 E8.54462
G1 X151.589 Y116.848 E8.56561
G1 X151.979 Y118.301 E8.60473
G1 X152.119 Y119.097 E8.62573
G1 X152.232 Y120.395 E8.65960
G1 X152.250 Y120.798 E8.67010
G1 X152.250 Y143.202 E9.25249
G1 X152.232 Y143.605 E9.26298
G1 X152.119 Y144.903 E9.29685
G1 X151.979 Y145.699 E9.31785
G1 X151.589 Y147.153 E9.35698
G1 X151.313 Y147.911 E9.37797
G1 X150.677 Y149.275 E9.41708
G1 X150.273 Y149.975 E9.43808
G1 X149.410 Y151.207 E9.47720
G1 X148.891 Y151.826 E9.49821
G1 X147.826 Y152.891 E9.53733
G1 X147.208 Y153.410 E9.55833
G1 X145.975 Y154.273 E9.59745
G1 X145.275 Y154.677 E9.61845
G1 X143.911 Y155.313 E9.65757
G1 X143.152 Y155.589 E9.67857
G1 X141.698 Y155.979 E9.71769
G1 X140.903 Y156.119 E9.73869
G1 X139.605 Y156.232 E9.77255
G1 X139.202 Y156.250 E9.78305
G1 X106.798 Y156.250 E10.62539
G1 X106.395 Y156.232 E10.63589
G1 X105.097 Y156.119 E10.66976
G1 X104.301 Y155.979 E10.69075
G1 X102.848 Y155.589 E10.72988
G1 X102.089 Y155.313 E10.75088
G1 X100.725 Y154.677 E10.79000
G1 X100.025 Y154.273 E10.81099
G1 X98.793 Y153.410 E10.85011
G1 X98.174 Y152.891 E10.87111
G1 X97.110 Y151.826 E10.91023
G1 X96.590 Y151.208 E10.93123
G1 X95.727 Y149.975 E10.97036
G1 X95.323 Y149.275 E10.99135
G1 X94.687 Y147.911 E11.03047
G1 X94.411 Y147.152 E11.05147
G1 X94.021 Y145.699 E11.09059
G1 X93.881 Y144.903 E11.11159
G1 X93.768 Y143.605 E11.14546
G1 X93.750 Y143.202 E11.15595
G1 X93.750 Y120.798 E11.73834
G1 X93.768 Y120.395 E11.74884
G1 X93.881 Y119.097 E11.78271
G1 X94.021 Y118.301 E11.80371
G1 X94.411 Y116.848 E11.84283
G1 X94.687 Y116.089 E11.86382
G1 X95.323 Y114.725 E11.90294
G1 X95.727 Y114.025 E11.92394
G1 X96.590 Y112.792 E11.96307
G1 X97.110 Y112.174 E11.98406
G1 X98.121 Y111.163 E12.02124
G1 X98.512 Y111.478 F7800.000
G1 X99.097 Y110.987 E12.04110 F1080.000
G1 X100.294 Y110.149 E12.07909
G1 X100.956 Y109.767 E12.09895
G1 X102.280 Y109.150 E12.13694
G1 X102.998 Y108.888 E12.15680
G1 X104.410 Y108.510 E12.19479
G1 X105.162 Y108.377 E12.21465
G1 X106.428 Y108.267 E12.24767
G1 X106.809 Y108.250 E12.25759
G1 X139.191 Y108.250 E13.09937
G1 X139.572 Y108.267 E13.10929
G1 X140.838 Y108.377 E13.14232 F1080.000
G1 X141.590 Y108.510 E13.16218
G1 X143.002 Y108.888 E13.20016
G1 X143.720 Y109.150 E13.22002
G1 X145.044 Y109.767 E13.25801
G1 X145.706 Y110.149 E13.27787
G1 X146.903 Y110.987 E13.31587
G1 X147.488 Y111.479 E13.33573
G1 X148.522 Y112.512 E13.37371
G1 X149.013 Y113.097 E13.39358
G1 X149.851 Y114.294 E13.43156
G1 X150.233 Y114.956 E13.45142
G1 X150.850 Y116.280 E13.48941
G1 X151.112 Y116.998 E13.50927
G1 X151.490 Y118.410 E13.54725
G1 X151.623 Y119.162 E13.56712
G1 X151.733 Y120.428 E13.60014
G1 X151.750 Y120.809 E13.61007
G1 X151.750 Y143.191 E14.19189
G1 X151.733 Y143.572 E14.20182
G1 X151.623 Y144.838 E14.23483
G1 X151.490 Y145.590 E14.25470
G1 X151.112 Y147.002 E14.29269
G1 X150.850 Y147.720 E14.31255
G1 X150.233 Y149.044 E14.35053
G1 X149.851 Y149.706 E14.37039
G1 X149.013 Y150.903 E14.40838
G1 X148.522 Y151.488 E14.42824
G1 X147.488 Y152.522 E14.46623
G1 X146.903 Y153.013 E14.48610
G1 X145.706 Y153.851 E14.52408
G1 X145.044 Y154.233 E14.54394
G1 X143.720 Y154.850 E14.58193
G1 X143.002 Y155.112 E14.60180
G1 X141.590 Y155.490 E14.63979
G1 X140.838 Y155.623 E14.65964
G1 X139.573 Y155.733 E14.69266
G1 X139.191 Y155.750 E14.70259
G1 X106.809 Y155.750 E15.54437
G1 X106.428 Y155.733 E15.55429
G1 X105.162 Y155.623 E15.58732
G1 X104.410 Y155.490 E15.60717
G1 X102.998 Y155.112 E15.64516
G1 X102.280 Y154.850 E15.66503
G1 X100.956 Y154.233 E15.70302
G1 X100.294 Y153.851 E15.72287
G1 X99.097 Y153.013 E15.76086
G1 X98.512 Y152.522 E15.78072
G1 X97.478 Y151.488 E15.81871
G1 X96.987 Y150.903 E15.83857
G1 X96.149 Y149.706 E15.87656
G1 X95.767 Y149.044 E15.89642
G1 X95.150 Y147.720 E15.93441
G1 X94.888 Y147.002 E15.95427
G1 X94.619 Y145.998 E15.98127
G1 X94.510 Y145.590 E15.99226
G1 X94.377 Y144.838 E16.01212
G1 X94.267 Y143.573 E16.04514
G1 X94.250 Y143.191 E16.05506
G1 X94.250 Y120.809 E16.63689
G1 X94.267 Y120.428 E16.64682
G1 X94.377 Y119.162 E16.67983
G1 X94.510 Y118.410 E16.69970
G1 X94.888 Y116.998 E16.73768
G1 X95.150 Y116.280 E16.75755
G1 X95.767 Y114.956 E16.79553
G1 X96.149 Y114.294 E16.81539
G1 X96.987 Y113.097 E16.85338
G1 X97.478 Y112.512 E16.87324
G1 X98.459 Y111.532 E16.90928
G1 X98.850 Y111.847 F7800.000
G1 X99.402 Y111.384 E16.92801 F1080.000
G1 X100.563 Y110.571 E16.96486
G1 X101.187 Y110.211 E16.98359
G1 X102.472 Y109.612 E17.02044
G1 X103.149 Y109.366 E17.03917
G1 X104.518 Y108.999 E17.07603
G1 X105.228 Y108.874 E17.09475
G1 X106.460 Y108.766 E17.12692
G1 X106.820 Y108.750 E17.13628
G1 X139.180 Y108.750 E17.97748
G1 X140.773 Y108.874 E18.01901 F1080.000
G1 X141.482 Y108.999 E18.03773
G1 X142.851 Y109.366 E18.07458
G1 X143.528 Y109.612 E18.09331
G1 X144.813 Y110.211 E18.13016
G1 X145.437 Y110.571 E18.14889
G1 X146.598 Y111.384 E18.18575
G1 X147.150 Y111.848 E18.20447
G1 X147.869 Y112.566 E18.23090
G1 X148.153 Y112.850 E18.24132
G1 X148.616 Y113.402 E18.26005
G1 X149.429 Y114.563 E18.29691
G1 X149.789 Y115.187 E18.31563
G1 X150.388 Y116.472 E18.35248
G1 X150.634 Y117.149 E18.37121
G1 X151.001 Y118.518 E18.40806
G1 X151.126 Y119.228 E18.42679
G1 X151.250 Y120.820 E18.46831
G1 X151.250 Y143.180 E19.04956
G1 X151.126 Y144.772 E19.09108
G1 X151.001 Y145.482 E19.10981
G1 X150.634 Y146.852 E19.14667
G1 X150.388 Y147.528 E19.16540
G1 X149.789 Y148.813 E19.20224
G1 X149.429 Y149.437 E19.22097
G1 X148.616 Y150.598 E19.25782
G1 X148.153 Y151.150 E19.27655
G1 X147.150 Y152.153 E19.31340
G1 X146.598 Y152.616 E19.33213
G1 X145.437 Y153.429 E19.36898
G1 X144.813 Y153.789 E19.38771
G1 X143.528 Y154.388 E19.42456
G1 X142.851 Y154.634 E19.44329
G1 X141.482 Y155.001 E19.48014
G1 X140.772 Y155.126 E19.49887
G1 X139.540 Y155.234 E19.53103
G1 X139.180 Y155.250 E19.54039
G1 X106.820 Y155.250 E20.38161
G1 X105.227 Y155.126 E20.42313
G1 X104.518 Y155.001 E20.44185
G1 X103.149 Y154.634 E20.47870
G1 X102.472 Y154.388 E20.49743
G1 X101.187 Y153.789 E20.53429
G1 X100.563 Y153.429 E20.55301
G1 X99.402 Y152.616 E20.58986
G1 X98.850 Y152.153 E20.60859
G1 X97.847 Y151.150 E20.64544
G1 X97.384 Y150.598 E20.66417
G1 X96.571 Y149.437 E20.70103
G1 X96.211 Y148.813 E20.71975
G1 X95.612 Y147.528 E20.75660
G1 X95.366 Y146.851 E20.77533
G1 X95.102 Y145.869 E20.80176
G1 X94.999 Y145.482 E20.81218
G1 X94.874 Y144.772 E20.83091
G1 X94.750 Y143.180 E20.87243
G1 X94.750 Y120.820 E21.45369
G1 X94.874 Y119.228 E21.49521
G1 X94.999 Y118.518 E21.51393
G1 X95.366 Y117.149 E21.55079
G1 X95.612 Y116.472 E21.56951
G1 X96.211 Y115.187 E21.60636
G1 X96.571 Y114.563 E21.62509
G1 X97.384 Y113.402 E21.66194
G1 X97.847 Y112.850 E21.68067
G1 X98.797 Y111.901 E21.71557
G1 X99.188 Y112.216 F7800.000
G1 X99.706 Y111.781 E21.73317 F1080.000
G1 X100.832 Y110.993 E21.76888
G1 X101.418 Y110.655 E21.78648
G1 X102.663 Y110.074 E21.82219
G1 X103.299 Y109.843 E21.83979
G1 X104.627 Y109.487 E21.87551
G1 X105.293 Y109.370 E21.89310
G1 X106.493 Y109.265 E21.92442
G1 X106.831 Y109.250 E21.93320
G1 X139.169 Y109.250 E22.77385
G1 X139.507 Y109.265 E22.78264
G1 X140.707 Y109.370 E22.81396 F1080.000
G1 X141.374 Y109.487 E22.83155
G1 X142.701 Y109.843 E22.86726
G1 X143.337 Y110.074 E22.88485
G1 X144.582 Y110.655 E22.92057
G1 X145.168 Y110.993 E22.93816
G1 X146.294 Y111.782 E22.97389
G1 X146.812 Y112.216 E22.99148
G1 X147.784 Y113.188 E23.02719
G1 X148.219 Y113.706 E23.04479
G1 X149.007 Y114.832 E23.08050
G1 X149.345 Y115.418 E23.09809
G1 X149.926 Y116.663 E23.13381
G1 X150.157 Y117.299 E23.15140
G1 X150.513 Y118.626 E23.18712
G1 X150.630 Y119.293 E23.20471
G1 X150.750 Y120.831 E23.24482
G1 X150.750 Y143.169 E23.82550
G1 X150.630 Y144.707 E23.86560
G1 X150.513 Y145.374 E23.88320
G1 X150.157 Y146.701 E23.91892
G1 X149.926 Y147.337 E23.93651
G1 X149.345 Y148.582 E23.97222
G1 X149.007 Y149.168 E23.98981
G1 X148.219 Y150.293 E24.02553
G1 X147.784 Y150.812 E24.04313
G1 X146.812 Y151.784 E24.07885
G1 X146.294 Y152.219 E24.09644
G1 X145.168 Y153.007 E24.13215
G1 X144.582 Y153.345 E24.14974
G1 X143.337 Y153.926 E24.18546
G1 X142.701 Y154.157 E24.20306
G1 X141.373 Y154.513 E24.23878
G1 X140.707 Y154.630 E24.25636
G1 X139.507 Y154.735 E24.28768
G1 X139.169 Y154.750 E24.29647
G1 X106.831 Y154.750 E25.13712
G1 X105.293 Y154.630 E25.17722
G1 X104.626 Y154.513 E25.19481
G1 X103.299 Y154.157 E25.23053
G1 X102.663 Y153.926 E25.24812
G1 X101.418 Y153.345 E25.28384
G1 X100.832 Y153.007 E25.30143
G1 X99.707 Y152.219 E25.33714
G1 X99.188 Y151.784 E25.35474
G1 X98.216 Y150.812 E25.39046
G1 X97.781 Y150.294 E25.40805
G1 X96.993 Y149.168 E25.44377
G1 X96.655 Y148.582 E25.46136
G1 X96.074 Y147.337 E25.49707
G1 X95.843 Y146.701 E25.51467
G1 X95.585 Y145.740 E25.54053
G1 X95.487 Y145.374 E25.55039
G1 X95.370 Y144.707 E25.56798
G1 X95.250 Y143.169 E25.60808
G1 X95.250 Y120.831 E26.18877
G1 X95.370 Y119.293 E26.22887
G1 X95.487 Y118.626 E26.24646
G1 X95.843 Y117.299 E26.28218
G1 X96.074 Y116.663 E26.29977
G1 X96.655 Y115.418 E26.33549
G1 X96.993 Y114.832 E26.35308
G1 X97.781 Y113.706 E26.38880
G1 X98.216 Y113.188 E26.40639
G1 X99.135 Y112.270 E26.44016
G1 X99.526 Y112.585 F7800.000
G1 X100.011 Y112.179 E26.45662 F1080.000
G1 X101.101 Y111.415 E26.49120
G1 X101.649 Y111.099 E26.50766
G1 X102.855 Y110.537 E26.54224
G1 X103.450 Y110.320 E26.55870
G1 X104.735 Y109.976 E26.59328
G1 X105.358 Y109.866 E26.60974
G1 X106.526 Y109.764 E26.64020
G1 X106.842 Y109.750 E26.64843
G1 X139.158 Y109.750 E27.48850
G1 X140.642 Y109.866 E27.52719 F1080.000
G1 X141.265 Y109.976 E27.54364
G1 X142.550 Y110.320 E27.57822
G1 X143.145 Y110.537 E27.59468
G1 X144.351 Y111.099 E27.62926
G1 X144.899 Y111.415 E27.64572
G1 X145.989 Y112.179 E27.68031
G1 X146.474 Y112.585 E27.69676
G1 X147.162 Y113.274 E27.72206
G1 X147.415 Y113.526 E27.73134
G1 X147.822 Y114.011 E27.74780
G1 X148.585 Y115.101 E27.78239
G1 X148.901 Y115.649 E27.79884
G1 X149.463 Y116.855 E27.83342
G1 X149.680 Y117.450 E27.84988
G1 X150.024 Y118.735 E27.88446
G1 X150.134 Y119.358 E27.90092
G1 X150.250 Y120.842 E27.93960
G1 X150.250 Y143.158 E28.51972
G1 X150.134 Y144.642 E28.55841
G1 X150.024 Y145.265 E28.57487
G1 X149.680 Y146.551 E28.60946
G1 X149.463 Y147.145 E28.62591
G1 X148.901 Y148.351 E28.66048
G1 X148.585 Y148.899 E28.67694
G1 X147.822 Y149.989 E28.71152
G1 X147.415 Y150.474 E28.72798
G1 X146.474 Y151.415 E28.76257
G1 X145.989 Y151.821 E28.77903
G1 X144.899 Y152.584 E28.81361
G1 X144.351 Y152.901 E28.83006
G1 X143.145 Y153.463 E28.86465
G1 X142.550 Y153.680 E28.88110
G1 X141.265 Y154.024 E28.91569
G1 X140.642 Y154.134 E28.93214
G1 X139.474 Y154.236 E28.96261
G1 X139.158 Y154.250 E28.97083
G1 X106.842 Y154.250 E29.81091
G1 X105.358 Y154.134 E29.84960
G1 X104.735 Y154.024 E29.86605
G1 X103.450 Y153.680 E29.90063
G1 X102.855 Y153.463 E29.91709
G1 X101.649 Y152.901 E29.95168
G1 X101.101 Y152.584 E29.96813
G1 X100.011 Y151.822 E30.00271
G1 X99.526 Y151.415 E30.01917
G1 X98.585 Y150.474 E30.05375
G1 X98.179 Y149.989 E30.07021
G1 X97.415 Y148.899 E30.10479
G1 X97.099 Y148.351 E30.12125
G1 X96.537 Y147.145 E30.15583
G1 X96.320 Y146.550 E30.17229
G1 X96.068 Y145.610 E30.19758
G1 X95.976 Y145.265 E30.20687
G1 X95.866 Y144.642 E30.22333
G1 X95.750 Y143.158 E30.26201
G1 X95.750 Y120.842 E30.84213
G1 X95.866 Y119.358 E30.88082
G1 X95.976 Y118.735 E30.89727
