; generated by Slic3r 1.1.7 on 2015-04-10 at 09:32:16

; perimeters extrusion width = 0.60mm
; infill extrusion width = 0.60mm
; solid infill extrusion width = 0.60mm
; top infill extrusion width = 0.30mm

G21 ; set units to millimeters
M190 S145 ; wait for bed temperature to be reached
;--------------------------------------
G28 ; home all axes
G1 Z5 F500 ; lift nozzle
M109 S270 ; wait for extruder temp to be reached
M3001 ; Aktivate Z-Compensation 
; Move Z-axis n-steps up (see manual)
;M3004 S0 ; + n-steps bed down // - n-steps bed up! old Firmware Version <= 0.91.48
;M3006 S0 ; configure the static z-offset (units are [um])
G90 ; use absolute coordinates
M82 ; use absolute distances for extrusion
G92 E0 ; start line
G1 F300 E-0.5
G1 X230 Y22 Z0.35 F5000
G1 F800 E13
G1 X20 E25 F1000
; Acceleration up to...
; Acc printing
M201 X3000 Y3000 Z100
; Acc travel
M202 X3000 Y3000 Z100
; ZJERK 
M205 Z0.1
;--------------------------------------
G90 ; use absolute coordinates
G92 E0
M82 ; use absolute distances for extrusion
G1 F1500.000 E-2.00000
G92 E0
G1 Z0.350 F7800.000
G1 X90.211 Y85.699 F7800.000
G1 E2.00000 F1500.000
G1 X94.129 Y83.872 E2.11238 F1080.000
G1 X94.729 Y83.872 E2.12798
G1 X94.815 Y83.857 E2.13025
G1 X117.754 Y75.508 E2.76482
G1 X122.061 Y75.885 E2.87720
G1 X122.581 Y76.185 E2.89280 F1080.000
G1 X122.663 Y76.215 E2.89507
G1 X146.703 Y80.454 E3.52965
G1 X150.244 Y82.933 E3.64203
G1 X150.544 Y83.453 E3.65763
G1 X150.601 Y83.520 E3.65990
G1 X169.301 Y99.211 E4.29447
G1 X171.128 Y103.129 E4.40685
G1 X171.128 Y103.729 E4.42245
G1 X171.143 Y103.815 E4.42472
G1 X179.492 Y126.754 E5.05930
G1 X179.115 Y131.061 E5.17168
G1 X178.815 Y131.581 E5.18727
G1 X178.785 Y131.663 E5.18955
G1 X174.546 Y155.703 E5.82412
G1 X172.066 Y159.244 E5.93651
G1 X171.547 Y159.544 E5.95210
G1 X171.480 Y159.601 E5.95438
G1 X155.789 Y178.300 E6.58895
G1 X151.871 Y180.127 E6.70133
G1 X151.271 Y180.127 E6.71692
G1 X151.185 Y180.143 E6.71920
G1 X128.246 Y188.492 E7.35377
G1 X123.939 Y188.115 E7.46615
G1 X123.419 Y187.815 E7.48175
G1 X123.337 Y187.785 E7.48402
G1 X99.297 Y183.546 E8.11860
G1 X95.756 Y181.066 E8.23098
G1 X95.456 Y180.547 E8.24657
G1 X95.399 Y180.480 E8.24885
G1 X76.700 Y164.789 E8.88342
G1 X74.873 Y160.871 E8.99580
G1 X74.873 Y160.271 E9.01140
G1 X74.857 Y160.185 E9.01367
G1 X66.508 Y137.246 E9.64825
G1 X66.885 Y132.939 E9.76062
G1 X67.185 Y132.419 E9.77622
G1 X67.215 Y132.337 E9.77850
G1 X71.454 Y108.297 E10.41307
G1 X73.933 Y104.756 E10.52545
G1 X74.453 Y104.456 E10.54105
G1 X74.520 Y104.399 E10.54332
G1 X90.163 Y85.757 E11.17594
G1 X90.523 Y86.106 F7800.000
G1 X94.240 Y84.372 E11.28256 F1080.000
G1 X94.817 Y84.372 E11.29757
G1 X94.904 Y84.357 E11.29984
G1 X117.821 Y76.016 E11.93383
G1 X121.907 Y76.373 E12.04044 F1080.000
G1 X122.407 Y76.662 E12.05545
G1 X122.489 Y76.692 E12.05772
G1 X146.507 Y80.927 E12.69171
G1 X149.867 Y83.279 E12.79833
G1 X150.155 Y83.779 E12.81333
G1 X150.212 Y83.846 E12.81561
G1 X168.894 Y99.523 E13.44959
G1 X170.628 Y103.240 E13.55621
G1 X170.628 Y103.817 E13.57121
G1 X170.643 Y103.904 E13.57349
G1 X178.984 Y126.821 E14.20747
G1 X178.627 Y130.907 E14.31409
G1 X178.338 Y131.407 E14.32910
G1 X178.308 Y131.489 E14.33137
G1 X174.073 Y155.507 E14.96536
G1 X171.720 Y158.867 E15.07198
G1 X171.220 Y159.155 E15.08698
G1 X171.153 Y159.212 E15.08926
G1 X155.477 Y177.894 E15.72324
G1 X151.760 Y179.627 E15.82985
G1 X151.183 Y179.627 E15.84486
G1 X151.096 Y179.643 E15.84714
G1 X128.179 Y187.984 E16.48112
G1 X124.093 Y187.627 E16.58774
G1 X123.593 Y187.338 E16.60274
G1 X123.511 Y187.308 E16.60502
G1 X99.493 Y183.073 E17.23900
G1 X96.133 Y180.720 E17.34562
G1 X95.845 Y180.221 E17.36063
G1 X95.788 Y180.153 E17.36290
G1 X77.106 Y164.477 E17.99688
G1 X75.373 Y160.760 E18.10350
G1 X75.373 Y160.183 E18.11851
G1 X75.357 Y160.096 E18.12078
G1 X67.016 Y137.179 E18.75477
G1 X67.373 Y133.093 E18.86138
G1 X67.662 Y132.593 E18.87639
G1 X67.692 Y132.511 E18.87866
G1 X71.927 Y108.493 E19.51265
G1 X74.279 Y105.133 E19.61926
G1 X74.779 Y104.845 E19.63427
G1 X74.846 Y104.788 E19.63655
G1 X90.475 Y86.163 E20.26858
G1 X90.835 Y86.512 F7800.000
G1 X94.351 Y84.872 E20.36943 F1080.000
G1 X94.906 Y84.872 E20.38385
G1 X94.992 Y84.857 E20.38613
G1 X117.888 Y76.524 E21.01952
G1 X121.753 Y76.862 E21.12037
G1 X122.233 Y77.139 E21.13479 F1080.000
G1 X122.316 Y77.169 E21.13707
G1 X146.311 Y81.400 E21.77046
G1 X149.489 Y83.625 E21.87131
G1 X149.766 Y84.106 E21.88573
G1 X149.823 Y84.173 E21.88800
G1 X168.488 Y99.835 E22.52140
G1 X170.128 Y103.351 E22.62225
G1 X170.128 Y103.906 E22.63667
G1 X170.143 Y103.992 E22.63894
G1 X178.476 Y126.888 E23.27234
G1 X178.138 Y130.753 E23.37319
G1 X177.861 Y131.233 E23.38761
G1 X177.831 Y131.315 E23.38988
G1 X173.600 Y155.311 E24.02328
G1 X171.374 Y158.489 E24.12414
G1 X170.894 Y158.766 E24.13855
G1 X170.827 Y158.823 E24.14083
G1 X155.165 Y177.488 E24.77422
G1 X151.649 Y179.127 E24.87507
G1 X151.094 Y179.127 E24.88949
G1 X151.008 Y179.143 E24.89176
G1 X128.112 Y187.476 E25.52516
G1 X124.247 Y187.138 E25.62601
G1 X123.767 Y186.861 E25.64043
G1 X123.684 Y186.831 E25.64270
G1 X99.689 Y182.600 E26.27610
G1 X96.511 Y180.374 E26.37695
G1 X96.234 Y179.894 E26.39137
G1 X96.177 Y179.827 E26.39365
G1 X77.512 Y164.165 E27.02704
G1 X75.873 Y160.649 E27.12789
G1 X75.873 Y160.094 E27.14231
G1 X75.857 Y160.008 E27.14458
G1 X67.524 Y137.112 E27.77798
G1 X67.862 Y133.247 E27.87883
G1 X68.139 Y132.767 E27.89325
G1 X68.169 Y132.684 E27.89552
G1 X72.400 Y108.689 E28.52892
G1 X74.625 Y105.511 E28.62977
G1 X75.106 Y105.234 E28.64419
G1 X75.173 Y105.177 E28.64646
G1 X90.787 Y86.570 E29.27791
G1 X91.147 Y86.918 F7800.000
G1 X94.462 Y85.372 E29.37300 F1080.000
G1 X94.994 Y85.372 E29.38683
G1 X95.080 Y85.357 E29.38910
G1 X117.955 Y77.031 E30.02191
G1 X121.599 Y77.350 E30.11700 F1080.000
G1 X122.060 Y77.616 E30.13082
G1 X122.142 Y77.646 E30.13310
G1 X146.115 Y81.873 E30.76590
G1 X149.112 Y83.971 E30.86099
G1 X149.377 Y84.432 E30.87482
G1 X149.434 Y84.499 E30.87710
G1 X168.082 Y100.147 E31.50990
G1 X169.628 Y103.462 E31.60499
G1 X169.628 Y103.994 E31.61882
G1 X169.643 Y104.080 E31.62109
G1 X177.969 Y126.955 E32.25390
G1 X177.650 Y130.599 E32.34899
G1 X177.384 Y131.060 E32.36282
G1 X177.354 Y131.142 E32.36509
G1 X173.127 Y155.115 E32.99790
G1 X171.028 Y158.112 E33.09299
G1 X170.568 Y158.378 E33.10682
G1 X170.501 Y158.434 E33.10909
G1 X154.853 Y177.082 E33.74189
G1 X151.538 Y178.627 E33.83698
G1 X151.006 Y178.627 E33.85081
G1 X150.920 Y178.643 E33.85309
G1 X128.045 Y186.968 E34.48589
G1 X124.401 Y186.650 E34.58098
G1 X123.940 Y186.384 E34.59481
G1 X123.858 Y186.354 E34.59708
G1 X99.885 Y182.127 E35.22989
G1 X96.888 Y180.028 E35.32498
G1 X96.622 Y179.568 E35.33881
G1 X96.566 Y179.501 E35.34108
G1 X77.918 Y163.853 E35.97389
G1 X76.373 Y160.538 E36.06898
G1 X76.373 Y160.006 E36.08280
G1 X76.357 Y159.920 E36.08508
G1 X68.032 Y137.045 E36.71788
G1 X68.350 Y133.401 E36.81297
G1 X68.616 Y132.940 E36.82680
G1 X68.646 Y132.858 E36.82907
G1 X72.873 Y108.885 E37.46188
G1 X74.971 Y105.888 E37.55697
G1 X75.432 Y105.623 E37.57080
G1 X75.499 Y105.566 E37.57307
G1 X91.098 Y86.976 E38.20393
G1 X91.458 Y87.325 F7800.000
G1 X94.573 Y85.872 E38.29325 F1080.000
G1 X95.082 Y85.872 E38.30649
G1 X95.168 Y85.857 E38.30877
G1 X118.022 Y77.539 E38.94098
G1 X121.445 Y77.839 E39.03031
G1 X121.886 Y78.093 E39.04355 F1080.000
G1 X121.968 Y78.123 E39.04582
G1 X145.919 Y82.346 E39.67804
G1 X148.734 Y84.317 E39.76736
G1 X148.989 Y84.758 E39.78060
G1 X149.045 Y84.825 E39.78288
G1 X167.675 Y100.458 E40.41509
G1 X169.128 Y103.573 E40.50442
G1 X169.128 Y104.082 E40.51766
G1 X169.143 Y104.168 E40.51993
G1 X177.461 Y127.022 E41.15215
G1 X177.161 Y130.445 E41.24147
G1 X176.907 Y130.886 E41.25471
G1 X176.877 Y130.968 E41.25699
G1 X172.653 Y154.919 E41.88920
G1 X170.682 Y157.734 E41.97853
G1 X170.241 Y157.989 E41.99177
G1 X170.174 Y158.045 E41.99405
G1 X154.542 Y176.675 E42.62626
G1 X151.427 Y178.127 E42.71559
G1 X150.918 Y178.127 E42.72882
G1 X150.832 Y178.143 E42.73110
G1 X127.978 Y186.461 E43.36331
G1 X124.555 Y186.161 E43.45264
G1 X124.114 Y185.907 E43.46588
G1 X124.032 Y185.877 E43.46815
G1 X100.081 Y181.653 E44.10037
G1 X97.266 Y179.682 E44.18970
G1 X97.011 Y179.241 E44.20293
G1 X96.955 Y179.174 E44.20521
G1 X78.325 Y163.542 E44.83742
G1 X76.873 Y160.427 E44.92675
G1 X76.873 Y159.918 E44.93999
G1 X76.857 Y159.832 E44.94226
G1 X68.539 Y136.978 E45.57448
G1 X68.839 Y133.555 E45.66380
G1 X69.093 Y133.114 E45.67704
G1 X69.123 Y133.032 E45.67932
G1 X73.347 Y109.081 E46.31153
G1 X75.317 Y106.266 E46.40086
G1 X75.758 Y106.011 E46.41410
G1 X75.826 Y105.955 E46.41637
G1 X91.410 Y87.382 E47.04664
G1 X91.770 Y87.731 F7800.000
G1 X94.684 Y86.372 E47.13020 F1080.000
G1 X95.170 Y86.372 E47.14285
G1 X95.256 Y86.357 E47.14512
G1 X118.089 Y78.047 E47.77675
G1 X121.291 Y78.327 E47.86032 F1080.000
G1 X121.712 Y78.570 E47.87296
G1 X121.795 Y78.600 E47.87524
G1 X145.723 Y82.820 E48.50686
G1 X148.356 Y84.663 E48.59043
G1 X148.600 Y85.085 E48.60308
G1 X148.656 Y85.152 E48.60535
G1 X167.269 Y100.770 E49.23698
G1 X168.628 Y103.683 E49.32054
G1 X168.628 Y104.170 E49.33319
G1 X168.643 Y104.256 E49.33546
G1 X176.953 Y127.089 E49.96709
G1 X176.673 Y130.291 E50.05065
G1 X176.430 Y130.712 E50.06330
G1 X176.400 Y130.795 E50.06558
G1 X172.180 Y154.723 E50.69720
G1 X170.336 Y157.356 E50.78077
G1 X169.915 Y157.600 E50.79342
G1 X169.848 Y157.656 E50.79569
G1 X154.230 Y176.269 E51.42732
G1 X151.316 Y177.627 E51.51088
G1 X150.830 Y177.627 E51.52353
G1 X150.744 Y177.643 E51.52580
G1 X127.911 Y185.953 E52.15743
G1 X124.709 Y185.673 E52.24099
G1 X124.288 Y185.430 E52.25364
G1 X124.205 Y185.400 E52.25591
G1 X100.277 Y181.180 E52.88754
G1 X97.644 Y179.336 E52.97111
G1 X97.400 Y178.915 E52.98375
G1 X97.344 Y178.848 E52.98603
G1 X78.731 Y163.230 E53.61765
G1 X77.373 Y160.316 E53.70122
G1 X77.373 Y159.830 E53.71386
G1 X77.357 Y159.744 E53.71614
G1 X69.047 Y136.911 E54.34776
G1 X69.327 Y133.709 E54.43133
G1 X69.570 Y133.288 E54.44398
G1 X69.600 Y133.205 E54.44625
G1 X73.820 Y109.277 E55.07788
G1 X75.663 Y106.644 E55.16144
G1 X76.085 Y106.400 E55.17409
G1 X76.152 Y106.344 E55.17636
G1 X91.722 Y87.788 E55.80604
G1 X92.082 Y88.137 F7800.000
G1 X94.794 Y86.872 E55.88384 F1080.000
G1 X95.258 Y86.872 E55.89590
G1 X95.344 Y86.857 E55.89817
G1 X118.155 Y78.555 E56.52921
G1 X121.137 Y78.816 E56.60701
G1 X121.539 Y79.048 E56.61907 F1080.000
G1 X121.621 Y79.077 E56.62134
G1 X145.527 Y83.293 E57.25238
G1 X147.979 Y85.009 E57.33018
G1 X148.211 Y85.411 E57.34224
G1 X148.267 Y85.478 E57.34452
G1 X166.863 Y101.082 E57.97555
G1 X168.128 Y103.794 E58.05335
G1 X168.128 Y104.258 E58.06541
G1 X168.143 Y104.344 E58.06769
G1 X176.445 Y127.155 E58.69872
G1 X176.184 Y130.137 E58.77652
G1 X175.952 Y130.539 E58.78858
G1 X175.923 Y130.621 E58.79086
G1 X171.707 Y154.527 E59.42189
G1 X169.990 Y156.979 E59.49970
G1 X169.589 Y157.211 E59.51175
G1 X169.522 Y157.267 E59.51403
G1 X153.918 Y175.863 E60.14506
G1 X151.206 Y177.127 E60.22286
G1 X150.742 Y177.127 E60.23492
G1 X150.656 Y177.143 E60.23720
G1 X127.845 Y185.445 E60.86823
G1 X124.863 Y185.184 E60.94603
G1 X124.461 Y184.952 E60.95809
G1 X124.379 Y184.922 E60.96037
G1 X100.473 Y180.707 E61.59140
G1 X98.021 Y178.990 E61.66921
G1 X97.789 Y178.589 E61.68126
G1 X97.733 Y178.522 E61.68354
G1 X79.137 Y162.918 E62.31457
G1 X77.873 Y160.206 E62.39237
G1 X77.873 Y159.742 E62.40443
G1 X77.857 Y159.656 E62.40671
G1 X69.555 Y136.845 E63.03774
G1 X69.816 Y133.863 E63.11554
G1 X70.048 Y133.461 E63.12760
G1 X70.077 Y133.379 E63.12988
G1 X74.293 Y109.473 E63.76091
G1 X76.009 Y107.021 E63.83871
G1 X76.411 Y106.789 E63.85077
G1 X76.478 Y106.733 E63.85305
G1 X92.034 Y88.195 E64.48213
G1 X92.394 Y88.544 F7800.000
G1 X94.905 Y87.372 E64.55417 F1080.000
G1 X95.346 Y87.372 E64.56564
G1 X95.433 Y87.357 E64.56792
G1 X118.222 Y79.063 E65.19836
G1 X120.983 Y79.304 E65.27040 F1080.000
G1 X121.365 Y79.525 E65.28187
G1 X121.447 Y79.555 E65.28414
G1 X145.331 Y83.766 E65.91459
G1 X147.601 Y85.355 E65.98663
G1 X147.822 Y85.738 E65.99810
G1 X147.878 Y85.805 E66.00037
G1 X166.456 Y101.394 E66.63082
G1 X167.628 Y103.905 E66.70286
G1 X167.628 Y104.346 E66.71433
G1 X167.643 Y104.433 E66.71660
G1 X175.937 Y127.222 E67.34705
G1 X175.696 Y129.983 E67.41908
G1 X175.475 Y130.365 E67.43055
G1 X175.445 Y130.447 E67.43283
G1 X171.234 Y154.331 E68.06328
G1 X169.644 Y156.601 E68.13532
G1 X169.262 Y156.822 E68.14678
G1 X169.195 Y156.878 E68.14906
G1 X153.606 Y175.456 E68.77950
G1 X151.095 Y176.627 E68.85154
G1 X150.654 Y176.627 E68.86301
G1 X150.567 Y176.643 E68.86528
G1 X127.778 Y184.937 E69.49573
G1 X125.017 Y184.696 E69.56777
G1 X124.635 Y184.475 E69.57924
G1 X124.553 Y184.445 E69.58151
G1 X100.669 Y180.234 E70.21196
G1 X98.399 Y178.644 E70.28400
G1 X98.178 Y178.262 E70.29547
G1 X98.122 Y178.195 E70.29774
G1 X79.544 Y162.606 E70.92819
G1 X78.373 Y160.095 E71.00022
G1 X78.373 Y159.654 E71.01169
G1 X78.357 Y159.567 E71.01397
G1 X70.063 Y136.778 E71.64441
G1 X70.304 Y134.017 E71.71645
G1 X70.525 Y133.635 E71.72792
G1 X70.555 Y133.553 E71.73019
G1 X74.766 Y109.669 E72.36064
G1 X76.355 Y107.399 E72.43268
G1 X76.738 Y107.178 E72.44415
G1 X76.805 Y107.122 E72.44642
G1 X92.345 Y88.601 E73.07492
G1 X92.705 Y88.950 F7800.000
G1 X95.016 Y87.872 E73.14119 F1080.000
G1 X95.435 Y87.872 E73.15207
G1 X95.521 Y87.857 E73.15435
G1 X118.289 Y79.570 E73.78421
G1 X120.829 Y79.792 E73.85048
G1 X121.191 Y80.002 E73.86136 F1080.000
G1 X121.274 Y80.032 E73.86363
G1 X145.135 Y84.239 E74.49349
G1 X147.224 Y85.701 E74.55977
G1 X147.433 Y86.064 E74.57065
G1 X147.489 Y86.131 E74.57292
G1 X166.050 Y101.705 E75.20278
G1 X167.128 Y104.016 E75.26905
G1 X167.128 Y104.435 E75.27993
G1 X167.143 Y104.521 E75.28221
G1 X175.430 Y127.289 E75.91206
G1 X175.208 Y129.829 E75.97834
G1 X174.998 Y130.191 E75.98922
G1 X174.968 Y130.274 E75.99149
G1 X170.761 Y154.135 E76.62135
G1 X169.298 Y156.224 E76.68763
G1 X168.936 Y156.433 E76.69850
G1 X168.869 Y156.489 E76.70078
G1 X153.295 Y175.050 E77.33063
G1 X150.984 Y176.127 E77.39691
G1 X150.565 Y176.127 E77.40779
G1 X150.479 Y176.143 E77.41006
G1 X127.711 Y184.430 E78.03992
G1 X125.171 Y184.207 E78.10619
G1 X124.809 Y183.998 E78.11707
G1 X124.726 Y183.968 E78.11935
G1 X100.865 Y179.761 E78.74921
G1 X98.776 Y178.298 E78.81548
G1 X98.567 Y177.936 E78.82636
G1 X98.511 Y177.869 E78.82863
G1 X79.950 Y162.295 E79.45849
G1 X78.873 Y159.984 E79.52477
G1 X78.873 Y159.565 E79.53564
G1 X78.857 Y159.479 E79.53792
G1 X70.570 Y136.711 E80.16778
G1 X70.792 Y134.171 E80.23405
G1 X71.002 Y133.809 E80.24493
G1 X71.032 Y133.726 E80.24720
G1 X75.239 Y109.865 E80.87706
G1 X76.701 Y107.776 E80.94334
G1 X77.064 Y107.567 E80.95422
G1 X77.131 Y107.511 E80.95649
G1 X92.657 Y89.007 E81.58440
G1 X93.017 Y89.356 F7800.000
G1 X95.127 Y88.372 E81.64491 F1080.000
G1 X95.609 Y88.357 E81.65744
G1 X118.356 Y80.078 E82.28671
G1 X120.675 Y80.281 E82.34722 F1080.000
G1 X121.100 Y80.509 E82.35976
G1 X144.939 Y84.712 E82.98903
G1 X146.846 Y86.047 E83.04954
G1 X147.100 Y86.457 E83.06207
G1 X165.644 Y102.017 E83.69134
G1 X166.628 Y104.127 E83.75185
G1 X166.643 Y104.609 E83.76439
G1 X174.922 Y127.356 E84.39366
G1 X174.719 Y129.675 E84.45417
G1 X174.491 Y130.100 E84.46670
G1 X170.288 Y153.939 E85.09597
G1 X168.952 Y155.846 E85.15649
G1 X168.543 Y156.100 E85.16902
G1 X152.983 Y174.644 E85.79829
G1 X150.873 Y175.627 E85.85880
G1 X150.391 Y175.643 E85.87133
G1 X127.644 Y183.922 E86.50060
G1 X125.325 Y183.719 E86.56111
G1 X124.900 Y183.491 E86.57365
G1 X101.061 Y179.288 E87.20292
G1 X99.154 Y177.952 E87.26343
G1 X98.900 Y177.543 E87.27596
G1 X80.356 Y161.983 E87.90523
