; generated by Slic3r 1.1.7 on 2015-04-10 at 09:24:58

; perimeters extrusion width = 0.50mm
; infill extrusion width = 1.02mm
; solid infill extrusion width = 0.85mm
; top infill extrusion width = 0.43mm

G21 ; set units to millimeters
M107
M190 S60 ; wait for bed temperature to be reached
;--------------------------------------
G28 ; home all axes
G1 Z5 F500 ; lift nozzle
M109 S230 ; wait for extruder temp to be reached
M3001 ; Aktivate Z-Compensation 
; Move Z-axis n-steps up (see manual)
;M3004 S0 ; + n-steps bed down // - n-steps bed up! old Firmware Version <= 0.91.48
;M3006 S0 ; configure the static z-offset (units are [um])
G90 ; use absolute coordinates
M82 ; use absolute distances for extrusion
G92 E0 ; start line
G1 F300 E-0.5
G1 X230 Y22 Z0.35 F5000
G1 F800 E13
G1 X20 E25 F1000
; Acceleration up to...
; Acc printing
M201 X3000 Y3000 Z100
; Acc travel
M202 X3000 Y3000 Z100
; ZJERK 
M205 Z0.1
;--------------------------------------
G90 ; use absolute coordinates
G92 E0
M82 ; use absolute distances for extrusion
G1 F960.000 E-1.00000
G92 E0
G1 Z0.350 F7800.000
G1 X102.081 Y92.083 F7800.000
G1 E1.00000 F960.000
G1 X102.939 Y91.214 E1.03022 F1800.000
G1 X103.862 Y90.421 E1.06036
G1 X104.851 Y89.705 E1.09058
G1 X105.893 Y89.075 E1.12072
G1 X106.986 Y88.532 E1.15095
G1 X108.117 Y88.082 E1.18107
G1 X109.285 Y87.725 E1.21130
G1 X110.669 Y87.435 E1.24632
G1 X111.875 Y87.293 E1.27639
G1 X112.950 Y87.250 E1.30303
G1 X133.149 Y87.252 E1.80310
G1 X134.319 Y87.309 E1.83211 F1800.000
G1 X135.332 Y87.435 E1.85736
G1 X136.526 Y87.678 E1.88754
G1 X137.696 Y88.017 E1.91771
G1 X138.835 Y88.453 E1.94788
G1 X139.934 Y88.981 E1.97808
G1 X140.985 Y89.598 E2.00825
G1 X142.138 Y90.421 E2.04332
G1 X143.061 Y91.214 E2.07346
G1 X143.919 Y92.083 E2.10368
G1 X144.700 Y93.017 E2.13383
G1 X145.295 Y93.851 E2.15919
G1 X145.925 Y94.892 E2.18932
G1 X146.468 Y95.986 E2.21954
G1 X146.919 Y97.117 E2.24969
G1 X147.322 Y98.474 E2.28474
G1 X147.565 Y99.669 E2.31492
G1 X147.691 Y100.680 E2.34016
G1 X147.748 Y101.851 E2.36917
G1 X147.750 Y164.445 E3.91884
G1 X147.027 Y166.191 E3.96562
G1 X137.191 Y176.027 E4.31001
G1 X135.445 Y176.750 E4.35679
G1 X110.555 Y176.750 E4.97300
G1 X108.809 Y176.027 E5.01978
G1 X98.973 Y166.191 E5.36417
G1 X98.250 Y164.445 E5.41095
G1 X98.250 Y101.950 E6.95816
G1 X98.293 Y100.875 E6.98480
G1 X98.435 Y99.669 E7.01487
G1 X98.678 Y98.474 E7.04506
G1 X99.017 Y97.303 E7.07523
G1 X99.453 Y96.165 E7.10541
G1 X99.981 Y95.066 E7.13560
G1 X100.598 Y94.015 E7.16577
G1 X101.300 Y93.018 E7.19597
G1 X102.033 Y92.140 E7.22426
G1 X102.456 Y92.414 F7800.000
G1 X103.285 Y91.575 E7.25346 F1800.000
G1 X104.177 Y90.809 E7.28257
G1 X105.133 Y90.118 E7.31178
G1 X106.140 Y89.510 E7.34089
G1 X107.196 Y88.985 E7.37009
G1 X108.289 Y88.551 E7.39920
G1 X109.417 Y88.208 E7.42841
G1 X110.741 Y87.930 E7.46188
G1 X111.906 Y87.792 E7.49094
G1 X112.956 Y87.750 E7.51694
G1 X133.044 Y87.750 E8.01429
G1 X134.268 Y87.806 E8.04461 F1800.000
G1 X135.433 Y87.959 E8.07371
G1 X136.583 Y88.208 E8.10282
G1 X137.544 Y88.494 E8.12765
G1 X138.643 Y88.915 E8.15680
G1 X139.705 Y89.426 E8.18598
G1 X140.720 Y90.022 E8.21512
G1 X141.822 Y90.809 E8.24865
G1 X142.715 Y91.575 E8.27777
G1 X143.544 Y92.414 E8.30697
G1 X144.299 Y93.316 E8.33609
G1 X144.882 Y94.133 E8.36094
G1 X145.490 Y95.139 E8.39005
G1 X146.015 Y96.196 E8.41925
G1 X146.449 Y97.289 E8.44837
G1 X146.835 Y98.587 E8.48189
G1 X147.070 Y99.741 E8.51104
G1 X147.193 Y100.732 E8.53577
G1 X147.248 Y101.866 E8.56389
G1 X147.250 Y164.345 E10.11071
G1 X146.603 Y165.907 E10.15257
G1 X136.907 Y175.603 E10.49203
G1 X135.345 Y176.250 E10.53389
G1 X110.655 Y176.250 E11.14517
G1 X109.093 Y175.603 E11.18703
G1 X99.397 Y165.907 E11.52650
G1 X98.750 Y164.345 E11.56835
G1 X98.750 Y101.956 E13.11297
G1 X98.792 Y100.906 E13.13897
G1 X98.930 Y99.741 E13.16802
G1 X99.165 Y98.587 E13.19718
G1 X99.494 Y97.456 E13.22634
G1 X99.915 Y96.356 E13.25548
G1 X100.426 Y95.295 E13.28466
G1 X101.022 Y94.280 E13.31380
G1 X101.701 Y93.316 E13.34298
G1 X102.408 Y92.471 E13.37025
G1 X102.831 Y92.745 F7800.000
G1 X103.631 Y91.936 E13.39842 F1800.000
G1 X104.493 Y91.198 E13.42651
G1 X105.415 Y90.531 E13.45469
G1 X106.387 Y89.945 E13.48278
G1 X107.406 Y89.439 E13.51096
G1 X108.461 Y89.021 E13.53905
G1 X109.550 Y88.690 E13.56723
G1 X110.813 Y88.425 E13.59917
G1 X111.937 Y88.291 E13.62721
G1 X112.961 Y88.250 E13.65257
G1 X133.118 Y88.252 E14.15160
G1 X134.216 Y88.304 E14.17883 F1800.000
G1 X135.187 Y88.425 E14.20306
G1 X136.300 Y88.652 E14.23118
G1 X137.391 Y88.970 E14.25932
G1 X138.452 Y89.377 E14.28744
G1 X139.476 Y89.871 E14.31559
G1 X140.455 Y90.447 E14.34371
G1 X141.507 Y91.198 E14.37571
G1 X142.369 Y91.936 E14.40380
G1 X143.169 Y92.745 E14.43198
G1 X143.898 Y93.615 E14.46008
G1 X144.469 Y94.415 E14.48442
G1 X145.055 Y95.387 E14.51250
G1 X145.561 Y96.406 E14.54068
G1 X145.980 Y97.461 E14.56878
G1 X146.348 Y98.700 E14.60077
G1 X146.575 Y99.813 E14.62889
G1 X146.696 Y100.783 E14.65311
G1 X146.748 Y101.882 E14.68034
G1 X146.750 Y164.246 E16.22431
G1 X146.179 Y165.624 E16.26124
G1 X136.624 Y175.179 E16.59578
G1 X135.246 Y175.750 E16.63272
G1 X110.754 Y175.750 E17.23907
G1 X109.376 Y175.179 E17.27601
G1 X99.821 Y165.624 E17.61054
G1 X99.250 Y164.246 E17.64748
G1 X99.250 Y101.961 E19.18950
G1 X99.291 Y100.937 E19.21486
G1 X99.425 Y99.813 E19.24289
G1 X99.652 Y98.699 E19.27102
G1 X99.970 Y97.608 E19.29916
G1 X100.377 Y96.548 E19.32728
G1 X100.871 Y95.523 E19.35544
G1 X101.447 Y94.545 E19.38355
G1 X102.102 Y93.615 E19.41171
G1 X102.782 Y92.802 E19.43796
G1 X103.206 Y93.076 F7800.000
G1 X103.977 Y92.297 E19.46511 F1800.000
G1 X104.808 Y91.586 E19.49218
G1 X105.697 Y90.944 E19.51933
G1 X106.634 Y90.379 E19.54640
G1 X107.617 Y89.893 E19.57355
G1 X108.633 Y89.490 E19.60062
G1 X109.683 Y89.172 E19.62777
G1 X110.885 Y88.920 E19.65818
G1 X111.968 Y88.790 E19.68520
G1 X112.966 Y88.750 E19.70992
G1 X133.034 Y88.750 E20.20675
G1 X134.165 Y88.801 E20.23477 F1800.000
G1 X135.248 Y88.942 E20.26182
G1 X136.317 Y89.172 E20.28889
G1 X137.239 Y89.446 E20.31270
G1 X138.260 Y89.839 E20.33980
G1 X139.248 Y90.315 E20.36693
G1 X140.190 Y90.871 E20.39402
G1 X141.086 Y91.503 E20.42116
G1 X142.023 Y92.297 E20.45156
G1 X142.794 Y93.076 E20.47871
G1 X143.497 Y93.914 E20.50579
G1 X144.056 Y94.698 E20.52961
G1 X144.620 Y95.634 E20.55668
G1 X145.107 Y96.617 E20.58383
G1 X145.510 Y97.633 E20.61091
G1 X145.861 Y98.812 E20.64136
G1 X146.080 Y99.885 E20.66846
G1 X146.199 Y100.835 E20.69217
G1 X146.249 Y101.898 E20.71851
G1 X146.250 Y164.146 E22.25963
G1 X145.755 Y165.341 E22.29164
G1 X136.341 Y174.755 E22.62125
G1 X135.146 Y175.250 E22.65326
G1 X110.854 Y175.250 E23.25469
G1 X109.659 Y174.755 E23.28670
G1 X100.245 Y165.341 E23.61631
G1 X99.750 Y164.146 E23.64832
G1 X99.750 Y101.966 E25.18775
G1 X99.790 Y100.968 E25.21247
G1 X99.920 Y99.885 E25.23949
G1 X100.139 Y98.812 E25.26659
G1 X100.446 Y97.761 E25.29371
G1 X100.839 Y96.739 E25.32081
G1 X101.315 Y95.752 E25.34794
G1 X101.871 Y94.809 E25.37503
G1 X102.503 Y93.914 E25.40216
G1 X103.157 Y93.133 E25.42739
G1 X103.581 Y93.407 F7800.000
G1 X104.324 Y92.658 E25.45351 F1800.000
G1 X105.123 Y91.974 E25.47956
G1 X105.980 Y91.357 E25.50569
G1 X106.881 Y90.814 E25.53174
G1 X107.827 Y90.347 E25.55787
G1 X108.805 Y89.960 E25.58391
G1 X109.816 Y89.654 E25.61004
G1 X110.957 Y89.415 E25.63892
G1 X112.000 Y89.289 E25.66491
G1 X112.971 Y89.250 E25.68899
G1 X133.086 Y89.251 E26.18698
G1 X134.113 Y89.299 E26.21243 F1800.000
G1 X135.043 Y89.415 E26.23564
G1 X136.075 Y89.626 E26.26171
G1 X137.086 Y89.923 E26.28781
G1 X138.069 Y90.301 E26.31388
G1 X139.019 Y90.760 E26.33999
G1 X139.926 Y91.295 E26.36606
G1 X140.787 Y91.904 E26.39217
G1 X141.676 Y92.658 E26.42104
G1 X142.419 Y93.407 E26.44717
G1 X143.096 Y94.213 E26.47322
G1 X143.643 Y94.980 E26.49653
G1 X144.186 Y95.881 E26.52258
G1 X144.653 Y96.827 E26.54871
G1 X145.077 Y97.914 E26.57758
G1 X145.374 Y98.925 E26.60368
G1 X145.585 Y99.957 E26.62976
G1 X145.701 Y100.887 E26.65295
G1 X145.749 Y101.914 E26.67840
G1 X145.750 Y164.047 E28.21667
G1 X145.331 Y165.058 E28.24375
G1 X136.058 Y174.331 E28.56844
G1 X135.047 Y174.750 E28.59553
G1 X110.953 Y174.750 E29.19203
G1 X109.942 Y174.331 E29.21912
G1 X100.669 Y165.058 E29.54381
G1 X100.250 Y164.047 E29.57089
G1 X100.250 Y101.971 E31.10773
G1 X100.289 Y101.000 E31.13180
G1 X100.415 Y99.957 E31.15780
G1 X100.626 Y98.925 E31.18388
G1 X100.923 Y97.913 E31.20998
G1 X101.301 Y96.931 E31.23605
G1 X101.760 Y95.981 E31.26216
G1 X102.295 Y95.074 E31.28823
G1 X102.904 Y94.213 E31.31434
G1 X103.532 Y93.464 E31.33854
G1 X103.955 Y93.738 F7800.000
G1 X104.670 Y93.018 E31.36364 F1800.000
G1 X105.439 Y92.362 E31.38867
G1 X106.262 Y91.770 E31.41377
G1 X107.128 Y91.249 E31.43880
G1 X108.037 Y90.800 E31.46390
G1 X108.978 Y90.429 E31.48893
G1 X109.948 Y90.136 E31.51403
G1 X111.029 Y89.909 E31.54137
G1 X112.031 Y89.789 E31.56635
G1 X112.977 Y89.750 E31.58979
G1 X133.024 Y89.750 E32.08610
G1 X134.061 Y89.796 E32.11182 F1800.000
G1 X135.063 Y89.925 E32.13682
G1 X136.052 Y90.136 E32.16185
G1 X136.934 Y90.399 E32.18464
G1 X137.878 Y90.763 E32.20968
G1 X138.790 Y91.205 E32.23477
G1 X139.661 Y91.719 E32.25982
G1 X140.488 Y92.305 E32.28491
G1 X141.330 Y93.018 E32.31224
G1 X142.045 Y93.738 E32.33734
G1 X142.695 Y94.512 E32.36237
G1 X143.230 Y95.262 E32.38518
G1 X143.751 Y96.128 E32.41020
G1 X144.200 Y97.037 E32.43530
G1 X144.601 Y98.066 E32.46264
G1 X144.886 Y99.038 E32.48772
G1 X145.090 Y100.029 E32.51277
G1 X145.204 Y100.938 E32.53546
G1 X145.249 Y101.929 E32.56002
G1 X145.250 Y163.948 E34.09543
G1 X144.907 Y164.775 E34.11759
G1 X135.775 Y173.907 E34.43736
G1 X134.948 Y174.250 E34.45952
G1 X111.052 Y174.250 E35.05110
G1 X110.225 Y173.907 E35.07326
G1 X101.093 Y164.775 E35.39302
G1 X100.750 Y163.948 E35.41518
G1 X100.750 Y101.976 E36.94943
G1 X100.789 Y101.031 E36.97286
G1 X100.909 Y100.029 E36.99784
G1 X101.114 Y99.038 E37.02290
G1 X101.399 Y98.066 E37.04797
G1 X101.763 Y97.122 E37.07302
G1 X102.205 Y96.210 E37.09811
G1 X102.719 Y95.339 E37.12315
G1 X103.305 Y94.512 E37.14824
G1 X103.907 Y93.795 E37.17141
G1 X104.330 Y94.069 F7800.000
G1 X105.016 Y93.379 E37.19550 F1800.000
G1 X105.754 Y92.750 E37.21950
G1 X106.544 Y92.183 E37.24358
G1 X107.375 Y91.684 E37.26758
G1 X108.248 Y91.254 E37.29166
G1 X109.150 Y90.899 E37.31567
G1 X110.081 Y90.619 E37.33974
G1 X111.101 Y90.404 E37.36555
G1 X112.062 Y90.288 E37.38951
G1 X112.982 Y90.250 E37.41230
G1 X133.055 Y90.251 E37.90926
G1 X134.010 Y90.294 E37.93293 F1800.000
G1 X134.899 Y90.404 E37.95511
G1 X135.849 Y90.601 E37.97914
G1 X136.781 Y90.875 E38.00319
G1 X137.686 Y91.225 E38.02721
G1 X138.561 Y91.649 E38.05128
G1 X139.396 Y92.143 E38.07530
G1 X140.189 Y92.706 E38.09937
G1 X140.984 Y93.379 E38.12516
G1 X141.670 Y94.069 E38.14925
G1 X142.294 Y94.811 E38.17325
G1 X142.817 Y95.544 E38.19554
G1 X143.316 Y96.375 E38.21954
G1 X143.746 Y97.248 E38.24362
G1 X144.125 Y98.219 E38.26943
G1 X144.399 Y99.151 E38.29349
G1 X144.596 Y100.101 E38.31751
G1 X144.706 Y100.990 E38.33969
G1 X144.749 Y101.945 E38.36335
G1 X144.750 Y163.848 E39.89592
G1 X144.484 Y164.491 E39.91315
G1 X135.491 Y173.484 E40.22799
G1 X134.848 Y173.750 E40.24523
G1 X111.152 Y173.750 E40.83189
G1 X110.509 Y173.484 E40.84912
G1 X101.516 Y164.491 E41.16396
G1 X101.250 Y163.848 E41.18120
G1 X101.250 Y101.982 E42.71285
G1 X101.288 Y101.062 E42.73564
G1 X101.404 Y100.101 E42.75960
G1 X101.601 Y99.151 E42.78363
G1 X101.875 Y98.219 E42.80769
G1 X102.225 Y97.314 E42.83171
G1 X102.649 Y96.439 E42.85578
G1 X103.143 Y95.604 E42.87979
G1 X103.706 Y94.811 E42.90386
G1 X104.282 Y94.126 E42.92601
G1 X104.705 Y94.400 F7800.000
G1 X105.362 Y93.740 E42.94907 F1800.000
G1 X106.069 Y93.139 E42.97205
G1 X106.826 Y92.596 E42.99511
G1 X107.622 Y92.119 E43.01809
G1 X108.458 Y91.708 E43.04115
G1 X109.322 Y91.368 E43.06413
G1 X110.214 Y91.101 E43.08718
G1 X111.173 Y90.899 E43.11146
G1 X112.093 Y90.787 E43.13439
G1 X112.987 Y90.750 E43.15654
G1 X133.013 Y90.750 E43.65234
G1 X133.958 Y90.791 E43.67576 F1800.000
G1 X134.878 Y90.908 E43.69871
G1 X135.786 Y91.101 E43.72170
G1 X136.629 Y91.351 E43.74347
G1 X137.495 Y91.687 E43.76646
G1 X138.332 Y92.094 E43.78951
G1 X139.131 Y92.568 E43.81250
G1 X139.890 Y93.107 E43.83555
G1 X140.638 Y93.740 E43.85981
G1 X141.295 Y94.400 E43.88287
G1 X141.893 Y95.110 E43.90585
G1 X142.404 Y95.826 E43.92763
G1 X142.881 Y96.622 E43.95061
G1 X143.292 Y97.458 E43.97367
G1 X143.649 Y98.371 E43.99794
G1 X143.912 Y99.264 E44.02097
G1 X144.101 Y100.173 E44.04398
G1 X144.209 Y101.042 E44.06564
G1 X144.249 Y101.961 E44.08842
G1 X144.250 Y163.749 E45.61813
G1 X144.060 Y164.208 E45.63044
G1 X135.208 Y173.060 E45.94035
G1 X134.749 Y173.250 E45.95267
G1 X111.251 Y173.250 E46.53440
G1 X110.792 Y173.060 E46.54671
G1 X101.940 Y164.208 E46.85662
G1 X101.750 Y163.749 E46.86894
G1 X101.750 Y101.987 E48.39800
G1 X101.787 Y101.093 E48.42015
G1 X101.899 Y100.173 E48.44309
G1 X102.088 Y99.264 E48.46609
G1 X102.351 Y98.371 E48.48913
G1 X102.687 Y97.505 E48.51212
G1 X103.094 Y96.668 E48.53517
G1 X103.568 Y95.869 E48.55816
G1 X104.107 Y95.110 E48.58121
G1 X104.657 Y94.457 E48.60234
G1 X105.080 Y94.731 F7800.000
G1 X105.709 Y94.101 E48.62437 F1800.000
G1 X106.384 Y93.527 E48.64633
G1 X107.108 Y93.009 E48.66836
G1 X107.869 Y92.553 E48.69032
G1 X108.668 Y92.162 E48.71235
G1 X109.494 Y91.838 E48.73432
G1 X110.346 Y91.583 E48.75634
G1 X111.245 Y91.394 E48.77908
G1 X112.124 Y91.286 E48.80100
G1 X112.992 Y91.250 E48.82251
G1 X133.024 Y91.250 E49.31843
G1 X133.907 Y91.289 E49.34032 F1800.000
G1 X134.755 Y91.394 E49.36147
G1 X135.624 Y91.575 E49.38345
G1 X136.476 Y91.828 E49.40547
G1 X137.332 Y92.162 E49.42820
G1 X138.131 Y92.553 E49.45024
G1 X138.892 Y93.009 E49.47219
G1 X139.591 Y93.508 E49.49346
G1 X140.269 Y94.080 E49.51542
G1 X140.899 Y94.709 E49.53745
G1 X141.492 Y95.409 E49.56018
G1 X142.008 Y96.134 E49.58221
G1 X142.461 Y96.897 E49.60417
G1 X142.851 Y97.696 E49.62620
G1 X143.172 Y98.524 E49.64817
G1 X143.417 Y99.346 E49.66942
G1 X143.601 Y100.215 E49.69139
G1 X143.711 Y101.093 E49.71332
G1 X143.750 Y101.992 E49.73559
G1 X143.750 Y163.649 E51.26206
G1 X143.636 Y163.925 E51.26945
G1 X134.925 Y172.636 E51.57444
G1 X134.649 Y172.750 E51.58183
G1 X111.351 Y172.750 E52.15863
G1 X111.075 Y172.636 E52.16602
G1 X102.364 Y163.925 E52.47101
G1 X102.250 Y163.649 E52.47840
G1 X102.250 Y101.976 E54.00526
G1 X102.289 Y101.093 E54.02714
G1 X102.399 Y100.215 E54.04907
G1 X102.583 Y99.346 E54.07104
G1 X102.838 Y98.494 E54.09306
G1 X103.162 Y97.668 E54.11503
G1 X103.553 Y96.869 E54.13706
G1 X104.009 Y96.108 E54.15902
G1 X104.508 Y95.409 E54.18028
G1 X105.032 Y94.789 E54.20038
G1 X105.455 Y95.062 F7800.000
G1 X106.055 Y94.462 E54.22140 F1800.000
G1 X106.700 Y93.915 E54.24233
G1 X107.390 Y93.422 E54.26334
G1 X108.125 Y92.983 E54.28453
G1 X108.888 Y92.611 E54.30554
G1 X109.676 Y92.304 E54.32648
G1 X110.479 Y92.065 E54.34722
G1 X111.307 Y91.891 E54.36818
G1 X112.145 Y91.786 E54.38908
G1 X112.997 Y91.750 E54.41020
G1 X133.003 Y91.750 E54.90548
G1 X133.855 Y91.786 E54.92660 F1800.000
G1 X134.693 Y91.891 E54.94750
G1 X135.521 Y92.065 E54.96845
G1 X136.324 Y92.304 E54.98919
G1 X137.112 Y92.611 E55.01014
G1 X137.875 Y92.983 E55.03114
G1 X138.610 Y93.422 E55.05234
G1 X139.300 Y93.915 E55.07335
G1 X139.938 Y94.455 E55.09402
G1 X140.522 Y95.038 E55.11446
G1 X141.085 Y95.700 E55.13597
G1 X141.578 Y96.390 E55.15698
G1 X142.017 Y97.125 E55.17817
G1 X142.389 Y97.888 E55.19918
G1 X142.696 Y98.676 E55.22012
G1 X142.935 Y99.479 E55.24086
G1 X143.109 Y100.307 E55.26182
G1 X143.214 Y101.145 E55.28272
G1 X143.250 Y101.997 E55.30384
