; generated by Slic3r 1.1.7 on 2015-04-10 at 09:25:17

; perimeters extrusion width = 0.50mm
; infill extrusion width = 1.02mm
; solid infill extrusion width = 0.85mm
; top infill extrusion width = 0.43mm

G21 ; set units to millimeters
M107
M190 S60 ; wait for bed temperature to be reached
;--------------------------------------
G28 ; home all axes
G1 Z5 F500 ; lift nozzle
M109 S230 ; wait for extruder temp to be reached
M3001 ; Aktivate Z-Compensation 
; Move Z-axis n-steps up (see manual)
;M3004 S0 ; + n-steps bed down // - n-steps bed up! old Firmware Version <= 0.91.48
;M3006 S0 ; configure the static z-offset (units are [um])
G90 ; use absolute coordinates
M82 ; use absolute distances for extrusion
G92 E0 ; start line
G1 F300 E-0.5
G1 X230 Y22 Z0.35 F5000
G1 F800 E13
G1 X20 E25 F1000
; Acceleration up to...
; Acc printing
M201 X3000 Y3000 Z100
; Acc travel
M202 X3000 Y3000 Z100
; ZJERK 
M205 Z0.1
;--------------------------------------
G90 ; use absolute coordinates
G92 E0
M82 ; use absolute distances for extrusion
G1 F960.000 E-1.00000
G92 E0
G1 Z0.350 F7800.000
G1 X111.032 Y117.250 F7800.000
G1 E1.00000 F960.000
G1 X134.968 Y117.250 E1.59257 F1800.000
G1 X137.750 Y120.032 E1.68999
G1 X137.750 Y143.968 E2.28256 F1800.000
G1 X134.968 Y146.750 E2.37998
G1 X111.032 Y146.750 E2.97255
G1 X108.250 Y143.968 E3.06997
G1 X108.250 Y120.032 E3.66254
G1 X110.979 Y117.303 E3.75811
G1 X111.240 Y117.750 F7800.000
G1 X134.760 Y117.750 E4.34042 F1800.000
G1 X137.250 Y120.240 E4.42759 F1800.000
G1 X137.250 Y143.760 E5.00990
G1 X134.760 Y146.250 E5.09707
G1 X111.240 Y146.250 E5.67939
G1 X108.750 Y143.760 E5.76655
G1 X108.750 Y120.240 E6.34887
G1 X111.187 Y117.803 E6.43418
G1 X111.447 Y118.250 F7800.000
G1 X134.553 Y118.250 E7.00624 F1800.000
G1 X136.750 Y120.447 E7.08315
G1 X136.750 Y143.553 E7.65521 F1800.000
G1 X134.553 Y145.750 E7.73212
G1 X111.447 Y145.750 E8.30418
G1 X109.250 Y143.553 E8.38109
G1 X109.250 Y120.447 E8.95315
G1 X111.394 Y118.303 E9.02821
G1 X111.654 Y118.750 F7800.000
G1 X134.346 Y118.750 E9.59001 F1800.000
G1 X136.250 Y120.654 E9.65667 F1800.000
G1 X136.250 Y143.346 E10.21847
G1 X134.346 Y145.250 E10.28513
G1 X111.654 Y145.250 E10.84694
G1 X109.750 Y143.346 E10.91359
G1 X109.750 Y120.654 E11.47540
G1 X111.601 Y118.803 E11.54020
G1 X111.861 Y119.250 F7800.000
G1 X134.139 Y119.250 E12.09175 F1800.000
G1 X135.750 Y120.861 E12.14815
G1 X135.750 Y143.139 E12.69970 F1800.000
G1 X134.139 Y144.750 E12.75610
G1 X111.861 Y144.750 E13.30765
G1 X110.250 Y143.139 E13.36405
G1 X110.250 Y120.861 E13.91560
G1 X111.808 Y119.303 E13.97015
G1 X112.068 Y119.750 F7800.000
G1 X133.932 Y119.750 E14.51145 F1800.000
G1 X135.250 Y121.068 E14.55759 F1800.000
G1 X135.250 Y142.932 E15.09889
G1 X133.932 Y144.250 E15.14503
G1 X112.068 Y144.250 E15.68633
G1 X110.750 Y142.932 E15.73248
G1 X110.750 Y121.068 E16.27377
G1 X112.015 Y119.803 E16.31806
G1 X112.275 Y120.250 F7800.000
G1 X133.725 Y120.250 E16.84910 F1800.000
G1 X134.750 Y121.275 E16.88500
G1 X134.750 Y142.725 E17.41604 F1800.000
G1 X133.725 Y143.750 E17.45193
G1 X112.275 Y143.750 E17.98297
G1 X111.250 Y142.725 E18.01886
G1 X111.250 Y121.275 E18.54990
G1 X112.222 Y120.303 E18.58394
G1 X112.482 Y120.750 F7800.000
G1 X133.518 Y120.750 E19.10472 F1800.000
G1 X134.250 Y121.482 E19.13036 F1800.000
G1 X134.250 Y142.518 E19.65115
G1 X133.518 Y143.250 E19.67678
G1 X112.482 Y143.250 E20.19757
G1 X111.750 Y142.518 E20.22321
G1 X111.750 Y121.482 E20.74399
G1 X112.429 Y120.803 E20.76777
G1 X112.689 Y121.250 F7800.000
G1 X133.311 Y121.250 E21.27830 F1800.000
G1 X133.750 Y121.689 E21.29369
G1 X133.750 Y142.311 E21.80422 F1800.000
G1 X133.311 Y142.750 E21.81960
G1 X112.689 Y142.750 E22.33013
G1 X112.250 Y142.311 E22.34551
G1 X112.250 Y121.689 E22.85604
G1 X112.636 Y121.303 E22.86957
G1 X112.896 Y121.750 F7800.000
G1 X133.104 Y121.750 E23.36984 F1800.000
G1 X133.250 Y121.896 E23.37497
G1 X133.250 Y142.104 E23.87525
G1 X133.104 Y142.250 E23.88038
G1 X112.896 Y142.250 E24.38065
G1 X112.750 Y142.104 E24.38578
G1 X112.750 Y121.896 E24.88606
G1 X112.843 Y121.803 E24.88933
G1 F960.000 E23.88933
G92 E0
G1 X132.750 Y141.750 F7800.000
G1 E1.00000 F960.000
G1 X113.250 Y141.750 E1.48277 F1260.000
G1 X113.250 Y122.250 E1.96554
G1 X132.750 Y122.250 E2.44831
G1 X132.750 Y141.675 E2.92922
G1 X132.317 Y141.500 F7800.000
G1 X132.250 Y141.250 F7800.000
G1 X113.750 Y141.250 E3.38724 F1800.000
G1 X113.750 Y122.750 E3.84525
G1 X132.250 Y122.750 E4.30326
G1 X132.250 Y141.175 E4.75942
G1 X126.699 Y135.699 F7800.000
G1 X126.375 Y136.022 E4.77075 F1260.000
G1 X125.625 Y136.547 E4.79341
G1 X124.796 Y136.934 E4.81607
G1 X123.912 Y137.171 E4.83873
G1 X123.000 Y137.251 E4.86139
G1 X122.088 Y137.171 E4.88405
G1 X121.204 Y136.934 E4.90671
G1 X120.350 Y136.531 E4.93009
G1 X119.625 Y136.022 E4.95202
G1 X118.978 Y135.375 E4.97468
G1 X118.453 Y134.625 E4.99734
G1 X118.066 Y133.796 E5.02000
G1 X117.829 Y132.912 E5.04266
G1 X117.749 Y132.000 E5.06532
G1 X117.836 Y131.060 E5.08870
G1 X118.066 Y130.204 E5.11063
G1 X118.453 Y129.375 E5.13329
G1 X118.998 Y128.604 E5.15667
G1 X119.625 Y127.978 E5.17860
G1 X120.375 Y127.453 E5.20126
G1 X121.204 Y127.066 E5.22393
G1 X122.118 Y126.826 E5.24731
G1 X123.000 Y126.749 E5.26924 F1260.000
G1 X123.912 Y126.829 E5.29190
G1 X124.796 Y127.066 E5.31456
G1 X125.625 Y127.453 E5.33722
G1 X126.375 Y127.978 E5.35988
G1 X127.022 Y128.625 E5.38254
G1 X127.547 Y129.375 E5.40520
G1 X127.934 Y130.204 E5.42786
G1 X128.171 Y131.088 E5.45052
G1 X128.251 Y132.000 E5.47318
G1 X128.171 Y132.912 E5.49584
G1 X127.934 Y133.796 E5.51850
G1 X127.547 Y134.625 E5.54116
G1 X127.022 Y135.375 E5.56382
G1 X126.752 Y135.646 E5.57330
G1 F960.000 E4.57330
G92 E0
G1 X122.003 Y126.340 F7800.000
G1 X127.052 Y136.052 F7800.000
G1 E1.00000 F960.000
G1 X126.698 Y136.407 E1.01242 F1800.000
G1 X125.876 Y136.982 E1.03724
G1 X124.968 Y137.406 E1.06207
G1 X123.999 Y137.665 E1.08689
G1 X123.000 Y137.753 E1.11172
G1 X122.001 Y137.665 E1.13655
G1 X121.032 Y137.406 E1.16137
G1 X120.124 Y136.982 E1.18620
G1 X119.302 Y136.407 E1.21103
G1 X118.593 Y135.698 E1.23585
G1 X118.018 Y134.876 E1.26068
G1 X117.594 Y133.968 E1.28550
G1 X117.335 Y132.999 E1.31033
G1 X117.247 Y132.000 E1.33516
G1 X117.335 Y131.001 E1.35998
G1 X117.594 Y130.032 E1.38481
G1 X118.018 Y129.124 E1.40964
G1 X118.593 Y128.302 E1.43446
G1 X119.362 Y127.551 E1.46108
G1 X120.124 Y127.018 E1.48409
G1 X121.032 Y126.594 E1.50892
G1 X122.001 Y126.335 E1.53375
G1 X123.073 Y126.254 E1.56036
G1 X123.999 Y126.335 E1.58337 F1800.000
G1 X124.968 Y126.594 E1.60820
G1 X125.876 Y127.018 E1.63303
G1 X126.698 Y127.593 E1.65785
G1 X127.449 Y128.362 E1.68447
G1 X127.982 Y129.124 E1.70748
G1 X128.406 Y130.032 E1.73231
G1 X128.665 Y131.001 E1.75713
G1 X128.753 Y132.000 E1.78196
G1 X128.665 Y132.999 E1.80679
G1 X128.406 Y133.968 E1.83161
G1 X127.982 Y134.876 E1.85644
G1 X127.407 Y135.698 E1.88127
G1 X127.105 Y135.999 E1.89182
G1 X128.951 Y130.691 F7800.000
G1 X131.894 Y133.633 E2.00742 F1800.000
G1 X131.894 Y134.440 E2.02983
G1 X129.078 Y131.624 E2.14046
G1 X129.073 Y132.426 E2.16275
G1 X131.894 Y135.247 E2.27356
G1 X131.894 Y136.054 E2.29597
G1 X128.993 Y133.153 E2.40992
G1 X128.823 Y133.789 E2.42821
G1 X131.894 Y136.860 E2.54886
G1 X131.894 Y137.667 E2.57127
G1 X128.607 Y134.380 E2.70040
G1 X128.350 Y134.930 E2.71726
G1 X131.894 Y138.474 E2.85647
G1 X131.894 Y139.280 E2.87888
G1 X128.035 Y135.422 E3.03046
G1 X127.703 Y135.896 E3.04655
G1 X131.894 Y140.087 E3.21119
G1 X131.874 Y140.874 E3.23305
G1 X127.304 Y136.304 E3.41255
G1 X126.896 Y136.703 E3.42840
G1 X131.087 Y140.894 E3.59303
G1 X130.280 Y140.894 E3.61544
G1 X126.422 Y137.035 E3.76702
G1 X125.930 Y137.350 E3.78324
G1 X129.474 Y140.894 E3.92245
G1 X128.667 Y140.894 E3.94486
G1 X125.380 Y137.607 E4.07399
G1 X124.789 Y137.823 E4.09146
G1 X127.860 Y140.894 E4.21211
G1 X127.054 Y140.894 E4.23452
G1 X124.153 Y137.993 E4.34848
G1 X123.426 Y138.073 E4.36878
G1 X126.247 Y140.894 E4.47959
G1 X125.440 Y140.894 E4.50199
G1 X122.624 Y138.078 E4.61263
G1 X121.691 Y137.951 E4.63879
G1 X124.633 Y140.894 E4.75439
G1 X123.827 Y140.894 E4.77679
G1 X120.458 Y137.525 E4.90914
G1 X117.464 Y134.531 F7800.000
G1 X114.106 Y131.173 E5.04103 F1800.000
G1 X114.106 Y130.367 E5.06344
G1 X117.049 Y133.309 E5.17904
G1 X116.922 Y132.376 E5.20520
G1 X114.106 Y129.560 E5.31583
G1 X114.106 Y128.753 E5.33824
G1 X116.931 Y131.578 E5.44921
G1 X117.007 Y130.847 E5.46962
G1 X114.106 Y127.946 E5.58358
G1 X114.106 Y127.140 E5.60598
G1 X117.177 Y130.211 E5.72663
G1 X117.393 Y129.620 E5.74411
G1 X114.106 Y126.333 E5.87324
G1 X114.106 Y125.526 E5.89565
G1 X117.650 Y129.070 E6.03485
G1 X117.965 Y128.578 E6.05107
G1 X114.106 Y124.720 E6.20266
G1 X114.106 Y123.913 E6.22506
G1 X118.297 Y128.104 E6.38970
G1 X118.696 Y127.696 E6.40554
G1 X114.126 Y123.126 E6.58505
G1 X114.913 Y123.106 E6.60691
G1 X119.104 Y127.297 E6.77154
G1 X119.578 Y126.965 E6.78763
G1 X115.720 Y123.106 E6.93922
G1 X116.526 Y123.106 E6.96162
G1 X120.070 Y126.650 E7.10083
G1 X120.620 Y126.393 E7.11769
G1 X117.333 Y123.106 E7.24682
G1 X118.140 Y123.106 E7.26923
G1 X121.214 Y126.180 E7.38999
G1 X121.856 Y126.016 E7.40841
G1 X118.946 Y123.106 E7.52272
G1 X119.753 Y123.106 E7.54513
G1 X122.574 Y125.927 E7.65594
G1 X123.376 Y125.922 E7.67822
G1 X120.560 Y123.106 E7.78886
G1 X121.367 Y123.106 E7.81127
G1 X124.309 Y126.049 E7.92687
G1 X125.531 Y126.464 F7800.000
G1 X122.173 Y123.106 E8.05876 F1800.000
G1 X122.980 Y123.106 E8.08117
G1 X131.894 Y132.020 E8.43134
G1 X131.894 Y131.213 E8.45374
G1 X123.787 Y123.106 E8.77222
G1 X124.593 Y123.106 E8.79463
G1 X131.894 Y130.407 E9.08142
G1 X131.894 Y129.600 E9.10382
G1 X125.400 Y123.106 E9.35892
G1 X126.207 Y123.106 E9.38133
G1 X131.894 Y128.793 E9.60473
G1 X131.894 Y127.986 E9.62714
G1 X127.014 Y123.106 E9.81886
G1 X127.820 Y123.106 E9.84126
G1 X131.894 Y127.180 E10.00129
G1 X131.894 Y126.373 E10.02370
G1 X128.627 Y123.106 E10.15203
G1 X129.434 Y123.106 E10.17444
G1 X131.894 Y125.566 E10.27108
G1 X131.894 Y124.760 E10.29349
G1 X130.240 Y123.106 E10.35844
G1 X131.047 Y123.106 E10.38085
G1 X131.894 Y123.953 E10.41411
G1 X131.894 Y123.146 E10.43652
G1 X131.854 Y123.106 E10.43809
G1 X128.536 Y129.469 F7800.000
G1 X131.894 Y132.827 E10.56999 F1800.000
G1 F960.000 E9.56999
G92 E0
G1 X114.106 Y131.980 F7800.000
G1 E1.00000 F960.000
G1 X123.020 Y140.894 E1.35017 F1800.000
G1 X122.213 Y140.894 E1.37258
G1 X114.106 Y132.787 E1.69105
G1 X114.106 Y133.593 E1.71346
G1 X121.407 Y140.894 E2.00025
G1 X120.600 Y140.894 E2.02265
G1 X114.106 Y134.400 E2.27775
G1 X114.106 Y135.207 F7800.000
G1 X119.793 Y140.894 E2.50116 F1800.000
G1 X118.986 Y140.894 E2.52356
G1 X114.106 Y136.014 E2.71528
G1 X114.106 Y136.820 E2.73769
G1 X118.180 Y140.894 E2.89771
G1 X117.373 Y140.894 E2.92012
G1 X114.106 Y137.627 E3.04845
G1 X114.106 Y138.434 E3.07086
G1 X116.566 Y140.894 E3.16750
G1 X115.760 Y140.894 E3.18991
G1 X114.106 Y139.240 E3.25487
G1 X114.106 Y140.047 E3.27727
G1 X114.953 Y140.894 E3.31054
G1 X114.146 Y140.894 E3.33294
G1 X114.106 Y140.854 E3.33452
M104 S215 ; set temperature
M140 S55 ; set bed temperature
G1 F960.000 E2.33452
G92 E0
G1 Z0.550 F7800.000
G1 X127.052 Y136.052 F7800.000
G1 E1.00000 F960.000
G1 X126.698 Y136.407 E1.00709 F3000.000
G1 X125.876 Y136.982 E1.02128
G1 X124.968 Y137.406 E1.03547
G1 X123.999 Y137.665 E1.04965
G1 X123.000 Y137.753 E1.06384
G1 X122.001 Y137.665 E1.07803
G1 X121.032 Y137.406 E1.09221
G1 X120.124 Y136.982 E1.10640
G1 X119.302 Y136.407 E1.12059
G1 X118.864 Y135.969 E1.12935
G1 X118.783 Y135.969 E1.13050
G1 X118.018 Y134.876 E1.14937
G1 X117.594 Y133.968 E1.16355
G1 X117.335 Y132.999 E1.17774
G1 X117.327 Y132.914 E1.17895
G1 X117.247 Y132.000 E1.19193
G1 X117.335 Y131.001 E1.20611
G1 X117.594 Y130.032 E1.22030
G1 X117.630 Y129.955 E1.22151
G1 X118.018 Y129.124 E1.23449
G1 X118.593 Y128.302 E1.24867
G1 X119.302 Y127.593 E1.26286
G1 X120.124 Y127.018 E1.27705
G1 X121.032 Y126.594 E1.29123
G1 X122.001 Y126.335 E1.30542
G1 X123.000 Y126.247 E1.31961
G1 X123.085 Y126.255 E1.32081
G1 X123.999 Y126.335 E1.33379 F3000.000
G1 X124.968 Y126.594 E1.34798
G1 X125.876 Y127.018 E1.36217
G1 X126.698 Y127.593 E1.37635
G1 X127.136 Y128.031 E1.38511
G1 X127.217 Y128.031 E1.38626
G1 X127.982 Y129.124 E1.40513
G1 X128.406 Y130.032 E1.41932
G1 X128.665 Y131.001 E1.43351
G1 X128.753 Y132.000 E1.44769
G1 X128.665 Y132.999 E1.46188
G1 X128.406 Y133.968 E1.47607
G1 X127.982 Y134.876 E1.49025
G1 X127.407 Y135.698 E1.50444
G1 X127.105 Y135.999 E1.51047
G1 X126.699 Y135.699 F7800.000
G1 X126.375 Y136.022 E1.51695 F2100.000
G1 X125.625 Y136.547 E1.52990
G1 X124.796 Y136.934 E1.54285
G1 X123.912 Y137.171 E1.55579
G1 X123.000 Y137.251 E1.56874
G1 X122.088 Y137.171 E1.58169
G1 X121.204 Y136.934 E1.59464
G1 X120.375 Y136.547 E1.60759
G1 X119.625 Y136.022 E1.62054
G1 X119.071 Y135.469 E1.63161
G1 X119.043 Y135.469 E1.63201
G1 X118.453 Y134.625 E1.64658
G1 X118.066 Y133.796 E1.65953
G1 X117.829 Y132.912 E1.67247
G1 X117.749 Y132.000 E1.68542
G1 X117.840 Y131.048 E1.69895
G1 X118.066 Y130.204 E1.71131
G1 X118.453 Y129.375 E1.72426
G1 X118.978 Y128.625 E1.73721
G1 X119.625 Y127.978 E1.75016
G1 X120.375 Y127.453 E1.76311
G1 X121.204 Y127.066 E1.77606
G1 X122.130 Y126.825 E1.78958
G1 X123.000 Y126.749 E1.80195 F2100.000
G1 X123.912 Y126.829 E1.81490
G1 X124.796 Y127.066 E1.82784
G1 X125.625 Y127.453 E1.84079
G1 X126.375 Y127.978 E1.85374
G1 X126.929 Y128.531 E1.86481
G1 X126.957 Y128.531 E1.86521
G1 X127.547 Y129.375 E1.87978
G1 X127.934 Y130.204 E1.89273
G1 X128.171 Y131.088 E1.90568
G1 X128.251 Y132.000 E1.91863
G1 X128.171 Y132.912 E1.93158
G1 X127.934 Y133.796 E1.94453
G1 X127.547 Y134.625 E1.95747
G1 X127.022 Y135.375 E1.97042
G1 X126.752 Y135.646 E1.97584
G1 F960.000 E0.97584
G92 E0
G1 X122.015 Y126.339 F7800.000
G1 X132.250 Y141.250 F7800.000
G1 E1.00000 F960.000
G1 X113.750 Y141.250 E1.26172 F3000.000
G1 X113.750 Y122.750 E1.52344
G1 X132.250 Y122.750 E1.78516
G1 X132.250 Y141.175 E2.04582
G1 X132.750 Y141.750 F7800.000
G1 X113.250 Y141.750 E2.32169 F2100.000
G1 X113.250 Y122.250 E2.59756
G1 X132.750 Y122.250 E2.87343
G1 X132.750 Y141.675 E3.14824
G1 X132.317 Y141.500 F7800.000
G1 X131.799 Y140.759 F7800.000
G1 X131.759 Y140.799 E3.14953 F3000.000
G1 X130.589 Y140.799 E3.17626
G1 X131.799 Y139.589 E3.21535
G1 X131.799 Y138.418 E3.24208
G1 X129.418 Y140.799 E3.31898
G1 X128.247 Y140.799 E3.34571
G1 X131.799 Y137.247 E3.46041
G1 X131.799 Y136.077 E3.48714
G1 X127.077 Y140.799 E3.63964
G1 X125.906 Y140.799 E3.66637
G1 X131.799 Y134.906 E3.85668
G1 X131.799 Y133.736 E3.88341
G1 X124.736 Y140.799 E4.11151
G1 X123.565 Y140.799 E4.13824
G1 X131.799 Y132.565 E4.40415
G1 X131.799 Y131.395 E4.43088
G1 X128.621 Y134.573 E4.53351
G1 X129.127 Y132.896 E4.57349
G1 X131.799 Y130.224 E4.65978
G1 X131.799 Y129.054 E4.68651
G1 X129.177 Y131.676 E4.77119
G1 X129.037 Y130.645 E4.79494
G1 X131.799 Y127.883 E4.88414
G1 X131.799 Y126.713 E4.91087
G1 X128.769 Y129.743 E5.00874
G1 X128.396 Y128.945 E5.02886
G1 X131.799 Y125.542 E5.13875
G1 X131.799 Y124.371 E5.16548
G1 X127.921 Y128.250 E5.29073
G1 X127.420 Y127.580 E5.30983
G1 X131.779 Y123.221 E5.45061
G1 X130.629 Y123.201 E5.47688
G1 X126.750 Y127.079 E5.60213
G1 X126.055 Y126.604 E5.62137
G1 X129.458 Y123.201 E5.73126
G1 X128.287 Y123.201 E5.75799
G1 X125.257 Y126.231 E5.85586
G1 X124.355 Y125.963 E5.87736
G1 X127.117 Y123.201 E5.96656
G1 X125.946 Y123.201 E5.99329
G1 X123.324 Y125.823 E6.07797
G1 X122.104 Y125.873 E6.10586
G1 X124.776 Y123.201 E6.19216
G1 X123.605 Y123.201 E6.21889
G1 X120.427 Y126.379 E6.32151
G1 X120.094 Y123.201 F7800.000
