; generated by Slic3r 1.1.7 on 2015-04-10 at 09:26:22

; perimeters extrusion width = 0.50mm
; infill extrusion width = 1.02mm
; solid infill extrusion width = 0.85mm
; top infill extrusion width = 0.43mm

G21 ; set units to millimeters
M107
M190 S60 ; wait for bed temperature to be reached
;--------------------------------------
G28 ; home all axes
G1 Z5 F500 ; lift nozzle
M109 S230 ; wait for extruder temp to be reached
M3001 ; Aktivate Z-Compensation 
; Move Z-axis n-steps up (see manual)
;M3004 S0 ; + n-steps bed down // - n-steps bed up! old Firmware Version <= 0.91.48
;M3006 S0 ; configure the static z-offset (units are [um])
G90 ; use absolute coordinates
M82 ; use absolute distances for extrusion
G92 E0 ; start line
G1 F300 E-0.5
G1 X230 Y22 Z0.35 F5000
G1 F800 E13
G1 X20 E25 F1000
; Acceleration up to...
; Acc printing
M201 X3000 Y3000 Z100
; Acc travel
M202 X3000 Y3000 Z100
; ZJERK 
M205 Z0.1
;--------------------------------------
G90 ; use absolute coordinates
G92 E0
M82 ; use absolute distances for extrusion
G1 F960.000 E-1.00000
G92 E0
G1 Z0.350 F7800.000
G1 X21.032 Y112.250 F7800.000
G1 E1.00000 F960.000
G1 X224.968 Y112.250 E6.04891 F1800.000
G1 X227.750 Y115.032 E6.14633
G1 X227.750 Y148.968 E6.98647 F1800.000
G1 X224.968 Y151.750 E7.08389
G1 X21.032 Y151.750 E12.13280
G1 X18.250 Y148.968 E12.23022
G1 X18.250 Y115.032 E13.07037
G1 X20.979 Y112.303 E13.16593
G1 X21.240 Y112.750 F7800.000
G1 X224.760 Y112.750 E18.20459 F1800.000
G1 X227.250 Y115.240 E18.29175 F1800.000
G1 X227.250 Y148.760 E19.12164
G1 X224.760 Y151.250 E19.20881
G1 X21.240 Y151.250 E24.24746
G1 X18.750 Y148.760 E24.33463
G1 X18.750 Y115.240 E25.16452
G1 X21.187 Y112.803 E25.24983
G1 X21.447 Y113.250 F7800.000
G1 X224.553 Y113.250 E30.27823 F1800.000
G1 X226.750 Y115.447 E30.35514
G1 X226.750 Y148.553 E31.17477 F1800.000
G1 X224.553 Y150.750 E31.25168
G1 X21.447 Y150.750 E36.28008
G1 X19.250 Y148.553 E36.35699
G1 X19.250 Y115.447 E37.17663
G1 X21.394 Y113.303 E37.25168
G1 X21.654 Y113.750 F7800.000
G1 X224.346 Y113.750 E42.26983 F1800.000
G1 X226.250 Y115.654 E42.33648 F1800.000
G1 X226.250 Y148.346 E43.14586
G1 X224.346 Y150.250 E43.21252
G1 X21.654 Y150.250 E48.23066
G1 X19.750 Y148.346 E48.29732
G1 X19.750 Y115.654 E49.10670
G1 X21.601 Y113.803 E49.17150
G1 X21.861 Y114.250 F7800.000
G1 X224.139 Y114.250 E54.17939 F1800.000
G1 X225.750 Y115.861 E54.23579
G1 X225.750 Y148.139 E55.03491 F1800.000
G1 X224.139 Y149.750 E55.09132
G1 X21.861 Y149.750 E60.09920
G1 X20.250 Y148.139 E60.15561
G1 X20.250 Y115.861 E60.95473
G1 X21.808 Y114.303 E61.00928
G1 X22.068 Y114.750 F7800.000
G1 X223.932 Y114.750 E66.00691 F1800.000
G1 X225.250 Y116.068 E66.05306 F1800.000
G1 X225.250 Y147.932 E66.84193
G1 X223.932 Y149.250 E66.88807
G1 X22.068 Y149.250 E71.88571
G1 X20.750 Y147.932 E71.93185
G1 X20.750 Y116.068 E72.72072
G1 X22.015 Y114.803 E72.76501
G1 X22.275 Y115.250 F7800.000
G1 X223.725 Y115.250 E77.75239 F1800.000
G1 X224.750 Y116.275 E77.78829
G1 X224.750 Y147.725 E78.56690 F1800.000
G1 X223.725 Y148.750 E78.60279
G1 X22.275 Y148.750 E83.59017
G1 X21.250 Y147.725 E83.62606
G1 X21.250 Y116.275 E84.40468
G1 X22.222 Y115.303 E84.43871
G1 X22.482 Y115.750 F7800.000
G1 X223.518 Y115.750 E89.41584 F1800.000
G1 X224.250 Y116.482 E89.44148 F1800.000
G1 X224.250 Y147.518 E90.20984
G1 X223.518 Y148.250 E90.23547
G1 X22.482 Y148.250 E95.21260
G1 X21.750 Y147.518 E95.23823
G1 X21.750 Y116.482 E96.00659
G1 X22.429 Y115.803 E96.03038
G1 X22.689 Y116.250 F7800.000
G1 X223.311 Y116.250 E100.99724 F1800.000
G1 X223.750 Y116.689 E101.01263
G1 X223.750 Y147.311 E101.77073 F1800.000
G1 X223.311 Y147.750 E101.78611
G1 X22.689 Y147.750 E106.75298
G1 X22.250 Y147.311 E106.76837
G1 X22.250 Y116.689 E107.52647
G1 X22.636 Y116.303 E107.54000
G1 X22.896 Y116.750 F7800.000
G1 X223.104 Y116.750 E112.49661 F1800.000
G1 X223.250 Y116.896 E112.50174
G1 X223.250 Y147.104 E113.24959
G1 X223.104 Y147.250 E113.25472
G1 X22.896 Y147.250 E118.21133
G1 X22.750 Y147.104 E118.21646
G1 X22.750 Y116.896 E118.96431
G1 X22.843 Y116.803 E118.96758
G1 F960.000 E117.96758
G92 E0
G1 X23.250 Y146.750 F7800.000
G1 E1.00000 F960.000
G1 X23.250 Y117.250 E1.73034 F1260.000
G1 X222.750 Y117.250 E6.66945
G1 X222.750 Y146.750 E7.39980
G1 X23.325 Y146.750 E12.33705
G1 X23.500 Y146.317 F7800.000
G1 X23.750 Y146.250 F7800.000
G1 X23.750 Y117.750 E13.04264 F1800.000
G1 X222.250 Y117.750 E17.95699
G1 X222.250 Y146.250 E18.66257
G1 X23.825 Y146.250 E23.57507
G1 X195.962 Y132.681 F7800.000
G1 X195.962 Y131.319 E23.60878 F1260.000
G1 X196.099 Y130.218 E23.63626
G1 X196.130 Y129.968 E23.64248
G1 X196.462 Y128.648 E23.67619
G1 X196.954 Y127.378 E23.70990
G1 X197.598 Y126.178 E23.74361
G1 X198.385 Y125.067 E23.77732
G1 X199.302 Y124.061 E23.81102
G1 X200.336 Y123.175 E23.84473
G1 X201.471 Y122.423 E23.87844
G1 X202.690 Y121.816 E23.91215
G1 X203.974 Y121.364 E23.94586
G1 X205.304 Y121.072 E23.97957
G1 X206.409 Y120.970 E24.00705
G1 X206.659 Y120.947 E24.01327 F1260.000
G1 X208.020 Y120.989 E24.04698
G1 X209.366 Y121.198 E24.08069
G1 X210.675 Y121.570 E24.11440
G1 X211.929 Y122.101 E24.14811
G1 X213.108 Y122.782 E24.18182
G1 X214.195 Y123.602 E24.21552
G1 X215.172 Y124.550 E24.24923
G1 X216.026 Y125.611 E24.28294
G1 X216.743 Y126.768 E24.31665
G1 X217.312 Y128.005 E24.35036
G1 X217.724 Y129.303 E24.38407
G1 X217.975 Y130.641 E24.41777
G1 X218.058 Y132.000 E24.45148
G1 X217.975 Y133.359 E24.48519
G1 X217.724 Y134.697 E24.51890
G1 X217.388 Y135.755 E24.54638
G1 X217.312 Y135.995 E24.55261
G1 X216.743 Y137.232 E24.58632
G1 X216.026 Y138.389 E24.62002
G1 X215.172 Y139.450 E24.65373
G1 X214.195 Y140.398 E24.68744
G1 X213.108 Y141.218 E24.72115
G1 X211.929 Y141.899 E24.75486
G1 X210.675 Y142.430 E24.78856
G1 X209.608 Y142.734 E24.81605
G1 X209.366 Y142.802 E24.82227
G1 X208.020 Y143.011 E24.85598
G1 X206.659 Y143.053 E24.88969
G1 X205.304 Y142.928 E24.92340
G1 X203.974 Y142.636 E24.95711
G1 X202.690 Y142.184 E24.99081
G1 X201.471 Y141.577 E25.02452
G1 X200.336 Y140.825 E25.05823
G1 X199.302 Y139.939 E25.09194
G1 X198.385 Y138.933 E25.12565
G1 X197.598 Y137.822 E25.15936
G1 X196.954 Y136.622 E25.19306
G1 X196.462 Y135.352 E25.22677
G1 X196.130 Y134.032 E25.26048
G1 X195.972 Y132.755 E25.29233
G1 F960.000 E24.29233
G92 E0
G1 X206.449 Y120.722 F7800.000
G1 X195.462 Y132.681 F7800.000
G1 E1.00000 F960.000
G1 X195.462 Y131.288 E1.03447 F1800.000
G1 X195.637 Y129.876 E1.06971
G1 X195.985 Y128.496 E1.10494
G1 X196.499 Y127.169 E1.14018
G1 X197.172 Y125.915 E1.17541
G1 X197.831 Y124.984 E1.20366
G1 X197.994 Y124.753 E1.21065
G1 X198.953 Y123.701 E1.24588
G1 X200.034 Y122.775 E1.28112
G1 X200.985 Y122.145 E1.30936
G1 X201.220 Y121.989 E1.31635
G1 X202.494 Y121.355 E1.35159
G1 X203.837 Y120.882 E1.38682
G1 X205.227 Y120.577 E1.42206
G1 X206.644 Y120.446 E1.45729
G1 X207.784 Y120.481 E1.48554
G1 X208.067 Y120.490 E1.49253 F1800.000
G1 X209.473 Y120.708 E1.52777
G1 X210.842 Y121.098 E1.56300
G1 X212.152 Y121.652 E1.59824
G1 X213.385 Y122.364 E1.63347
G1 X214.521 Y123.222 E1.66871
G1 X215.543 Y124.212 E1.70394
G1 X216.258 Y125.101 E1.73219
G1 X216.435 Y125.321 E1.73918
G1 X217.184 Y126.531 E1.77441
G1 X217.779 Y127.824 E1.80965
G1 X218.210 Y129.181 E1.84488
G1 X218.472 Y130.579 E1.88012
G1 X218.559 Y132.000 E1.91535
G1 X218.472 Y133.421 E1.95059
G1 X218.262 Y134.542 E1.97883
G1 X218.210 Y134.820 E1.98582
G1 X217.779 Y136.176 E2.02106
G1 X217.184 Y137.469 E2.05629
G1 X216.435 Y138.679 E2.09153
G1 X215.543 Y139.788 E2.12676
G1 X214.521 Y140.778 E2.16200
G1 X213.385 Y141.636 E2.19724
G1 X212.152 Y142.348 E2.23247
G1 X210.842 Y142.902 E2.26771
G1 X209.745 Y143.215 E2.29595
G1 X209.473 Y143.292 E2.30294
G1 X208.067 Y143.510 E2.33818
G1 X206.644 Y143.554 E2.37341
G1 X205.227 Y143.423 E2.40865
G1 X203.837 Y143.118 E2.44388
G1 X202.494 Y142.645 E2.47912
G1 X201.220 Y142.011 E2.51435
G1 X200.034 Y141.225 E2.54959
G1 X198.953 Y140.299 E2.58482
G1 X197.994 Y139.247 E2.62006
G1 X197.172 Y138.085 E2.65529
G1 X196.499 Y136.831 E2.69053
G1 X195.985 Y135.504 E2.72576
G1 X195.637 Y134.124 E2.76100
G1 X195.468 Y132.755 E2.79514
G1 X75.501 Y132.000 F7800.000
G1 X75.463 Y132.434 E2.80593 F1260.000
G1 X75.350 Y132.855 E2.81673
G1 X75.166 Y133.250 E2.82752
G1 X74.916 Y133.608 E2.83831
G1 X74.608 Y133.916 E2.84911
G1 X74.250 Y134.166 E2.85990
G1 X73.855 Y134.350 E2.87069
G1 X73.434 Y134.463 E2.88148
G1 X73.000 Y134.501 E2.89228
G1 X72.566 Y134.463 E2.90307
G1 X72.145 Y134.350 E2.91386
G1 X71.750 Y134.166 E2.92466
G1 X71.392 Y133.916 E2.93545
G1 X71.084 Y133.608 E2.94624
G1 X70.834 Y133.250 E2.95703
G1 X70.650 Y132.855 E2.96783
G1 X70.537 Y132.434 E2.97862
G1 X70.499 Y132.000 E2.98941
G1 X70.537 Y131.566 E3.00021
G1 X70.650 Y131.145 E3.01100
G1 X70.834 Y130.750 E3.02179
G1 X71.084 Y130.392 E3.03258
G1 X71.392 Y130.084 E3.04338
G1 X71.750 Y129.834 E3.05417
G1 X72.145 Y129.650 E3.06496
G1 X72.609 Y129.533 E3.07681
G1 X73.000 Y129.499 E3.08653 F1260.000
G1 X73.434 Y129.537 E3.09733
G1 X73.855 Y129.650 E3.10812
G1 X74.250 Y129.834 E3.11891
G1 X74.608 Y130.084 E3.12971
G1 X74.916 Y130.392 E3.14050
G1 X75.166 Y130.750 E3.15129
G1 X75.350 Y131.145 E3.16208
G1 X75.463 Y131.566 E3.17288
G1 X75.494 Y131.925 E3.18181
G1 F960.000 E2.18181
G92 E0
G1 X72.465 Y129.168 F7800.000
G1 X75.999 Y131.956 F7800.000
G1 E1.00000 F960.000
G1 X75.957 Y132.521 E1.01403 F1800.000
G1 X75.822 Y133.027 E1.02699
G1 X75.601 Y133.501 E1.03994
G1 X75.300 Y133.930 E1.05290
G1 X74.930 Y134.300 E1.06586
G1 X74.501 Y134.601 E1.07882
G1 X74.027 Y134.822 E1.09178
G1 X73.521 Y134.957 E1.10474
G1 X73.000 Y135.003 E1.11770
G1 X72.479 Y134.957 E1.13066
G1 X71.973 Y134.822 E1.14362
G1 X71.499 Y134.601 E1.15657
G1 X71.070 Y134.300 E1.16953
G1 X70.700 Y133.930 E1.18249
G1 X70.399 Y133.501 E1.19545
G1 X70.178 Y133.027 E1.20841
G1 X70.043 Y132.521 E1.22137
G1 X69.997 Y132.000 E1.23433
G1 X70.043 Y131.479 E1.24729
G1 X70.178 Y130.973 E1.26025
G1 X70.399 Y130.499 E1.27320
G1 X70.700 Y130.070 E1.28616
G1 X71.070 Y129.700 E1.29912
G1 X71.499 Y129.399 E1.31208
G1 X71.973 Y129.178 E1.32504
G1 X72.479 Y129.043 E1.33800
G1 X73.000 Y128.997 E1.35096
G1 X73.087 Y129.005 E1.35311
G1 X73.521 Y129.043 E1.36392 F1800.000
G1 X74.027 Y129.178 E1.37688
G1 X74.501 Y129.399 E1.38983
G1 X74.930 Y129.700 E1.40279
G1 X75.300 Y130.070 E1.41575
G1 X75.601 Y130.499 E1.42871
G1 X75.822 Y130.973 E1.44167
G1 X75.957 Y131.479 E1.45463
G1 X75.993 Y131.882 E1.46465
G1 F960.000 E0.46465
G92 E0
G1 X35.501 Y132.000 F7800.000
G1 E1.00000 F960.000
G1 X35.463 Y132.434 E1.01079 F1260.000
G1 X35.350 Y132.855 E1.02159
G1 X35.166 Y133.250 E1.03238
G1 X34.916 Y133.608 E1.04317
G1 X34.608 Y133.916 E1.05396
G1 X34.250 Y134.166 E1.06476
G1 X33.855 Y134.350 E1.07555
G1 X33.434 Y134.463 E1.08634
G1 X33.000 Y134.501 E1.09714
G1 X32.566 Y134.463 E1.10793
G1 X32.145 Y134.350 E1.11872
G1 X31.750 Y134.166 E1.12951
G1 X31.392 Y133.916 E1.14031
G1 X31.084 Y133.608 E1.15110
G1 X30.834 Y133.250 E1.16189
G1 X30.650 Y132.855 E1.17269
G1 X30.622 Y132.751 E1.17537
G1 X30.537 Y132.434 E1.18348
G1 X30.499 Y132.000 E1.19427
G1 X30.537 Y131.566 E1.20506
G1 X30.650 Y131.145 E1.21586
G1 X30.834 Y130.750 E1.22665
G1 X31.084 Y130.392 E1.23744
G1 X31.392 Y130.084 E1.24824
G1 X31.750 Y129.834 E1.25903
G1 X32.145 Y129.650 E1.26982
G1 X32.609 Y129.533 E1.28167
G1 X33.000 Y129.499 E1.29139 F1260.000
G1 X33.434 Y129.537 E1.30219
G1 X33.855 Y129.650 E1.31298
G1 X34.250 Y129.834 E1.32377
G1 X34.608 Y130.084 E1.33456
G1 X34.916 Y130.392 E1.34536
G1 X35.166 Y130.750 E1.35615
G1 X35.350 Y131.145 E1.36694
G1 X35.463 Y131.566 E1.37774
G1 X35.494 Y131.925 E1.38667
G1 F960.000 E0.38667
G92 E0
G1 X32.465 Y129.168 F7800.000
G1 X35.999 Y132.044 F7800.000
G1 E1.00000 F960.000
G1 X35.957 Y132.521 E1.01188 F1800.000
G1 X35.822 Y133.027 E1.02483
G1 X35.601 Y133.501 E1.03779
G1 X35.300 Y133.930 E1.05075
G1 X34.930 Y134.300 E1.06371
G1 X34.501 Y134.601 E1.07667
G1 X34.027 Y134.822 E1.08963
G1 X33.521 Y134.957 E1.10259
G1 X33.000 Y135.003 E1.11555
G1 X32.479 Y134.957 E1.12851
G1 X31.973 Y134.822 E1.14146
G1 X31.499 Y134.601 E1.15442
G1 X31.070 Y134.300 E1.16738
G1 X30.700 Y133.930 E1.18034
G1 X30.399 Y133.501 E1.19330
G1 X30.178 Y133.027 E1.20626
G1 X30.043 Y132.521 E1.21922
G1 X30.035 Y132.435 E1.22137
G1 X29.997 Y132.000 E1.23218
G1 X30.043 Y131.479 E1.24513
G1 X30.178 Y130.973 E1.25809
G1 X30.399 Y130.499 E1.27105
G1 X30.700 Y130.070 E1.28401
G1 X30.761 Y130.008 E1.28616
G1 X31.070 Y129.700 E1.29697
G1 X31.499 Y129.399 E1.30993
G1 X31.973 Y129.178 E1.32289
G1 X32.479 Y129.043 E1.33585
G1 X33.000 Y128.997 E1.34881
G1 X33.087 Y129.005 E1.35096
G1 X33.521 Y129.043 E1.36176 F1800.000
G1 X34.027 Y129.178 E1.37472
G1 X34.501 Y129.399 E1.38768
G1 X34.930 Y129.700 E1.40064
G1 X35.300 Y130.070 E1.41360
G1 X35.601 Y130.499 E1.42656
G1 X35.822 Y130.973 E1.43952
G1 X35.957 Y131.479 E1.45248
G1 X36.000 Y131.969 E1.46466
G1 X36.179 Y130.931 F7800.000
G1 X51.142 Y145.894 E2.05246 F1800.000
G1 X50.348 Y145.894 E2.07451
G1 X36.351 Y131.897 E2.62436
G1 X36.296 Y132.635 E2.64492
G1 X49.554 Y145.894 E3.16576
G1 X48.760 Y145.894 E3.18782
G1 X36.113 Y133.246 E3.68466
G1 X35.845 Y133.773 E3.70107
G1 X47.966 Y145.894 E4.17722
G1 X47.172 Y145.894 E4.19927
G1 X35.506 Y134.228 E4.65755
G1 X35.100 Y134.616 E4.67315
G1 X46.378 Y145.894 E5.11618
G1 X45.584 Y145.894 E5.13824
G1 X34.626 Y134.936 E5.56872
G1 X34.074 Y135.178 E5.58546
G1 X44.790 Y145.894 E6.00642
G1 X43.996 Y145.894 E6.02847
G1 X33.426 Y135.323 E6.44373
G1 X32.637 Y135.329 E6.46563
G1 X43.202 Y145.894 E6.88067
G1 X42.408 Y145.894 E6.90272
G1 X31.516 Y135.002 E7.33060
G1 X24.146 Y145.894 F7800.000
G1 X24.106 Y145.854 E7.33217 F1800.000
G1 X24.106 Y145.060 E7.35423
G1 X24.940 Y145.894 E7.38699
G1 X25.734 Y145.894 E7.40905
G1 X24.106 Y144.266 E7.47300
G1 X24.106 Y143.472 E7.49506
G1 X26.528 Y145.894 E7.59020
G1 X27.322 Y145.894 E7.61226
G1 X24.106 Y142.678 E7.73859
G1 X24.106 Y141.884 E7.76065
G1 X28.116 Y145.894 E7.91817
G1 X28.910 Y145.894 E7.94023
G1 X24.106 Y141.090 E8.12895
G1 X24.106 Y140.296 E8.15100
G1 X29.704 Y145.894 E8.37091
G1 X30.498 Y145.894 E8.39297
G1 X24.106 Y139.502 E8.64407
G1 X24.106 Y138.708 E8.66612
G1 X31.292 Y145.894 E8.94842
G1 X32.086 Y145.894 E8.97047
G1 X24.106 Y137.914 E9.28395
G1 X24.106 Y137.120 E9.30601
G1 X32.880 Y145.894 E9.65068
G1 X33.674 Y145.894 E9.67274
G1 X24.106 Y136.326 E10.04860
G1 X24.106 Y135.532 E10.07066
G1 X34.468 Y145.894 E10.47772
G1 X35.262 Y145.894 E10.49977
G1 X24.106 Y134.738 E10.93802
G1 X24.106 Y133.944 E10.96007
G1 X36.056 Y145.894 E11.42951
G1 X36.850 Y145.894 E11.45157
G1 X24.106 Y133.150 E11.95220
G1 X24.106 Y132.356 E11.97425
G1 X37.644 Y145.894 E12.50608
G1 X38.438 Y145.894 E12.52813
G1 X24.106 Y131.562 E13.09114
G1 X24.106 Y130.768 E13.11320
G1 X39.232 Y145.894 E13.70740
G1 X40.026 Y145.894 E13.72946
G1 X24.106 Y129.974 E14.35485
G1 X24.106 Y129.180 E14.37691
G1 X40.820 Y145.894 E15.03349
G1 X41.614 Y145.894 E15.05555
G1 X24.106 Y128.386 E15.74332
G1 X24.106 Y127.592 E15.76538
G1 X29.998 Y133.484 E15.99684
G1 X29.671 Y132.363 E16.02927
G1 X24.106 Y126.798 E16.24789
G1 X24.106 Y126.004 E16.26995
G1 X29.677 Y131.574 E16.48878
G1 X29.822 Y130.926 E16.50725
G1 X24.106 Y125.210 E16.73179
G1 X24.106 Y124.416 E16.75385
G1 X30.064 Y130.374 E16.98791
G1 X30.384 Y129.900 E17.00380
G1 X24.106 Y123.622 E17.25041
G1 X24.106 Y122.828 E17.27247
G1 X30.772 Y129.494 E17.53432
G1 X31.227 Y129.155 E17.55009
G1 X24.106 Y122.034 E17.82982
G1 X24.106 Y121.240 E17.85187
G1 X31.754 Y128.887 E18.15230
G1 X32.365 Y128.704 E18.17002
G1 X24.106 Y120.446 E18.49444
G1 X24.106 Y119.652 E18.51650
