; generated by Slic3r 1.1.7 on 2015-04-10 at 09:26:46

; perimeters extrusion width = 0.50mm
; infill extrusion width = 1.02mm
; solid infill extrusion width = 0.85mm
; top infill extrusion width = 0.43mm

G21 ; set units to millimeters
M107
M190 S60 ; wait for bed temperature to be reached
;--------------------------------------
G28 ; home all axes
G1 Z5 F500 ; lift nozzle
M109 S230 ; wait for extruder temp to be reached
M3001 ; Aktivate Z-Compensation 
; Move Z-axis n-steps up (see manual)
;M3004 S0 ; + n-steps bed down // - n-steps bed up! old Firmware Version <= 0.91.48
;M3006 S0 ; configure the static z-offset (units are [um])
G90 ; use absolute coordinates
M82 ; use absolute distances for extrusion
G92 E0 ; start line
G1 F300 E-0.5
G1 X230 Y22 Z0.35 F5000
G1 F800 E13
G1 X20 E25 F1000
; Acceleration up to...
; Acc printing
M201 X3000 Y3000 Z100
; Acc travel
M202 X3000 Y3000 Z100
; ZJERK 
M205 Z0.1
;--------------------------------------
G90 ; use absolute coordinates
G92 E0
M82 ; use absolute distances for extrusion
G1 F960.000 E-1.00000
G92 E0
G1 Z0.350 F7800.000
G1 X114.391 Y114.391 F7800.000
G1 E1.00000 F960.000
G1 X119.532 Y109.250 E1.18001 F1800.000
G1 X126.468 Y109.250 E1.35170
G1 X147.250 Y130.032 E2.07934
G1 X147.250 Y145.968 E2.47385 F1800.000
G1 X138.468 Y154.750 E2.78135
G1 X125.532 Y154.750 E3.10159
G1 X123.207 Y152.425 E3.18300
G1 X122.793 Y152.425 E3.19326
G1 X120.468 Y154.750 E3.27468
G1 X107.532 Y154.750 E3.59491
G1 X98.750 Y145.968 E3.90241
G1 X98.750 Y130.032 E4.29692
G1 X114.338 Y114.444 E4.84270
G1 X114.745 Y114.745 F7800.000
G1 X116.740 Y112.750 E4.91254 F1800.000
G1 X116.957 Y112.750 E4.91793
G1 X117.250 Y112.457 E4.92818
G1 X117.250 Y112.240 E4.93357
G1 X119.740 Y109.750 E5.02073
G1 X126.260 Y109.750 E5.18217
G1 X128.750 Y112.240 E5.26934 F1800.000
G1 X128.750 Y112.457 E5.27472
G1 X129.043 Y112.750 E5.28498
G1 X129.260 Y112.750 E5.29036
G1 X131.750 Y115.240 E5.37753
G1 X131.750 Y115.457 E5.38291
G1 X132.043 Y115.750 E5.39317
G1 X132.260 Y115.750 E5.39855
G1 X134.750 Y118.240 E5.48572
G1 X134.750 Y118.457 E5.49110
G1 X135.043 Y118.750 E5.50136
G1 X135.260 Y118.750 E5.50674
G1 X137.750 Y121.240 E5.59391
G1 X137.750 Y121.457 E5.59930
G1 X138.043 Y121.750 E5.60955
G1 X138.260 Y121.750 E5.61494
G1 X140.750 Y124.240 E5.70210
G1 X140.750 Y124.457 E5.70749
G1 X141.043 Y124.750 E5.71774
G1 X141.260 Y124.750 E5.72313
G1 X143.750 Y127.240 E5.81029
G1 X143.750 Y127.457 E5.81568
G1 X144.043 Y127.750 E5.82593
G1 X144.260 Y127.750 E5.83132
G1 X146.750 Y130.240 E5.91849
G1 X146.750 Y145.760 E6.30274
G1 X144.260 Y148.250 E6.38991
G1 X144.043 Y148.250 E6.39529
G1 X143.750 Y148.543 E6.40555
G1 X143.750 Y148.760 E6.41093
G1 X141.260 Y151.250 E6.49810
G1 X141.043 Y151.250 E6.50348
G1 X140.750 Y151.543 E6.51374
G1 X140.750 Y151.760 E6.51912
G1 X138.260 Y154.250 E6.60629
G1 X125.740 Y154.250 E6.91627
G1 X123.207 Y151.718 E7.00494
G1 X122.793 Y151.718 E7.01520
G1 X120.260 Y154.250 E7.10386
G1 X107.740 Y154.250 E7.41385
G1 X105.250 Y151.760 E7.50101
G1 X105.250 Y151.543 E7.50640
G1 X104.957 Y151.250 E7.51665
G1 X104.740 Y151.250 E7.52204
G1 X102.250 Y148.760 E7.60921
G1 X102.250 Y148.543 E7.61459
G1 X101.957 Y148.250 E7.62485
G1 X101.740 Y148.250 E7.63023
G1 X99.250 Y145.760 E7.71740
G1 X99.250 Y130.240 E8.10165
G1 X101.740 Y127.750 E8.18882
G1 X101.957 Y127.750 E8.19420
G1 X102.250 Y127.457 E8.20446
G1 X102.250 Y127.240 E8.20984
G1 X104.740 Y124.750 E8.29701
G1 X104.957 Y124.750 E8.30240
G1 X105.250 Y124.457 E8.31265
G1 X105.250 Y124.240 E8.31804
G1 X107.740 Y121.750 E8.40520
G1 X107.957 Y121.750 E8.41059
G1 X108.250 Y121.457 E8.42084
G1 X108.250 Y121.240 E8.42623
G1 X110.740 Y118.750 E8.51339
G1 X110.957 Y118.750 E8.51878
G1 X111.250 Y118.457 E8.52903
G1 X111.250 Y118.240 E8.53442
G1 X113.740 Y115.750 E8.62158
G1 X113.957 Y115.750 E8.62697
G1 X114.250 Y115.457 E8.63722
G1 X114.250 Y115.240 E8.64261
G1 X114.692 Y114.798 E8.65808
G1 F960.000 E7.65808
G92 E0
G1 X114.457 Y116.250 F7800.000
G1 E1.00000 F960.000
G1 X114.750 Y115.957 E1.01025 F1800.000
G1 X114.750 Y115.447 E1.02289
G1 X116.947 Y113.250 E1.09980
G1 X117.457 Y113.250 E1.11244
G1 X117.750 Y112.957 E1.12269
G1 X117.750 Y112.447 E1.13533
G1 X119.947 Y110.250 E1.21224
G1 X126.053 Y110.250 E1.36343
G1 X128.250 Y112.447 E1.44034
G1 X128.250 Y112.957 E1.45297
G1 X128.543 Y113.250 E1.46323
G1 X129.053 Y113.250 E1.47586
G1 X131.250 Y115.447 E1.55278
G1 X131.250 Y115.957 E1.56541
G1 X131.543 Y116.250 E1.57567
G1 X132.053 Y116.250 E1.58830
G1 X134.250 Y118.447 E1.66522
G1 X134.250 Y118.957 E1.67785
G1 X134.543 Y119.250 E1.68811
G1 X135.053 Y119.250 E1.70074
G1 X137.250 Y121.447 E1.77765
G1 X137.250 Y121.957 E1.79029
G1 X137.543 Y122.250 E1.80055
G1 X138.053 Y122.250 E1.81318
G1 X140.250 Y124.447 E1.89009
G1 X140.250 Y124.957 E1.90273
G1 X140.543 Y125.250 E1.91298
G1 X141.053 Y125.250 E1.92562
G1 X143.250 Y127.447 E2.00253
G1 X143.250 Y127.957 E2.01517
G1 X143.543 Y128.250 E2.02542
G1 X144.053 Y128.250 E2.03806
G1 X146.250 Y130.447 E2.11497
G1 X146.250 Y145.553 E2.48897
G1 X144.053 Y147.750 E2.56588
G1 X143.543 Y147.750 E2.57852
G1 X143.250 Y148.043 E2.58878
G1 X143.250 Y148.553 E2.60141
G1 X141.053 Y150.750 E2.67832
G1 X140.543 Y150.750 E2.69096
G1 X140.250 Y151.043 E2.70121
G1 X140.250 Y151.553 E2.71385
G1 X138.053 Y153.750 E2.79076
G1 X125.947 Y153.750 E3.09049
G1 X123.750 Y151.553 E3.16740
G1 X123.750 Y151.043 E3.18004
G1 X123.457 Y150.750 E3.19029
G1 X122.543 Y150.750 E3.21293
G1 X122.250 Y151.043 E3.22318
G1 X122.250 Y151.553 E3.23582
G1 X120.053 Y153.750 E3.31273
G1 X107.947 Y153.750 E3.61246
G1 X105.750 Y151.553 E3.68937
G1 X105.750 Y151.043 E3.70201
G1 X105.457 Y150.750 E3.71226
G1 X104.947 Y150.750 E3.72490
G1 X102.750 Y148.553 E3.80181
G1 X102.750 Y148.043 E3.81445
G1 X102.457 Y147.750 E3.82470
G1 X101.947 Y147.750 E3.83734
G1 X99.750 Y145.553 E3.91425
G1 X99.750 Y130.447 E4.28825
G1 X101.947 Y128.250 E4.36516
G1 X102.457 Y128.250 E4.37780
G1 X102.750 Y127.957 E4.38805
G1 X102.750 Y127.447 E4.40069
G1 X104.947 Y125.250 E4.47760
G1 X105.457 Y125.250 E4.49024
G1 X105.750 Y124.957 E4.50049
G1 X105.750 Y124.447 E4.51313
G1 X107.947 Y122.250 E4.59004
G1 X108.457 Y122.250 E4.60267
G1 X108.750 Y121.957 E4.61293
G1 X108.750 Y121.447 E4.62557
G1 X110.947 Y119.250 E4.70248
G1 X111.457 Y119.250 E4.71511
G1 X111.750 Y118.957 E4.72537
G1 X111.750 Y118.447 E4.73801
G1 X113.947 Y116.250 E4.81492
G1 X114.382 Y116.250 E4.82570
G1 X114.957 Y116.750 F7800.000
G1 X115.250 Y116.457 E4.83595 F1800.000
G1 X115.250 Y115.654 E4.85584
G1 X117.154 Y113.750 E4.92250
G1 X117.957 Y113.750 E4.94238
G1 X118.250 Y113.457 E4.95264
G1 X118.250 Y112.654 E4.97253
G1 X120.154 Y110.750 E5.03918
G1 X125.846 Y110.750 E5.18011
G1 X127.750 Y112.654 E5.24677
G1 X127.750 Y113.457 E5.26666
G1 X128.043 Y113.750 E5.27691
G1 X128.846 Y113.750 E5.29680
G1 X130.750 Y115.654 E5.36345
G1 X130.750 Y116.457 E5.38334
G1 X131.043 Y116.750 E5.39360
G1 X131.846 Y116.750 E5.41348
G1 X133.750 Y118.654 E5.48014
G1 X133.750 Y119.457 E5.50003
G1 X134.043 Y119.750 E5.51028
G1 X134.846 Y119.750 E5.53017
G1 X136.750 Y121.654 E5.59683
G1 X136.750 Y122.457 E5.61672
G1 X137.043 Y122.750 E5.62697
G1 X137.846 Y122.750 E5.64686
G1 X139.750 Y124.654 E5.71351
G1 X139.750 Y125.457 E5.73340
G1 X140.043 Y125.750 E5.74366
G1 X140.846 Y125.750 E5.76355
G1 X142.750 Y127.654 E5.83020
G1 X142.750 Y128.457 E5.85009
G1 X143.043 Y128.750 E5.86034
G1 X143.846 Y128.750 E5.88023
G1 X145.750 Y130.654 E5.94689
G1 X145.750 Y145.346 E6.31063
G1 X143.846 Y147.250 E6.37729
G1 X143.043 Y147.250 E6.39718
G1 X142.750 Y147.543 E6.40743
G1 X142.750 Y148.346 E6.42732
G1 X140.846 Y150.250 E6.49398
G1 X140.043 Y150.250 E6.51387
G1 X139.750 Y150.543 E6.52412
G1 X139.750 Y151.346 E6.54401
G1 X137.846 Y153.250 E6.61066
G1 X126.154 Y153.250 E6.90014
G1 X124.250 Y151.346 E6.96679
G1 X124.250 Y150.543 E6.98668
G1 X123.957 Y150.250 E6.99694
G1 X122.043 Y150.250 E7.04433
G1 X121.750 Y150.543 E7.05458
G1 X121.750 Y151.346 E7.07447
G1 X119.846 Y153.250 E7.14113
G1 X108.154 Y153.250 E7.43060
G1 X106.250 Y151.346 E7.49726
G1 X106.250 Y150.543 E7.51715
G1 X105.957 Y150.250 E7.52740
G1 X105.154 Y150.250 E7.54729
G1 X103.250 Y148.346 E7.61394
G1 X103.250 Y147.543 E7.63383
G1 X102.957 Y147.250 E7.64409
G1 X102.154 Y147.250 E7.66397
G1 X100.250 Y145.346 E7.73063
G1 X100.250 Y130.654 E8.09438
G1 X102.154 Y128.750 E8.16103
G1 X102.957 Y128.750 E8.18092
G1 X103.250 Y128.457 E8.19118
G1 X103.250 Y127.654 E8.21106
G1 X105.154 Y125.750 E8.27772
G1 X105.957 Y125.750 E8.29761
G1 X106.250 Y125.457 E8.30786
G1 X106.250 Y124.654 E8.32775
G1 X108.154 Y122.750 E8.39441
G1 X108.957 Y122.750 E8.41430
G1 X109.250 Y122.457 E8.42455
G1 X109.250 Y121.654 E8.44444
G1 X111.154 Y119.750 E8.51109
G1 X111.957 Y119.750 E8.53098
G1 X112.250 Y119.457 E8.54124
G1 X112.250 Y118.654 E8.56112
G1 X114.154 Y116.750 E8.62778
G1 X114.882 Y116.750 E8.64581
G1 X115.457 Y117.250 F7800.000
G1 X115.750 Y116.957 E8.65607 F1800.000
G1 X115.750 Y115.861 E8.68321
G1 X117.361 Y114.250 E8.73961
G1 X118.457 Y114.250 E8.76675
G1 X118.750 Y113.957 E8.77700
G1 X118.750 Y112.861 E8.80414
G1 X120.361 Y111.250 E8.86054
G1 X125.639 Y111.250 E8.99122
G1 X127.250 Y112.861 E9.04762
G1 X127.250 Y113.957 E9.07476
G1 X127.543 Y114.250 E9.08501
G1 X128.639 Y114.250 E9.11215
G1 X130.250 Y115.861 E9.16855
G1 X130.250 Y116.957 E9.19569
G1 X130.543 Y117.250 E9.20595
G1 X131.639 Y117.250 E9.23309
G1 X133.250 Y118.861 E9.28949
G1 X133.250 Y119.957 E9.31663
G1 X133.543 Y120.250 E9.32688
G1 X134.639 Y120.250 E9.35402
G1 X136.250 Y121.861 E9.41042
G1 X136.250 Y122.957 E9.43756
G1 X136.543 Y123.250 E9.44782
G1 X137.639 Y123.250 E9.47495
G1 X139.250 Y124.861 E9.53136
G1 X139.250 Y125.957 E9.55850
G1 X139.543 Y126.250 E9.56875
G1 X140.639 Y126.250 E9.59589
G1 X142.250 Y127.861 E9.65229
G1 X142.250 Y128.957 E9.67943
G1 X142.543 Y129.250 E9.68968
G1 X143.639 Y129.250 E9.71682
G1 X145.250 Y130.861 E9.77323
G1 X145.250 Y145.139 E10.12672
G1 X143.639 Y146.750 E10.18312
G1 X142.543 Y146.750 E10.21026
G1 X142.250 Y147.043 E10.22051
G1 X142.250 Y148.139 E10.24765
G1 X140.639 Y149.750 E10.30405
G1 X139.543 Y149.750 E10.33119
G1 X139.250 Y150.043 E10.34145
G1 X139.250 Y151.139 E10.36859
G1 X137.639 Y152.750 E10.42499
G1 X126.361 Y152.750 E10.70421
G1 X124.750 Y151.139 E10.76061
G1 X124.750 Y150.043 E10.78775
G1 X124.457 Y149.750 E10.79800
G1 X123.361 Y149.750 E10.82514
G1 X123.207 Y149.596 E10.83053
G1 X122.793 Y149.596 E10.84078
G1 X122.639 Y149.750 E10.84617
G1 X121.543 Y149.750 E10.87330
G1 X121.250 Y150.043 E10.88356
G1 X121.250 Y151.139 E10.91070
G1 X119.639 Y152.750 E10.96710
G1 X108.361 Y152.750 E11.24632
G1 X106.750 Y151.139 E11.30272
G1 X106.750 Y150.043 E11.32986
G1 X106.457 Y149.750 E11.34011
G1 X105.361 Y149.750 E11.36725
G1 X103.750 Y148.139 E11.42365
G1 X103.750 Y147.043 E11.45079
G1 X103.457 Y146.750 E11.46105
G1 X102.361 Y146.750 E11.48819
G1 X100.750 Y145.139 E11.54459
G1 X100.750 Y130.861 E11.89808
G1 X102.361 Y129.250 E11.95448
G1 X103.457 Y129.250 E11.98162
G1 X103.750 Y128.957 E11.99188
G1 X103.750 Y127.861 E12.01901
G1 X105.361 Y126.250 E12.07542
G1 X106.457 Y126.250 E12.10256
G1 X106.750 Y125.957 E12.11281
G1 X106.750 Y124.861 E12.13995
G1 X108.361 Y123.250 E12.19635
G1 X109.457 Y123.250 E12.22349
G1 X109.750 Y122.957 E12.23375
G1 X109.750 Y121.861 E12.26088
G1 X111.361 Y120.250 E12.31729
G1 X112.457 Y120.250 E12.34442
G1 X112.750 Y119.957 E12.35468
G1 X112.750 Y118.861 E12.38182
G1 X114.361 Y117.250 E12.43822
G1 X115.382 Y117.250 E12.46350
G1 X115.957 Y117.750 F7800.000
G1 X116.250 Y117.457 E12.47376 F1800.000
G1 X116.250 Y116.068 E12.50815
G1 X117.568 Y114.750 E12.55429
G1 X118.957 Y114.750 E12.58868
G1 X119.250 Y114.457 E12.59894
G1 X119.250 Y113.068 E12.63333
G1 X120.568 Y111.750 E12.67948
G1 X125.432 Y111.750 E12.79990
G1 X126.750 Y113.068 E12.84604
G1 X126.750 Y114.457 E12.88043
G1 X127.043 Y114.750 E12.89069
G1 X128.432 Y114.750 E12.92508
G1 X129.750 Y116.068 E12.97122
G1 X129.750 Y117.457 E13.00562
G1 X130.043 Y117.750 E13.01587
G1 X131.432 Y117.750 E13.05026
G1 X132.750 Y119.068 E13.09641
G1 X132.750 Y120.457 E13.13080
G1 X133.043 Y120.750 E13.14105
G1 X134.432 Y120.750 E13.17544
G1 X135.750 Y122.068 E13.22159
G1 X135.750 Y123.457 E13.25598
G1 X136.043 Y123.750 E13.26623
G1 X137.432 Y123.750 E13.30062
G1 X138.750 Y125.068 E13.34677
G1 X138.750 Y126.457 E13.38116
G1 X139.043 Y126.750 E13.39142
G1 X140.432 Y126.750 E13.42581
G1 X141.750 Y128.068 E13.47195
G1 X141.750 Y129.457 E13.50634
G1 X142.043 Y129.750 E13.51660
G1 X143.432 Y129.750 E13.55099
G1 X144.750 Y131.068 E13.59714
G1 X144.750 Y144.932 E13.94037
G1 X143.432 Y146.250 E13.98652
G1 X142.043 Y146.250 E14.02091
G1 X141.750 Y146.543 E14.03116
G1 X141.750 Y147.932 E14.06555
G1 X140.432 Y149.250 E14.11170
G1 X139.043 Y149.250 E14.14609
G1 X138.750 Y149.543 E14.15635
G1 X138.750 Y150.932 E14.19074
G1 X137.432 Y152.250 E14.23688
G1 X126.568 Y152.250 E14.50585
G1 X125.250 Y150.932 E14.55199
G1 X125.250 Y149.543 E14.58638
G1 X124.957 Y149.250 E14.59664
G1 X123.568 Y149.250 E14.63103
G1 X123.207 Y148.889 E14.64367
G1 X122.793 Y148.889 E14.65392
G1 X122.432 Y149.250 E14.66656
G1 X121.043 Y149.250 E14.70095
G1 X120.750 Y149.543 E14.71120
G1 X120.750 Y150.932 E14.74559
G1 X119.432 Y152.250 E14.79174
G1 X108.568 Y152.250 E15.06070
G1 X107.250 Y150.932 E15.10685
G1 X107.250 Y149.543 E15.14124
G1 X106.957 Y149.250 E15.15150
G1 X105.568 Y149.250 E15.18589
G1 X104.250 Y147.932 E15.23203
G1 X104.250 Y146.543 E15.26642
G1 X103.957 Y146.250 E15.27668
G1 X102.568 Y146.250 E15.31107
G1 X101.250 Y144.932 E15.35721
G1 X101.250 Y131.068 E15.70045
G1 X102.568 Y129.750 E15.74660
G1 X103.957 Y129.750 E15.78099
G1 X104.250 Y129.457 E15.79124
G1 X104.250 Y128.068 E15.82563
G1 X105.568 Y126.750 E15.87178
G1 X106.957 Y126.750 E15.90617
G1 X107.250 Y126.457 E15.91643
G1 X107.250 Y125.068 E15.95082
G1 X108.568 Y123.750 E15.99696
G1 X109.957 Y123.750 E16.03135
G1 X110.250 Y123.457 E16.04161
G1 X110.250 Y122.068 E16.07600
G1 X111.568 Y120.750 E16.12214
G1 X112.957 Y120.750 E16.15653
G1 X113.250 Y120.457 E16.16679
G1 X113.250 Y119.068 E16.20118
G1 X114.568 Y117.750 E16.24733
G1 X115.882 Y117.750 E16.27986
G1 X116.457 Y118.250 F7800.000
G1 X116.750 Y117.957 E16.29011 F1800.000
G1 X116.750 Y116.275 E16.33176
G1 X117.775 Y115.250 E16.36765
G1 X119.457 Y115.250 E16.40929
G1 X119.750 Y114.957 E16.41954
G1 X119.750 Y113.275 E16.46119
G1 X120.775 Y112.250 E16.49708
G1 X125.225 Y112.250 E16.60724
G1 X126.250 Y113.275 E16.64313
G1 X126.250 Y114.957 E16.68478
G1 X126.543 Y115.250 E16.69503
G1 X128.225 Y115.250 E16.73667
G1 X129.250 Y116.275 E16.77256
G1 X129.250 Y117.957 E16.81421
G1 X129.543 Y118.250 E16.82446
G1 X131.225 Y118.250 E16.86610
G1 X132.250 Y119.275 E16.90199
G1 X132.250 Y120.957 E16.94364
G1 X132.543 Y121.250 E16.95389
G1 X134.225 Y121.250 E16.99553
G1 X135.250 Y122.275 E17.03142
G1 X135.250 Y123.957 E17.07307
G1 X135.543 Y124.250 E17.08332
G1 X137.225 Y124.250 E17.12496
G1 X138.250 Y125.275 E17.16085
G1 X138.250 Y126.957 E17.20250
G1 X138.543 Y127.250 E17.21275
G1 X140.225 Y127.250 E17.25439
G1 X141.250 Y128.275 E17.29028
G1 X141.250 Y129.957 E17.33193
G1 X141.543 Y130.250 E17.34218
G1 X143.225 Y130.250 E17.38382
G1 X144.250 Y131.275 E17.41971
G1 X144.250 Y144.725 E17.75270
G1 X143.225 Y145.750 E17.78859
G1 X141.543 Y145.750 E17.83023
G1 X141.250 Y146.043 E17.84048
G1 X141.250 Y147.725 E17.88213
G1 X140.225 Y148.750 E17.91802
G1 X138.543 Y148.750 E17.95966
G1 X138.250 Y149.043 E17.96991
G1 X138.250 Y150.725 E18.01156
G1 X137.225 Y151.750 E18.04745
