; generated by Slic3r 1.1.7 on 2015-04-10 at 14:09:34

; perimeters extrusion width = 0.50mm
; infill extrusion width = 1.02mm
; solid infill extrusion width = 0.85mm
; top infill extrusion width = 0.43mm

G21 ; set units to millimeters
M107
M190 S60 ; wait for bed temperature to be reached
;--------------------------------------
G28 ; home all axes
G1 Z5 F500 ; lift nozzle
M109 S230 ; wait for extruder temp to be reached
M3001 ; Aktivate Z-Compensation 
; Move Z-axis n-steps up (see manual)
;M3004 S0 ; + n-steps bed down // - n-steps bed up! old Firmware Version <= 0.91.48
;M3006 S0 ; configure the static z-offset (units are [um])
G90 ; use absolute coordinates
M82 ; use absolute distances for extrusion
G92 E0 ; start line
G1 F300 E-0.5
G1 X230 Y22 Z0.35 F5000
G1 F800 E13
G1 X20 E25 F1000
; Acceleration up to...
; Acc printing
M201 X3000 Y3000 Z100
; Acc travel
M202 X3000 Y3000 Z100
; ZJERK 
M205 Z0.1
;--------------------------------------
G90 ; use absolute coordinates
G92 E0
M82 ; use absolute distances for extrusion
G1 F960.000 E-1.00000
G92 E0
G1 Z0.350 F7800.000
G1 X170.575 Y122.007 F7800.000
G1 E1.00000 F960.000
G1 X170.868 Y122.300 E1.01025 F1800.000
G1 X172.043 Y122.300 E1.03934
G1 X174.825 Y125.082 E1.13676
G1 X174.825 Y160.118 E2.00413
G1 X172.043 Y162.900 E2.10156
G1 X170.868 Y162.900 E2.13064
G1 X170.575 Y163.193 E2.14089
G1 X170.575 Y188.918 E2.77777
G1 X167.793 Y191.700 E2.87519
G1 X73.957 Y191.700 E5.19830
G1 X71.175 Y188.918 E5.29572
G1 X71.175 Y75.082 E8.11399
G1 X73.957 Y72.300 E8.21141
G1 X167.793 Y72.300 E10.53452
G1 X170.575 Y75.082 E10.63194
G1 X170.575 Y121.932 E11.79182
G1 X170.075 Y122.507 F7800.000
G1 X170.368 Y122.800 E11.80208 F1800.000
G1 X171.835 Y122.800 E11.83841
G1 X174.325 Y125.290 E11.92557
G1 X174.325 Y159.910 E12.78270
G1 X171.835 Y162.400 E12.86986
G1 X170.368 Y162.400 E12.90620
G1 X170.075 Y162.693 E12.91645
G1 X170.075 Y188.710 E13.56058
G1 X167.585 Y191.200 E13.64774
G1 X74.165 Y191.200 E15.96060
G1 X71.675 Y188.710 E16.04777
G1 X71.675 Y75.290 E18.85578
G1 X74.165 Y72.800 E18.94294
G1 X167.585 Y72.800 E21.25580
G1 X170.075 Y75.290 E21.34297
G1 X170.075 Y122.432 E22.51010
G1 X169.575 Y123.007 F7800.000
G1 X169.868 Y123.300 E22.52035 F1800.000
G1 X171.628 Y123.300 E22.56394
G1 X173.825 Y125.497 E22.64085
G1 X173.825 Y159.703 E23.48772
G1 X171.628 Y161.900 E23.56463
G1 X169.868 Y161.900 E23.60821
G1 X169.575 Y162.193 E23.61847
G1 X169.575 Y188.503 E24.26984
G1 X167.378 Y190.700 E24.34676
G1 X74.372 Y190.700 E26.64936
G1 X72.175 Y188.503 E26.72627
G1 X72.175 Y75.497 E29.52403
G1 X74.372 Y73.300 E29.60094
G1 X167.378 Y73.300 E31.90354
G1 X169.575 Y75.497 E31.98045
G1 X169.575 Y122.932 E33.15483
G1 X169.075 Y123.007 F7800.000
G1 X169.075 Y123.507 E33.16721 F1800.000
G1 X169.368 Y123.800 E33.17747
G1 X171.421 Y123.800 E33.22830
G1 X173.325 Y125.704 E33.29496
G1 X173.325 Y159.496 E34.13157
G1 X171.421 Y161.400 E34.19823
G1 X169.368 Y161.400 E34.24906
G1 X169.075 Y161.693 E34.25932
G1 X169.075 Y188.296 E34.91795
G1 X167.171 Y190.200 E34.98460
G1 X74.579 Y190.200 E37.27695
G1 X72.675 Y188.296 E37.34361
G1 X72.675 Y75.704 E40.13111
G1 X74.579 Y73.800 E40.19776
G1 X167.171 Y73.800 E42.49011
G1 X169.075 Y75.704 E42.55677 F1800.000
G1 X169.075 Y122.932 E43.72602
G1 X168.575 Y123.007 F7800.000
G1 X168.575 Y124.007 E43.75078 F1800.000
G1 X168.868 Y124.300 E43.76103
G1 X171.214 Y124.300 E43.81912
G1 X172.825 Y125.911 E43.87552
G1 X172.825 Y159.289 E44.70188
G1 X171.214 Y160.900 E44.75828
G1 X168.868 Y160.900 E44.81637
G1 X168.575 Y161.193 E44.82662
G1 X168.575 Y188.089 E45.49250
G1 X166.964 Y189.700 E45.54891
G1 X74.786 Y189.700 E47.83100
G1 X73.175 Y188.089 E47.88740
G1 X73.175 Y75.911 E50.66465
G1 X74.786 Y74.300 E50.72105
G1 X166.964 Y74.300 E53.00314
G1 X168.575 Y75.911 E53.05955
G1 X168.575 Y122.932 E54.22367 F1800.000
G1 X168.075 Y123.007 F7800.000
G1 X168.075 Y124.507 E54.26081 F1800.000
G1 X168.368 Y124.800 E54.27106
G1 X171.007 Y124.800 E54.33640
G1 X172.325 Y126.118 E54.38254
G1 X172.325 Y159.082 E55.19865
G1 X171.007 Y160.400 E55.24479
G1 X168.368 Y160.400 E55.31013
G1 X168.075 Y160.693 E55.32039
G1 X168.075 Y187.882 E55.99352
G1 X166.757 Y189.200 E56.03967
G1 X74.993 Y189.200 E58.31151
G1 X73.675 Y187.882 E58.35765
G1 X73.675 Y76.118 E61.12464
G1 X74.993 Y74.800 E61.17079
G1 X166.757 Y74.800 E63.44263
G1 X168.075 Y76.118 E63.48878 F1800.000
G1 X168.075 Y122.932 E64.64777
G1 X167.575 Y123.007 F7800.000
G1 X167.575 Y125.007 E64.69729 F1800.000
G1 X167.868 Y125.300 E64.70754
G1 X170.800 Y125.300 E64.78013
G1 X171.825 Y126.325 E64.81602
G1 X171.825 Y158.875 E65.62187
G1 X170.800 Y159.900 E65.65776
G1 X167.868 Y159.900 E65.73035
G1 X167.575 Y160.193 E65.74061
G1 X167.575 Y187.675 E66.42099
G1 X166.550 Y188.700 E66.45688
G1 X75.200 Y188.700 E68.71847
G1 X74.175 Y187.675 E68.75436
G1 X74.175 Y76.325 E71.51109
G1 X75.200 Y75.300 E71.54699
G1 X166.550 Y75.300 E73.80857
G1 X167.575 Y76.325 E73.84446
G1 X167.575 Y122.932 E74.99833 F1800.000
G1 X167.075 Y123.007 F7800.000
G1 X167.075 Y125.507 E75.06023 F1800.000
G1 X167.368 Y125.800 E75.07048
G1 X170.593 Y125.800 E75.15032
G1 X171.325 Y126.532 E75.17596
G1 X171.325 Y158.668 E75.97155
G1 X170.593 Y159.400 E75.99719
G1 X167.368 Y159.400 E76.07703
G1 X167.075 Y159.693 E76.08728
G1 X167.075 Y187.468 E76.77492
G1 X166.343 Y188.200 E76.80055
G1 X75.407 Y188.200 E79.05189
G1 X74.675 Y187.468 E79.07752
G1 X74.675 Y76.532 E81.82400
G1 X75.407 Y75.800 E81.84964
G1 X166.343 Y75.800 E84.10097
G1 X167.075 Y76.532 E84.12661 F1800.000
G1 X167.075 Y122.932 E85.27535
G1 X166.575 Y123.007 F7800.000
G1 X166.575 Y126.007 E85.34962 F1800.000
G1 X166.868 Y126.300 E85.35988
G1 X170.386 Y126.300 E85.44697
G1 X170.825 Y126.739 E85.46235
G1 X170.825 Y158.461 E86.24769
G1 X170.386 Y158.900 E86.26307
G1 X166.868 Y158.900 E86.35016
G1 X166.575 Y159.193 E86.36042
G1 X166.575 Y187.261 E87.05530
G1 X166.136 Y187.700 E87.07068
G1 X75.614 Y187.700 E89.31176
G1 X75.175 Y187.261 E89.32714
G1 X75.175 Y76.739 E92.06337
G1 X75.614 Y76.300 E92.07875
G1 X166.136 Y76.300 E94.31982
G1 X166.575 Y76.739 E94.33521
G1 X166.575 Y122.932 E95.47882 F1800.000
G1 F960.000 E94.47882
G92 E0
G1 X170.325 Y126.946 F7800.000
G1 E1.00000 F960.000
G1 X170.325 Y158.254 E1.77508 F1800.000
G1 X170.179 Y158.400 E1.78021
G1 X166.368 Y158.400 E1.87455
G1 X166.075 Y158.693 E1.88481
G1 X166.075 Y187.054 E2.58695
G1 X165.929 Y187.200 E2.59207
G1 X75.821 Y187.200 E4.82289
G1 X75.675 Y187.054 E4.82802
G1 X75.675 Y76.946 E7.55399
G1 X75.821 Y76.800 E7.55912
G1 X165.929 Y76.800 E9.78994
G1 X166.075 Y76.946 E9.79507
G1 X166.075 Y126.507 E11.02206
G1 X166.368 Y126.800 E11.03232
G1 X170.179 Y126.800 E11.12666
G1 X170.272 Y126.893 E11.12993
G1 F960.000 E10.12993
G92 E0
G1 X165.575 Y157.900 F7800.000
G1 E1.00000 F960.000
G1 X165.575 Y186.700 E1.71301 F1260.000
G1 X76.175 Y186.700 E3.92633
G1 X76.175 Y77.300 E6.63479
G1 X165.575 Y77.300 E8.84811
G1 X165.575 Y127.300 E10.08598
G1 X169.825 Y127.300 E10.19120
G1 X169.825 Y157.900 E10.94878
G1 X165.650 Y157.900 E11.05214
G1 X165.075 Y157.900 F7800.000
G1 X165.075 Y157.400 F7800.000
G1 X165.075 Y186.200 E11.76515 F1800.000
G1 X76.675 Y186.200 E13.95371
G1 X76.675 Y77.800 E16.63742
G1 X165.075 Y77.800 E18.82597
G1 X165.075 Y127.800 E20.06384
G1 X169.325 Y127.800 E20.16906
G1 X169.325 Y157.400 E20.90188
G1 X165.150 Y157.400 E21.00525
G1 X168.969 Y132.461 F7800.000
G1 X114.664 Y78.156 E23.13853 F1800.000
G1 X113.870 Y78.156 E23.16059
G1 X168.969 Y133.255 E25.32506
G1 X168.969 Y134.049 E25.34711
G1 X113.076 Y78.156 E27.54277
G1 X112.283 Y78.156 E27.56482
G1 X168.969 Y134.842 E29.79167
G1 X168.969 Y135.636 E29.81372
G1 X111.489 Y78.156 E32.07176
G1 X110.695 Y78.156 E32.09381
G1 X168.969 Y136.430 E34.38303
G1 X168.969 Y137.224 E34.40508
G1 X109.901 Y78.156 E36.72549
G1 X109.107 Y78.156 E36.74754
G1 X168.969 Y138.018 E39.09914
G1 X168.969 Y138.812 E39.12119
G1 X108.313 Y78.156 E41.50397
G1 X107.519 Y78.156 E41.52602
G1 X168.969 Y139.606 E43.93999
G1 X168.969 Y140.400 E43.96204
G1 X106.725 Y78.156 E46.40720
G1 X105.931 Y78.156 E46.42925
G1 X168.969 Y141.194 E48.90559
G1 X168.969 Y141.987 E48.92764
G1 X105.138 Y78.156 E51.43517
G1 X104.344 Y78.156 E51.45722
G1 X168.969 Y142.781 E53.99593
G1 X168.969 Y143.575 E54.01799
G1 X103.550 Y78.156 E56.58789
G1 X102.756 Y78.156 E56.60994
G1 X168.969 Y144.369 E59.21103
G1 X168.969 Y145.163 E59.23308
G1 X101.962 Y78.156 E61.86535
G1 X101.168 Y78.156 E61.88741
G1 X168.969 Y145.957 E64.55087
G1 X168.969 Y146.751 E64.57292
G1 X100.374 Y78.156 E67.26757
G1 X99.580 Y78.156 E67.28962
G1 X168.969 Y147.545 E70.01545
G1 X168.969 Y148.338 E70.03750
G1 X98.787 Y78.156 E72.79452
G1 X97.993 Y78.156 E72.81658
G1 X168.969 Y149.132 E75.60478
G1 X168.969 Y149.926 E75.62684
G1 X97.199 Y78.156 E78.44623
G1 X96.405 Y78.156 E78.46828
G1 X168.969 Y150.720 E81.31886
G1 X168.969 Y151.514 E81.34092
G1 X95.611 Y78.156 E84.22268
G1 X94.817 Y78.156 E84.24473
G1 X168.969 Y152.308 E87.15769
G1 X168.969 Y153.102 E87.17974
G1 X94.023 Y78.156 E90.12388
G1 X93.229 Y78.156 E90.14593
G1 X168.969 Y153.896 E93.12126
G1 X168.969 Y154.690 E93.14331
G1 X92.435 Y78.156 E96.14983
G1 X91.642 Y78.156 E96.17188
G1 X168.969 Y155.483 E99.20958
G1 X168.969 Y156.277 E99.23163
G1 X90.848 Y78.156 E102.30052
G1 X90.054 Y78.156 E102.32257
G1 X168.941 Y157.044 E105.42157
G1 X168.148 Y157.044 E105.44362
G1 X89.260 Y78.156 E108.54262
G1 X88.466 Y78.156 E108.56467
G1 X167.354 Y157.044 E111.66367
G1 X166.560 Y157.044 E111.68572
G1 X87.672 Y78.156 E114.78472
G1 X86.878 Y78.156 E114.80677
G1 X165.766 Y157.044 E117.90577
G1 X164.972 Y157.044 E117.92782
G1 X86.084 Y78.156 E121.02682
G1 X85.290 Y78.156 E121.04887
G1 X164.719 Y157.584 E124.16911
G1 X164.719 Y158.378 E124.19117
G1 X84.497 Y78.156 E127.34259
G1 X83.703 Y78.156 E127.36464
G1 X164.719 Y159.172 E130.54725
G1 X164.719 Y159.966 E130.56931
G1 X82.909 Y78.156 E133.78310
G1 X82.115 Y78.156 E133.80516
G1 X164.719 Y160.760 E137.05014
G1 X164.719 Y161.554 E137.07219
G1 X81.321 Y78.156 E140.34837
G1 X80.527 Y78.156 E140.37042
G1 X164.719 Y162.348 E143.67778
G1 X164.719 Y163.142 E143.69983
G1 X79.733 Y78.156 E147.03837
G1 X78.939 Y78.156 E147.06043
G1 X164.719 Y163.936 E150.43016
G1 X164.719 Y164.729 E150.45221
G1 X78.146 Y78.156 E153.85313
G1 X77.352 Y78.156 E153.87518
G1 X164.719 Y165.523 E157.30728
G1 X164.719 Y166.317 E157.32934
G1 X77.031 Y78.630 E160.77403
G1 X77.031 Y79.423 E160.79608
G1 X164.719 Y167.111 E164.24078
G1 X164.719 Y167.905 E164.26283
G1 X77.031 Y80.217 E167.70752
G1 X77.031 Y81.011 E167.72958
G1 X164.719 Y168.699 E171.17427
G1 X164.719 Y169.493 E171.19632
G1 X77.031 Y81.805 E174.64102
G1 X77.031 Y82.599 E174.66307
G1 X164.719 Y170.287 E178.10776
G1 X164.719 Y171.080 E178.12981
G1 X77.031 Y83.393 E181.57451
G1 X77.031 Y84.187 E181.59656
G1 X164.719 Y171.874 E185.04125
G1 X164.719 Y172.668 E185.06331
G1 X77.031 Y84.981 E188.50800
G1 X77.031 Y85.775 E188.53005
G1 X164.719 Y173.462 E191.97475
G1 X164.719 Y174.256 E191.99680
G1 X77.031 Y86.568 E195.44149
G1 X77.031 Y87.362 E195.46354
G1 X164.719 Y175.050 E198.90824
G1 X164.719 Y175.844 E198.93029
G1 X77.031 Y88.156 E202.37498
G1 X77.031 Y88.950 E202.39704
G1 X164.719 Y176.638 E205.84173
G1 X164.719 Y177.432 E205.86378
G1 X77.031 Y89.744 E209.30848
G1 X77.031 Y90.538 E209.33053
G1 X164.719 Y178.225 E212.77522
G1 X164.719 Y179.019 E212.79728
G1 X77.031 Y91.332 E216.24197
G1 X77.031 Y92.126 E216.26402
G1 X164.719 Y179.813 E219.70872
G1 X164.719 Y180.607 E219.73077
G1 X77.031 Y92.920 E223.17546
G1 X77.031 Y93.713 E223.19751
G1 X164.719 Y181.401 E226.64221
G1 X164.719 Y182.195 E226.66426
G1 X77.031 Y94.507 E230.10895
G1 X77.031 Y95.301 E230.13101
G1 X164.719 Y182.989 E233.57570
G1 X164.719 Y183.783 E233.59775
G1 X77.031 Y96.095 E237.04245
G1 X77.031 Y96.889 E237.06450
G1 X164.719 Y184.577 E240.50919
G1 X164.719 Y185.370 E240.53125
G1 X77.031 Y97.683 E243.97594
G1 X77.031 Y98.477 E243.99799
G1 X164.398 Y185.844 E247.43010
G1 X163.604 Y185.844 E247.45215
G1 X77.031 Y99.271 E250.85307
G1 X77.031 Y100.064 E250.87512
G1 X162.811 Y185.844 E254.24485
G1 X162.017 Y185.844 E254.26690
G1 X77.031 Y100.858 E257.60545
G1 X77.031 Y101.652 E257.62750
G1 X161.223 Y185.844 E260.93486
G1 X160.429 Y185.844 E260.95691
G1 X77.031 Y102.446 E264.23308
G1 X77.031 Y103.240 E264.25513
G1 X159.635 Y185.844 E267.50012
G1 X158.841 Y185.844 E267.52217
G1 X77.031 Y104.034 E270.73597
G1 X77.031 Y104.828 E270.75802
G1 X158.047 Y185.844 E273.94063
G1 X157.253 Y185.844 E273.96269
G1 X77.031 Y105.622 E277.11411
G1 X77.031 Y106.416 E277.13616
G1 X156.459 Y185.844 E280.25640
G1 X155.666 Y185.844 E280.27845
G1 X77.031 Y107.209 E283.36750
G1 X77.031 Y108.003 E283.38956
G1 X154.872 Y185.844 E286.44742
G1 X154.078 Y185.844 E286.46947
G1 X77.031 Y108.797 E289.49615
G1 X77.031 Y109.591 E289.51820
G1 X153.284 Y185.844 E292.51370
G1 X152.490 Y185.844 E292.53575
G1 X77.031 Y110.385 E295.50005
G1 X77.031 Y111.179 E295.52211
G1 X151.696 Y185.844 E298.45522
G1 X150.902 Y185.844 E298.47728
G1 X77.031 Y111.973 E301.37921
G1 X77.031 Y112.767 E301.40126
G1 X150.108 Y185.844 E304.27200
G1 X149.315 Y185.844 E304.29406
G1 X77.031 Y113.560 E307.13361
G1 X77.031 Y114.354 E307.15567
G1 X148.521 Y185.844 E309.96404
G1 X147.727 Y185.844 E309.98609
G1 X77.031 Y115.148 E312.76328
G1 X77.031 Y115.942 E312.78533
G1 X146.933 Y185.844 E315.53133
G1 X146.139 Y185.844 E315.55338
G1 X77.031 Y116.736 E318.26819
G1 X77.031 Y117.530 E318.29024
G1 X145.345 Y185.844 E320.97387
G1 X144.551 Y185.844 E320.99592
G1 X77.031 Y118.324 E323.64836
G1 X77.031 Y119.118 E323.67041
G1 X143.757 Y185.844 E326.29166
G1 X142.963 Y185.844 E326.31371
G1 X77.031 Y119.912 E328.90378
G1 X77.031 Y120.705 E328.92583
G1 X142.170 Y185.844 E331.48471
G1 X141.376 Y185.844 E331.50676
G1 X77.031 Y121.499 E334.03445
G1 X77.031 Y122.293 E334.05650
G1 X140.582 Y185.844 E336.55301
G1 X139.788 Y185.844 E336.57506
G1 X77.031 Y123.087 E339.04038
G1 X77.031 Y123.881 E339.06243
G1 X138.994 Y185.844 E341.49656
G1 X138.200 Y185.844 E341.51862
G1 X77.031 Y124.675 E343.92156
G1 X77.031 Y125.469 E343.94361
G1 X137.406 Y185.844 E346.31537
G1 X136.612 Y185.844 E346.33742
G1 X77.031 Y126.263 E348.67799
G1 X77.031 Y127.056 E348.70005
G1 X135.819 Y185.844 E351.00943
G1 X135.025 Y185.844 E351.03148
G1 X77.031 Y127.850 E353.30968
G1 X77.031 Y128.644 E353.33173
G1 X134.231 Y185.844 E355.57875
G1 X133.437 Y185.844 E355.60080
G1 X77.031 Y129.438 E357.81662
G1 X77.031 Y130.232 E357.83867
G1 X132.643 Y185.844 E360.02331
G1 X131.849 Y185.844 E360.04537
G1 X77.031 Y131.026 E362.19882
G1 X77.031 Y131.820 E362.22087
G1 X131.055 Y185.844 E364.34313
G1 X130.261 Y185.844 E364.36519
G1 X77.031 Y132.614 E366.45626
G1 X77.031 Y133.408 E366.47832
G1 X129.467 Y185.844 E368.53821
G1 X128.674 Y185.844 E368.56026
G1 X77.031 Y134.201 E370.58897
G1 X77.031 Y134.995 E370.61102
G1 X127.880 Y185.844 E372.60854
G1 X127.086 Y185.844 E372.63059
G1 X77.031 Y135.789 E374.59692
G1 X77.031 Y136.583 E374.61897
G1 X126.292 Y185.844 E376.55412
G1 X125.498 Y185.844 E376.57617
G1 X77.031 Y137.377 E378.48013
G1 X77.031 Y138.171 E378.50218
G1 X124.704 Y185.844 E380.37495
G1 X123.910 Y185.844 E380.39700
G1 X77.031 Y138.965 E382.23859
G1 X77.031 Y139.759 E382.26064
G1 X123.116 Y185.844 E384.07104
G1 X122.323 Y185.844 E384.09309
G1 X77.031 Y140.552 E385.87230
G1 X77.031 Y141.346 E385.89435
G1 X121.529 Y185.844 E387.64238
G1 X120.735 Y185.844 E387.66443
G1 X77.031 Y142.140 E389.38127
G1 X77.031 Y142.934 E389.40332
G1 X119.941 Y185.844 E391.08897
G1 X119.147 Y185.844 E391.11103
G1 X77.031 Y143.728 E392.76549
G1 X77.031 Y144.522 E392.78754
