; generated by Slic3r 1.1.7 on 2015-04-10 at 09:30:16

; perimeters extrusion width = 0.50mm
; infill extrusion width = 1.02mm
; solid infill extrusion width = 0.85mm
; top infill extrusion width = 0.43mm

G21 ; set units to millimeters
M107
M190 S60 ; wait for bed temperature to be reached
;--------------------------------------
G28 ; home all axes
G1 Z5 F500 ; lift nozzle
M109 S230 ; wait for extruder temp to be reached
M3001 ; Aktivate Z-Compensation 
; Move Z-axis n-steps up (see manual)
;M3004 S0 ; + n-steps bed down // - n-steps bed up! old Firmware Version <= 0.91.48
;M3006 S0 ; configure the static z-offset (units are [um])
G90 ; use absolute coordinates
M82 ; use absolute distances for extrusion
G92 E0 ; start line
G1 F300 E-0.5
G1 X230 Y22 Z0.35 F5000
G1 F800 E13
G1 X20 E25 F1000
; Acceleration up to...
; Acc printing
M201 X3000 Y3000 Z100
; Acc travel
M202 X3000 Y3000 Z100
; ZJERK 
M205 Z0.1
;--------------------------------------
G90 ; use absolute coordinates
G92 E0
M82 ; use absolute distances for extrusion
G1 F960.000 E-1.00000
G92 E0
G1 Z0.350 F7800.000
G1 X92.496 Y99.258 F7800.000
G1 E1.00000 F960.000
G1 X93.626 Y98.240 E1.03764 F1800.000
G1 X94.219 Y97.733 E1.05698
G1 X94.854 Y97.210 E1.07734
G1 X96.052 Y96.274 E1.11499
G1 X96.713 Y95.784 E1.13535
G1 X97.920 Y94.939 E1.17183
G1 X99.304 Y94.039 E1.21269
G1 X100.607 Y93.256 E1.25033
G1 X101.287 Y92.871 E1.26967
G1 X102.702 Y92.118 E1.30937
G1 X104.027 Y91.472 E1.34585
G1 X104.780 Y91.127 E1.36635
G1 X105.534 Y90.799 E1.38671
G1 X106.944 Y90.230 E1.42436
G1 X108.450 Y89.681 E1.46406
G1 X109.897 Y89.211 E1.50170
G1 X110.685 Y88.978 E1.52206
G1 X112.154 Y88.584 E1.55971
G1 X112.954 Y88.392 E1.58007
G1 X114.441 Y88.076 E1.61771
G1 X115.209 Y87.933 E1.63705
G1 X116.793 Y87.683 E1.67675
G1 X118.302 Y87.497 E1.71439
G1 X119.120 Y87.418 E1.73475
G1 X120.590 Y87.315 E1.77124
G1 X121.418 Y87.278 E1.79174
G1 X123.021 Y87.250 E1.83143
G1 X123.802 Y87.257 E1.85077 F1800.000
G1 X125.321 Y87.310 E1.88841
G1 X126.921 Y87.422 E1.92811
G1 X127.698 Y87.497 E1.94745
G1 X129.207 Y87.683 E1.98509
G1 X130.791 Y87.933 E2.02479
G1 X132.238 Y88.214 E2.06127
G1 X133.046 Y88.392 E2.08177
G1 X134.602 Y88.780 E2.12147
G1 X136.019 Y89.186 E2.15795
G1 X136.809 Y89.434 E2.17844
G1 X138.286 Y89.942 E2.21712
G1 X139.783 Y90.516 E2.25681
G1 X141.182 Y91.110 E2.29446
G1 X141.893 Y91.434 E2.31379
G1 X143.335 Y92.137 E2.35349
G1 X144.027 Y92.498 E2.37283
G1 X145.357 Y93.235 E2.41047
G1 X146.731 Y94.061 E2.45017
G1 X147.967 Y94.863 E2.48665
G1 X148.651 Y95.331 E2.50715
G1 X149.948 Y96.274 E2.54685
G1 X150.567 Y96.749 E2.56619
G1 X151.749 Y97.706 E2.60383
G1 X152.959 Y98.758 E2.64353
G1 X153.535 Y99.286 E2.66286
G1 X154.628 Y100.342 E2.70050
G1 X155.742 Y101.496 E2.74020
G1 X156.760 Y102.626 E2.77785
G1 X157.267 Y103.220 E2.79720
G1 X158.276 Y104.465 E2.83688
G1 X159.191 Y105.680 E2.87452
G1 X159.645 Y106.316 E2.89387
G1 X160.542 Y107.645 E2.93356
G1 X160.961 Y108.304 E2.95290
G1 X161.721 Y109.567 E2.98938
G1 X162.502 Y110.973 E3.02922
G1 X163.230 Y112.401 E3.06890
G1 X163.873 Y113.780 E3.10655
G1 X164.185 Y114.496 E3.12590
G1 X164.785 Y115.982 E3.16559
G1 X165.305 Y117.411 E3.20322
G1 X165.553 Y118.152 E3.22258
G1 X166.022 Y119.685 E3.26226
G1 X166.231 Y120.438 E3.28160
G1 X166.598 Y121.914 E3.31925
G1 X166.932 Y123.482 E3.35894
G1 X167.188 Y124.933 E3.39543
G1 X167.312 Y125.752 E3.41594
G1 X167.507 Y127.343 E3.45561
G1 X167.582 Y128.121 E3.47496
G1 X167.688 Y129.637 E3.51260
G1 X167.744 Y131.240 E3.55230
G1 X167.744 Y132.713 E3.58878
G1 X167.723 Y133.541 E3.60927
G1 X167.640 Y135.142 E3.64898
G1 X167.578 Y135.921 E3.66831
G1 X167.419 Y137.433 E3.70596
G1 X167.196 Y139.021 E3.74565
G1 X166.940 Y140.472 E3.78213
G1 X166.776 Y141.284 E3.80263
G1 X166.416 Y142.846 E3.84233
G1 X166.220 Y143.602 E3.86167
G1 X165.801 Y145.064 E3.89932
G1 X165.305 Y146.589 E3.93901
G1 X165.044 Y147.325 E3.95835
G1 X164.499 Y148.744 E3.99598
G1 X163.873 Y150.220 E4.03568
G1 X163.212 Y151.636 E4.07436
G1 X162.543 Y152.949 E4.11084
G1 X162.150 Y153.677 E4.13132
G1 X161.348 Y155.066 E4.17103
G1 X160.519 Y156.390 E4.20970
G1 X159.669 Y157.650 E4.24735
G1 X159.216 Y158.286 E4.26668
G1 X158.251 Y159.567 E4.30639
G1 X157.764 Y160.178 E4.32572
G1 X156.787 Y161.343 E4.36336
G1 X155.714 Y162.535 E4.40306
G1 X154.658 Y163.628 E4.44070
G1 X154.101 Y164.176 E4.46005
G1 X152.928 Y165.270 E4.49974
G1 X152.343 Y165.787 E4.51908
G1 X151.179 Y166.764 E4.55671
G1 X149.915 Y167.751 E4.59641
G1 X149.287 Y168.216 E4.61575
G1 X148.041 Y169.088 E4.65341
G1 X146.696 Y169.961 E4.69310
G1 X145.433 Y170.720 E4.72958
G1 X144.714 Y171.129 E4.75007
G1 X143.298 Y171.882 E4.78977
G1 X142.599 Y172.230 E4.80911
G1 X141.220 Y172.873 E4.84675
G1 X139.745 Y173.499 E4.88645
G1 X138.325 Y174.044 E4.92409
G1 X137.589 Y174.305 E4.94343
G1 X136.064 Y174.801 E4.98313
G1 X134.603 Y175.220 E5.02077
G1 X133.846 Y175.416 E5.04011
G1 X132.284 Y175.776 E5.07981
G1 X131.518 Y175.932 E5.09915
G1 X130.021 Y176.196 E5.13679
G1 X128.433 Y176.419 E5.17648
G1 X126.968 Y176.573 E5.21297
G1 X126.142 Y176.640 E5.23347
G1 X124.541 Y176.723 E5.27316
G1 X123.760 Y176.744 E5.29250
G1 X122.287 Y176.744 E5.32898
G1 X120.678 Y176.690 E5.36883
G1 X119.079 Y176.578 E5.40851
G1 X117.613 Y176.424 E5.44500
G1 X116.792 Y176.317 E5.46550
G1 X115.209 Y176.067 E5.50519
G1 X114.441 Y175.924 E5.52453
G1 X112.954 Y175.608 E5.56216
G1 X111.398 Y175.220 E5.60187
G1 X109.981 Y174.814 E5.63835
G1 X109.191 Y174.566 E5.65886
G1 X107.675 Y174.044 E5.69855
G1 X106.256 Y173.499 E5.73618
G1 X105.533 Y173.201 E5.75554
G1 X104.069 Y172.549 E5.79522
G1 X103.364 Y172.212 E5.81456
G1 X102.009 Y171.522 E5.85221
G1 X100.607 Y170.744 E5.89191
G1 X99.934 Y170.348 E5.91124
G1 X98.645 Y169.542 E5.94888
G1 X97.316 Y168.645 E5.98858
G1 X96.680 Y168.191 E6.00791
G1 X95.503 Y167.305 E6.04440
G1 X94.251 Y166.294 E6.08424
G1 X93.041 Y165.242 E6.12393
G1 X91.963 Y164.237 E6.16042
G1 X91.372 Y163.658 E6.18091
G1 X90.258 Y162.504 E6.22060
G1 X89.730 Y161.928 E6.23994
G1 X88.733 Y160.781 E6.27758
G1 X87.724 Y159.534 E6.31729
G1 X86.809 Y158.320 E6.35492
G1 X86.355 Y157.684 E6.37427
G1 X85.458 Y156.355 E6.41396
G1 X85.039 Y155.696 E6.43330
G1 X84.256 Y154.393 E6.47094
G1 X83.478 Y152.991 E6.51064
G1 X83.118 Y152.298 E6.52998
G1 X82.451 Y150.931 E6.56762
G1 X81.799 Y149.466 E6.60732
G1 X81.501 Y148.744 E6.62665
G1 X80.972 Y147.369 E6.66313
G1 X80.447 Y145.848 E6.70297
G1 X79.978 Y144.315 E6.74266
G1 X79.769 Y143.562 E6.76200
G1 X79.402 Y142.087 E6.79965
G1 X79.068 Y140.518 E6.83934
G1 X78.926 Y139.750 E6.85868
G1 X78.688 Y138.248 E6.89633
G1 X78.493 Y136.657 E6.93602
G1 X78.418 Y135.880 E6.95536
G1 X78.312 Y134.363 E6.99300
G1 X78.256 Y132.760 E7.03270
G1 X78.256 Y131.287 E7.06918
G1 X78.277 Y130.459 E7.08969
G1 X78.360 Y128.858 E7.12938
G1 X78.422 Y128.079 E7.14872
G1 X78.581 Y126.567 E7.18636
G1 X78.804 Y124.979 E7.22606
G1 X78.933 Y124.209 E7.24539
G1 X79.224 Y122.716 E7.28303
G1 X79.584 Y121.154 E7.32273
G1 X79.780 Y120.398 E7.34207
G1 X80.199 Y118.936 E7.37971
G1 X80.695 Y117.411 E7.41941
G1 X80.956 Y116.675 E7.43875
G1 X81.501 Y115.256 E7.47639
G1 X82.127 Y113.780 E7.51609
G1 X82.451 Y113.069 E7.53543
G1 X83.118 Y111.702 E7.57307
G1 X83.871 Y110.287 E7.61277
G1 X84.256 Y109.607 E7.63210
G1 X85.039 Y108.304 E7.66975
G1 X85.912 Y106.959 E7.70945
G1 X86.757 Y105.752 E7.74593
G1 X87.249 Y105.085 E7.76643
G1 X88.236 Y103.822 E7.80612
G1 X89.213 Y102.657 E7.84377
G1 X89.730 Y102.072 E7.86310
G1 X90.824 Y100.899 E7.90280
G1 X91.372 Y100.342 E7.92214
G1 X92.441 Y99.309 E7.95895
G1 X92.835 Y99.625 F7800.000
G1 X93.922 Y98.646 E7.99516 F1800.000
G1 X94.542 Y98.114 E8.01539
G1 X95.772 Y97.119 E8.05455
G1 X96.975 Y96.212 E8.09187
G1 X97.634 Y95.742 E8.11191
G1 X98.271 Y95.305 E8.13103
G1 X99.535 Y94.484 E8.16835
G1 X100.891 Y93.669 E8.20751
G1 X101.563 Y93.289 E8.22663
G1 X102.894 Y92.581 E8.26394
G1 X104.316 Y91.888 E8.30311
G1 X105.693 Y91.275 E8.34042
G1 X106.441 Y90.965 E8.36046
G1 X107.848 Y90.425 E8.39778
G1 X108.576 Y90.167 E8.41690
G1 X109.344 Y89.910 E8.43694
G1 X110.785 Y89.469 E8.47426
G1 X111.565 Y89.253 E8.49430
G1 X113.028 Y88.888 E8.53162
G1 X114.575 Y88.559 E8.57078
G1 X115.334 Y88.419 E8.58990
G1 X116.823 Y88.183 E8.62722
G1 X117.626 Y88.078 E8.64726
G1 X119.125 Y87.920 E8.68457
G1 X120.703 Y87.810 E8.72374
G1 X122.164 Y87.758 E8.75995
G1 X122.982 Y87.750 E8.78018
G1 X124.563 Y87.778 E8.81933 F1800.000
G1 X125.334 Y87.812 E8.83845
G1 X126.838 Y87.917 E8.87577
G1 X128.411 Y88.082 E8.91493
G1 X129.177 Y88.183 E8.93405
G1 X130.666 Y88.419 E8.97137
G1 X132.182 Y88.713 E9.00961
G1 X133.723 Y89.069 E9.04877
G1 X134.471 Y89.263 E9.06789
G1 X135.920 Y89.678 E9.10521
G1 X137.424 Y90.167 E9.14437
G1 X138.152 Y90.425 E9.16349
G1 X139.559 Y90.965 E9.20080
G1 X141.015 Y91.583 E9.23996
G1 X142.341 Y92.201 E9.27617
G1 X143.073 Y92.565 E9.29640
G1 X144.469 Y93.307 E9.33556
G1 X145.141 Y93.688 E9.35468
G1 X146.433 Y94.464 E9.39200
G1 X147.760 Y95.325 E9.43116
G1 X148.958 Y96.164 E9.46737
G1 X149.616 Y96.649 E9.48760
G1 X150.862 Y97.623 E9.52675
G1 X151.983 Y98.563 E9.56297
G1 X152.595 Y99.103 E9.58320
G1 X153.752 Y100.182 E9.62236
G1 X154.302 Y100.724 E9.64147
G1 X155.350 Y101.808 E9.67879
G1 X156.408 Y102.983 E9.71795
G1 X157.377 Y104.138 E9.75526
G1 X157.858 Y104.742 E9.77439
G1 X158.810 Y106.005 E9.81355
G1 X159.258 Y106.634 E9.83267
G1 X160.101 Y107.884 E9.86998
G1 X160.939 Y109.225 E9.90914
G1 X161.331 Y109.891 E9.92827
G1 X162.062 Y111.210 E9.96560
G1 X162.780 Y112.619 E10.00474
G1 X163.432 Y114.019 E10.04298
G1 X164.021 Y115.406 E10.08029
G1 X164.304 Y116.125 E10.09943
G1 X164.845 Y117.611 E10.13858
G1 X165.311 Y119.045 E10.17590
G1 X165.531 Y119.785 E10.19501
G1 X165.940 Y121.313 E10.23418
G1 X166.270 Y122.738 E10.27040
G1 X166.434 Y123.539 E10.29062
G1 X166.708 Y125.096 E10.32978
G1 X166.822 Y125.860 E10.34890
G1 X167.006 Y127.356 E10.38621
G1 X167.144 Y128.932 E10.42538
G1 X167.190 Y129.703 E10.44449
G1 X167.243 Y131.209 E10.48182
G1 X167.243 Y132.791 E10.52097
G1 X167.192 Y134.253 E10.55719
G1 X167.143 Y135.068 E10.57741
G1 X167.006 Y136.644 E10.61656
G1 X166.828 Y138.096 E10.65279
G1 X166.708 Y138.903 E10.67300
G1 X166.441 Y140.425 E10.71125
G1 X166.112 Y141.972 E10.75040
G1 X165.747 Y143.435 E10.78772
G1 X165.541 Y144.180 E10.80686
G1 X165.078 Y145.692 E10.84601
G1 X164.603 Y147.075 E10.88222
G1 X164.317 Y147.841 E10.90245
G1 X163.725 Y149.307 E10.94160
G1 X163.417 Y150.015 E10.96072
G1 X162.780 Y151.381 E10.99805
G1 X162.062 Y152.791 E11.03720
G1 X161.353 Y154.070 E11.07341
G1 X160.939 Y154.774 E11.09363
G1 X160.101 Y156.116 E11.13279
G1 X159.258 Y157.365 E11.17011
G1 X158.810 Y157.994 E11.18923
G1 X157.858 Y159.258 E11.22840
G1 X157.377 Y159.862 E11.24751
G1 X156.408 Y161.016 E11.28483
G1 X155.350 Y162.192 E11.32399
G1 X154.303 Y163.276 E11.36131
G1 X153.752 Y163.818 E11.38044
G1 X152.595 Y164.897 E11.41959
G1 X152.017 Y165.408 E11.43871
G1 X150.862 Y166.377 E11.47602
G1 X149.616 Y167.351 E11.51518
G1 X148.995 Y167.810 E11.53431
G1 X147.759 Y168.675 E11.57163
G1 X146.433 Y169.536 E11.61079
G1 X145.179 Y170.290 E11.64700
G1 X144.469 Y170.693 E11.66722
G1 X143.073 Y171.435 E11.70638
G1 X142.381 Y171.780 E11.72550
G1 X141.015 Y172.417 E11.76282
G1 X139.559 Y173.035 E11.80198
G1 X138.152 Y173.575 E11.83929
G1 X137.424 Y173.833 E11.85842
G1 X135.920 Y174.322 E11.89758
G1 X134.471 Y174.737 E11.93489
G1 X133.723 Y174.931 E11.95402
G1 X132.182 Y175.287 E11.99318
G1 X131.425 Y175.441 E12.01230
G1 X129.940 Y175.702 E12.04962
G1 X128.374 Y175.922 E12.08877
G1 X126.919 Y176.076 E12.12499
G1 X126.105 Y176.141 E12.14522
G1 X124.526 Y176.224 E12.18437
G1 X123.754 Y176.244 E12.20349
G1 X122.291 Y176.244 E12.23970
G1 X120.702 Y176.190 E12.27906
G1 X119.125 Y176.080 E12.31821
G1 X117.670 Y175.927 E12.35442
G1 X116.860 Y175.822 E12.37466
G1 X115.298 Y175.575 E12.41380
G1 X114.538 Y175.433 E12.43293
G1 X113.064 Y175.120 E12.47024
G1 X111.529 Y174.737 E12.50940
G1 X110.123 Y174.335 E12.54561
G1 X109.343 Y174.090 E12.56585
G1 X107.848 Y173.575 E12.60500
G1 X106.441 Y173.035 E12.64231
G1 X105.727 Y172.739 E12.66145
G1 X104.282 Y172.096 E12.70060
G1 X103.585 Y171.763 E12.71972
G1 X102.242 Y171.079 E12.75704
G1 X100.859 Y170.312 E12.79620
G1 X100.194 Y169.920 E12.81531
G1 X98.915 Y169.121 E12.85263
G1 X97.604 Y168.237 E12.89179
G1 X96.976 Y167.788 E12.91091
G1 X95.807 Y166.908 E12.94713
G1 X94.571 Y165.909 E12.98648
G1 X93.377 Y164.872 E13.02563
G1 X92.307 Y163.874 E13.06185
G1 X91.724 Y163.303 E13.08207
G1 X90.625 Y162.165 E13.12122
G1 X90.103 Y161.595 E13.14035
G1 X89.115 Y160.458 E13.17766
G1 X88.119 Y159.228 E13.21683
G1 X87.212 Y158.025 E13.25414
G1 X86.763 Y157.396 E13.27327
G1 X85.879 Y156.085 E13.31242
G1 X85.464 Y155.433 E13.33154
G1 X84.688 Y154.141 E13.36886
G1 X83.921 Y152.758 E13.40802
G1 X83.565 Y152.073 E13.42714
G1 X82.904 Y150.718 E13.46446
G1 X82.260 Y149.273 E13.50362
G1 X81.965 Y148.559 E13.52274
G1 X81.425 Y147.152 E13.56006
G1 X80.910 Y145.656 E13.59922
G1 X80.678 Y144.920 E13.61834
G1 X80.275 Y143.514 E13.65455
G1 X79.888 Y141.972 E13.69390
G1 X79.559 Y140.425 E13.73305
G1 X79.419 Y139.666 E13.75217
G1 X79.183 Y138.177 E13.78949
G1 X78.990 Y136.607 E13.82865
G1 X78.917 Y135.838 E13.84777
G1 X78.812 Y134.334 E13.88509
G1 X78.756 Y132.754 E13.92425
G1 X78.756 Y131.291 E13.96046
G1 X78.776 Y130.474 E13.98069
G1 X78.859 Y128.895 E14.01984
G1 X78.920 Y128.125 E14.03897
G1 X79.078 Y126.626 E14.07628
G1 X79.298 Y125.059 E14.11544
G1 X79.425 Y124.298 E14.13456
G1 X79.713 Y122.818 E14.17188
G1 X80.069 Y121.277 E14.21104
G1 X80.263 Y120.529 E14.23016
G1 X80.678 Y119.080 E14.26748
G1 X81.167 Y117.576 E14.30664
G1 X81.425 Y116.848 E14.32576
G1 X81.965 Y115.441 E14.36308
G1 X82.583 Y113.985 E14.40224
G1 X82.904 Y113.282 E14.42136
G1 X83.565 Y111.927 E14.45868
G1 X84.307 Y110.531 E14.49783
G1 X84.688 Y109.859 E14.51695
G1 X85.464 Y108.567 E14.55427
G1 X86.325 Y107.240 E14.59343
G1 X87.164 Y106.042 E14.62964
G1 X87.649 Y105.385 E14.64987
G1 X88.623 Y104.138 E14.68903
G1 X89.592 Y102.983 E14.72635
G1 X90.103 Y102.405 E14.74547
G1 X91.182 Y101.248 E14.78463
G1 X91.724 Y100.697 E14.80375
G1 X92.781 Y99.676 E14.84013
G1 X93.175 Y99.992 F7800.000
G1 X94.253 Y99.020 E14.87607 F1800.000
G1 X94.866 Y98.496 E14.89603
G1 X95.480 Y97.990 E14.91574
G1 X96.657 Y97.070 E14.95274
G1 X97.298 Y96.596 E14.97245
G1 X98.522 Y95.739 E15.00945
G1 X99.830 Y94.889 E15.04807
G1 X101.111 Y94.120 E15.08506
G1 X101.775 Y93.743 E15.10397
G1 X103.152 Y93.011 E15.14259
G1 X104.457 Y92.374 E15.17853
G1 X105.190 Y92.039 E15.19849
G1 X105.921 Y91.722 E15.21820
G1 X107.306 Y91.162 E15.25520
G1 X108.772 Y90.628 E15.29382
G1 X110.193 Y90.166 E15.33081
G1 X110.957 Y89.940 E15.35053
G1 X112.400 Y89.554 E15.38752
G1 X113.174 Y89.368 E15.40724
G1 X114.636 Y89.057 E15.44423
G1 X115.387 Y88.918 E15.46314
G1 X116.927 Y88.673 E15.50175
G1 X118.368 Y88.496 E15.53769
G1 X119.171 Y88.418 E15.55765
G1 X120.727 Y88.309 E15.59627
G1 X122.220 Y88.257 E15.63327
G1 X123.016 Y88.250 E15.65298
G1 X123.780 Y88.257 E15.67189 F1800.000
G1 X125.273 Y88.309 E15.70888
G1 X126.829 Y88.418 E15.74750
G1 X127.589 Y88.491 E15.76640
G1 X129.073 Y88.673 E15.80340
G1 X130.613 Y88.917 E15.84202
G1 X132.038 Y89.194 E15.87796
G1 X132.826 Y89.368 E15.89792
G1 X134.339 Y89.745 E15.93653
G1 X135.735 Y90.145 E15.97248
G1 X136.504 Y90.386 E15.99243
G1 X137.948 Y90.883 E16.03024
G1 X139.404 Y91.442 E16.06886
G1 X140.780 Y92.026 E16.10585
G1 X141.475 Y92.342 E16.12476
G1 X142.877 Y93.026 E16.16338
G1 X143.554 Y93.379 E16.18228
G1 X144.861 Y94.103 E16.21928
