; generated by Slic3r 1.1.7 on 2015-04-10 at 09:27:54

; perimeters extrusion width = 0.50mm
; infill extrusion width = 1.02mm
; solid infill extrusion width = 0.85mm
; top infill extrusion width = 0.43mm

G21 ; set units to millimeters
M107
M190 S60 ; wait for bed temperature to be reached
;--------------------------------------
G28 ; home all axes
G1 Z5 F500 ; lift nozzle
M109 S230 ; wait for extruder temp to be reached
M3001 ; Aktivate Z-Compensation 
; Move Z-axis n-steps up (see manual)
;M3004 S0 ; + n-steps bed down // - n-steps bed up! old Firmware Version <= 0.91.48
;M3006 S0 ; configure the static z-offset (units are [um])
G90 ; use absolute coordinates
M82 ; use absolute distances for extrusion
G92 E0 ; start line
G1 F300 E-0.5
G1 X230 Y22 Z0.35 F5000
G1 F800 E13
G1 X20 E25 F1000
; Acceleration up to...
; Acc printing
M201 X3000 Y3000 Z100
; Acc travel
M202 X3000 Y3000 Z100
; ZJERK 
M205 Z0.1
;--------------------------------------
G90 ; use absolute coordinates
G92 E0
M82 ; use absolute distances for extrusion
G1 F960.000 E-1.00000
G92 E0
G1 Z0.350 F7800.000
G1 X101.217 Y114.430 F7800.000
G1 E1.00000 F960.000
G1 X101.534 Y114.164 E1.01027 F1800.000
G1 X102.445 Y113.526 E1.03780
G1 X102.805 Y113.319 E1.04807
G1 X103.812 Y112.849 E1.07560
G1 X104.202 Y112.707 E1.08587
G1 X105.276 Y112.419 E1.11340
G1 X105.685 Y112.347 E1.12367
G1 X106.689 Y112.259 E1.14863
G1 X139.311 Y112.259 E1.95625
G1 X140.315 Y112.347 E1.98122 F1800.000
G1 X140.724 Y112.419 E1.99149
G1 X141.798 Y112.707 E2.01901
G1 X142.188 Y112.849 E2.02928
G1 X143.195 Y113.319 E2.05681
G1 X143.555 Y113.526 E2.06708
G1 X144.466 Y114.164 E2.09462
G1 X144.783 Y114.430 E2.10489
G1 X145.570 Y115.217 E2.13242
G1 X145.836 Y115.535 E2.14269
G1 X146.474 Y116.445 E2.17022
G1 X146.681 Y116.805 E2.18048
G1 X147.151 Y117.813 E2.20802
G1 X147.293 Y118.202 E2.21828
G1 X147.581 Y119.276 E2.24581
G1 X147.653 Y119.685 E2.25608
G1 X147.750 Y120.896 E2.28617
G1 X147.750 Y143.104 E2.83597
G1 X147.653 Y144.315 E2.86606
G1 X147.581 Y144.724 E2.87633
G1 X147.293 Y145.798 E2.90386
G1 X147.151 Y146.188 E2.91413
G1 X146.681 Y147.195 E2.94166
G1 X146.474 Y147.555 E2.95193
G1 X145.836 Y148.465 E2.97946
G1 X145.570 Y148.783 E2.98973
G1 X144.783 Y149.570 E3.01726
G1 X144.465 Y149.836 E3.02753
G1 X143.555 Y150.474 E3.05506
G1 X143.195 Y150.681 E3.06533
G1 X142.188 Y151.151 E3.09286
G1 X141.798 Y151.293 E3.10313
G1 X140.724 Y151.581 E3.13066
G1 X140.315 Y151.653 E3.14093
G1 X139.311 Y151.741 E3.16589
G1 X106.689 Y151.741 E3.97352
G1 X105.685 Y151.653 E3.99848
G1 X105.276 Y151.581 E4.00875
G1 X104.202 Y151.293 E4.03628
G1 X103.812 Y151.151 E4.04655
G1 X102.805 Y150.681 E4.07408
G1 X102.445 Y150.474 E4.08435
G1 X101.535 Y149.836 E4.11187
G1 X101.217 Y149.570 E4.12214
G1 X100.430 Y148.783 E4.14968
G1 X100.164 Y148.466 E4.15994
G1 X99.526 Y147.555 E4.18748
G1 X99.319 Y147.195 E4.19775
G1 X98.849 Y146.188 E4.22527
G1 X98.707 Y145.798 E4.23554
G1 X98.419 Y144.724 E4.26308
G1 X98.347 Y144.315 E4.27334
G1 X98.250 Y143.104 E4.30343
G1 X98.250 Y120.896 E4.85323
G1 X98.347 Y119.685 E4.88332
G1 X98.419 Y119.276 E4.89359
G1 X98.707 Y118.202 E4.92112
G1 X98.849 Y117.812 E4.93139
G1 X99.319 Y116.805 E4.95892
G1 X99.526 Y116.445 E4.96919
G1 X100.164 Y115.534 E4.99672
G1 X100.430 Y115.217 E5.00699
G1 X101.164 Y114.483 E5.03266
G1 X101.555 Y114.799 F7800.000
G1 X101.839 Y114.561 E5.04185 F1800.000
G1 X102.714 Y113.948 E5.06830
G1 X103.036 Y113.763 E5.07749
G1 X104.004 Y113.311 E5.10394
G1 X104.353 Y113.184 E5.11313
G1 X105.385 Y112.908 E5.13958
G1 X105.750 Y112.843 E5.14876
G1 X106.722 Y112.758 E5.17292
G1 X139.093 Y112.750 E5.97433
G1 X140.250 Y112.843 E6.00307 F1800.000
G1 X140.615 Y112.908 E6.01226
G1 X141.647 Y113.184 E6.03871
G1 X141.996 Y113.311 E6.04790
G1 X142.964 Y113.762 E6.07435
G1 X143.286 Y113.948 E6.08354
G1 X144.161 Y114.561 E6.10999
G1 X144.445 Y114.799 E6.11917
G1 X145.041 Y115.395 E6.14002
G1 X145.439 Y115.839 E6.15480
G1 X146.052 Y116.714 E6.18125
G1 X146.237 Y117.036 E6.19044
G1 X146.689 Y118.004 E6.21689
G1 X146.816 Y118.353 E6.22607
G1 X147.092 Y119.385 E6.25252
G1 X147.157 Y119.750 E6.26171
G1 X147.250 Y120.907 E6.29045
G1 X147.250 Y143.093 E6.83971
G1 X147.157 Y144.250 E6.86845
G1 X147.092 Y144.615 E6.87764
G1 X146.816 Y145.647 E6.90409
G1 X146.689 Y145.996 E6.91328
G1 X146.238 Y146.964 E6.93972
G1 X146.052 Y147.286 E6.94891
G1 X145.439 Y148.161 E6.97536
G1 X145.201 Y148.445 E6.98455
G1 X144.445 Y149.201 E7.01100
G1 X144.161 Y149.439 E7.02019
G1 X143.286 Y150.052 E7.04664
G1 X142.964 Y150.237 E7.05582
G1 X141.996 Y150.689 E7.08228
G1 X141.647 Y150.816 E7.09146
G1 X140.615 Y151.092 E7.11791
G1 X140.250 Y151.157 E7.12710
G1 X139.278 Y151.242 E7.15125
G1 X106.722 Y151.242 E7.95726
G1 X105.750 Y151.157 E7.98141
G1 X105.385 Y151.092 E7.99060
G1 X104.353 Y150.816 E8.01705
G1 X104.004 Y150.689 E8.02624
G1 X103.036 Y150.237 E8.05269
G1 X102.714 Y150.052 E8.06187
G1 X101.839 Y149.439 E8.08832
G1 X101.555 Y149.201 E8.09751
G1 X100.799 Y148.445 E8.12396
G1 X100.561 Y148.161 E8.13315
G1 X99.948 Y147.286 E8.15960
G1 X99.762 Y146.964 E8.16879
G1 X99.311 Y145.996 E8.19524
G1 X99.184 Y145.647 E8.20442
G1 X98.908 Y144.615 E8.23088
G1 X98.843 Y144.250 E8.24006
G1 X98.750 Y143.093 E8.26880
G1 X98.750 Y120.907 E8.81806
G1 X98.843 Y119.750 E8.84680
G1 X98.908 Y119.385 E8.85599
G1 X99.184 Y118.353 E8.88244
G1 X99.311 Y118.004 E8.89162
G1 X99.762 Y117.036 E8.91807
G1 X99.948 Y116.714 E8.92726
G1 X100.561 Y115.839 E8.95371
G1 X100.799 Y115.555 E8.96290
G1 X101.502 Y114.852 E8.98749
G1 X101.893 Y115.168 F7800.000
G1 X102.144 Y114.958 E8.99560 F1800.000
G1 X102.983 Y114.370 E9.02097
G1 X103.267 Y114.206 E9.02908
G1 X104.195 Y113.773 E9.05444
G1 X104.503 Y113.661 E9.06255
G1 X105.493 Y113.396 E9.08792
G1 X105.815 Y113.339 E9.09603
G1 X106.755 Y113.257 E9.11937
G1 X139.245 Y113.257 E9.92375
G1 X140.185 Y113.339 E9.94710 F1800.000
G1 X140.507 Y113.396 E9.95520
G1 X141.497 Y113.661 E9.98057
G1 X141.804 Y113.773 E9.98868
G1 X142.733 Y114.206 E10.01405
G1 X143.017 Y114.370 E10.02215
G1 X143.856 Y114.958 E10.04752
G1 X144.107 Y115.168 E10.05563
G1 X144.832 Y115.893 E10.08100
G1 X145.042 Y116.144 E10.08911
G1 X145.630 Y116.983 E10.11448
G1 X145.794 Y117.267 E10.12258
G1 X146.227 Y118.196 E10.14795
G1 X146.339 Y118.503 E10.15606
G1 X146.604 Y119.493 E10.18143
G1 X146.661 Y119.815 E10.18953
G1 X146.750 Y120.918 E10.21692
G1 X146.750 Y143.082 E10.76564
G1 X146.661 Y144.184 E10.79303
G1 X146.604 Y144.507 E10.80114
G1 X146.339 Y145.497 E10.82651
G1 X146.227 Y145.805 E10.83461
G1 X145.794 Y146.733 E10.85998
G1 X145.630 Y147.017 E10.86809
G1 X145.042 Y147.856 E10.89345
G1 X144.832 Y148.107 E10.90156
G1 X144.107 Y148.832 E10.92693
G1 X143.856 Y149.042 E10.93504
G1 X143.017 Y149.630 E10.96041
G1 X142.733 Y149.794 E10.96852
G1 X141.805 Y150.227 E10.99388
G1 X141.497 Y150.339 E11.00199
G1 X140.507 Y150.604 E11.02736
G1 X140.185 Y150.661 E11.03547
G1 X139.245 Y150.743 E11.05881
G1 X106.755 Y150.743 E11.86319
G1 X105.815 Y150.661 E11.88654
G1 X105.493 Y150.604 E11.89464
G1 X104.503 Y150.339 E11.92001
G1 X104.195 Y150.227 E11.92812
G1 X103.267 Y149.794 E11.95349
G1 X102.983 Y149.630 E11.96159
G1 X102.144 Y149.042 E11.98696
G1 X101.893 Y148.832 E11.99507
G1 X101.168 Y148.107 E12.02044
G1 X100.958 Y147.856 E12.02855
G1 X100.370 Y147.017 E12.05392
G1 X100.206 Y146.733 E12.06202
G1 X99.773 Y145.805 E12.08739
G1 X99.661 Y145.497 E12.09550
G1 X99.396 Y144.507 E12.12087
G1 X99.339 Y144.185 E12.12897
G1 X99.250 Y143.082 E12.15636
G1 X99.250 Y120.918 E12.70508
G1 X99.339 Y119.815 E12.73247
G1 X99.396 Y119.493 E12.74058
G1 X99.661 Y118.503 E12.76594
G1 X99.773 Y118.195 E12.77405
G1 X100.206 Y117.267 E12.79942
G1 X100.370 Y116.983 E12.80753
G1 X100.958 Y116.144 E12.83290
G1 X101.168 Y115.893 E12.84100
G1 X101.840 Y115.221 E12.86452
G1 X102.231 Y115.537 F7800.000
G1 X102.448 Y115.355 E12.87154 F1800.000
G1 X103.252 Y114.792 E12.89583
G1 X103.498 Y114.650 E12.90286
G1 X104.387 Y114.236 E12.92714
G1 X104.654 Y114.139 E12.93417
G1 X105.601 Y113.885 E12.95846
G1 X105.881 Y113.835 E12.96549
G1 X106.787 Y113.756 E12.98802
G1 X139.071 Y113.750 E13.78727
G1 X140.119 Y113.836 E13.81331 F1800.000
G1 X140.399 Y113.885 E13.82034
G1 X141.346 Y114.139 E13.84462
G1 X141.613 Y114.236 E13.85165
G1 X142.502 Y114.650 E13.87594
G1 X142.748 Y114.792 E13.88297
G1 X143.552 Y115.355 E13.90726
G1 X143.769 Y115.537 E13.91428
G1 X144.334 Y116.102 E13.93405
G1 X144.645 Y116.449 E13.94558
G1 X145.208 Y117.252 E13.96987
G1 X145.350 Y117.498 E13.97690
G1 X145.764 Y118.387 E14.00119
G1 X145.861 Y118.654 E14.00821
G1 X146.115 Y119.601 E14.03250
G1 X146.165 Y119.881 E14.03953
G1 X146.250 Y120.929 E14.06557
G1 X146.250 Y143.071 E14.61374
G1 X146.165 Y144.119 E14.63978
G1 X146.115 Y144.399 E14.64681
G1 X145.861 Y145.346 E14.67110
G1 X145.764 Y145.613 E14.67812
G1 X145.350 Y146.502 E14.70241
G1 X145.208 Y146.748 E14.70943
G1 X144.645 Y147.551 E14.73372
G1 X144.463 Y147.769 E14.74075
G1 X143.769 Y148.463 E14.76504
G1 X143.551 Y148.645 E14.77206
G1 X142.748 Y149.208 E14.79635
G1 X142.502 Y149.350 E14.80338
G1 X141.613 Y149.764 E14.82766
G1 X141.346 Y149.861 E14.83469
G1 X140.399 Y150.115 E14.85898
G1 X140.119 Y150.164 E14.86600
G1 X139.213 Y150.244 E14.88853
G1 X106.787 Y150.244 E15.69130
G1 X105.881 Y150.164 E15.71383
G1 X105.601 Y150.115 E15.72086
G1 X104.654 Y149.861 E15.74515
G1 X104.387 Y149.764 E15.75217
G1 X103.498 Y149.350 E15.77646
G1 X103.252 Y149.208 E15.78349
G1 X102.449 Y148.645 E15.80777
G1 X102.231 Y148.463 E15.81480
G1 X101.537 Y147.769 E15.83909
G1 X101.355 Y147.552 E15.84611
G1 X100.897 Y146.897 E15.86588
G1 X100.650 Y146.502 E15.87742
G1 X100.236 Y145.613 E15.90171
G1 X100.139 Y145.346 E15.90873
G1 X99.885 Y144.399 E15.93302
G1 X99.836 Y144.119 E15.94005
G1 X99.750 Y143.071 E15.96609
G1 X99.750 Y120.929 E16.51426
G1 X99.836 Y119.881 E16.54030
G1 X99.885 Y119.601 E16.54733
G1 X100.139 Y118.654 E16.57161
G1 X100.236 Y118.387 E16.57864
G1 X100.650 Y117.498 E16.60293
G1 X100.792 Y117.252 E16.60995
G1 X101.355 Y116.448 E16.63424
G1 X101.537 Y116.231 E16.64127
G1 X102.178 Y115.590 E16.66370
G1 X102.569 Y115.906 F7800.000
G1 X102.753 Y115.752 E16.66964 F1800.000
G1 X103.521 Y115.214 E16.69285
G1 X103.729 Y115.094 E16.69880
G1 X104.579 Y114.698 E16.72200
G1 X104.804 Y114.616 E16.72795
G1 X105.710 Y114.373 E16.75116
G1 X105.946 Y114.332 E16.75710
G1 X106.820 Y114.255 E16.77882
G1 X139.180 Y114.255 E17.57997
G1 X140.054 Y114.332 E17.60169 F1800.000
G1 X140.290 Y114.373 E17.60763
G1 X141.196 Y114.616 E17.63084
G1 X141.421 Y114.698 E17.63678
G1 X142.271 Y115.094 E17.65999
G1 X142.479 Y115.214 E17.66594
G1 X143.247 Y115.752 E17.68915
G1 X143.431 Y115.906 E17.69509
G1 X144.094 Y116.569 E17.71830
G1 X144.248 Y116.753 E17.72424
G1 X144.786 Y117.521 E17.74745
G1 X144.906 Y117.729 E17.75339
G1 X145.302 Y118.579 E17.77660
G1 X145.384 Y118.804 E17.78255
G1 X145.627 Y119.710 E17.80575
G1 X145.668 Y119.946 E17.81170
G1 X145.750 Y120.940 E17.83639
G1 X145.750 Y143.060 E18.38402
G1 X145.668 Y144.054 E18.40871
G1 X145.627 Y144.290 E18.41466
G1 X145.384 Y145.196 E18.43787
G1 X145.302 Y145.421 E18.44381
G1 X144.906 Y146.271 E18.46701
G1 X144.786 Y146.479 E18.47296
G1 X144.248 Y147.247 E18.49617
G1 X144.094 Y147.431 E18.50211
G1 X143.431 Y148.094 E18.52532
G1 X143.247 Y148.248 E18.53127
G1 X142.479 Y148.786 E18.55447
G1 X142.271 Y148.906 E18.56042
G1 X141.421 Y149.302 E18.58362
G1 X141.196 Y149.384 E18.58957
G1 X140.290 Y149.627 E18.61278
G1 X140.054 Y149.668 E18.61872
G1 X139.180 Y149.745 E18.64044
G1 X106.820 Y149.745 E19.44159
G1 X105.946 Y149.668 E19.46331
G1 X105.710 Y149.627 E19.46925
G1 X104.804 Y149.384 E19.49246
G1 X104.579 Y149.302 E19.49841
G1 X103.729 Y148.906 E19.52161
G1 X103.521 Y148.786 E19.52756
G1 X102.753 Y148.248 E19.55076
G1 X102.569 Y148.094 E19.55671
G1 X101.906 Y147.431 E19.57992
G1 X101.752 Y147.247 E19.58586
G1 X101.307 Y146.611 E19.60509
G1 X101.094 Y146.271 E19.61501
G1 X100.698 Y145.421 E19.63821
G1 X100.616 Y145.196 E19.64416
G1 X100.373 Y144.290 E19.66737
G1 X100.332 Y144.054 E19.67331
G1 X100.250 Y143.060 E19.69800
G1 X100.255 Y120.820 E20.24860
G1 X100.332 Y119.946 E20.27032
G1 X100.373 Y119.710 E20.27627
G1 X100.616 Y118.804 E20.29947
G1 X100.698 Y118.579 E20.30542
G1 X101.094 Y117.729 E20.32863
G1 X101.214 Y117.521 E20.33457
G1 X101.752 Y116.753 E20.35778
G1 X101.906 Y116.569 E20.36372
G1 X102.516 Y115.959 E20.38507
G1 X102.907 Y116.275 F7800.000
G1 X103.058 Y116.149 E20.38994 F1800.000
G1 X103.790 Y115.636 E20.41207
G1 X103.960 Y115.538 E20.41693
G1 X104.770 Y115.161 E20.43906
G1 X104.955 Y115.093 E20.44392
G1 X105.818 Y114.862 E20.46605
G1 X106.011 Y114.828 E20.47091
G1 X106.951 Y114.750 E20.49425
G1 X139.049 Y114.750 E21.28892
G1 X139.989 Y114.828 E21.31226 F1800.000
G1 X140.182 Y114.862 E21.31712
G1 X141.045 Y115.093 E21.33925
G1 X141.230 Y115.161 E21.34411
G1 X142.040 Y115.538 E21.36624
G1 X142.210 Y115.636 E21.37110
G1 X142.942 Y116.149 E21.39323
G1 X143.093 Y116.275 E21.39809
G1 X143.626 Y116.809 E21.41678
G1 X143.851 Y117.058 E21.42507
G1 X144.364 Y117.790 E21.44720
G1 X144.462 Y117.960 E21.45206
G1 X144.839 Y118.770 E21.47419
G1 X144.907 Y118.955 E21.47905
G1 X145.138 Y119.818 E21.50118
G1 X145.172 Y120.011 E21.50605
G1 X145.250 Y120.951 E21.52938
G1 X145.250 Y143.049 E22.07648
G1 X145.172 Y143.989 E22.09982
G1 X145.138 Y144.182 E22.10468
G1 X144.907 Y145.045 E22.12681
G1 X144.839 Y145.230 E22.13167
G1 X144.462 Y146.040 E22.15380
G1 X144.364 Y146.210 E22.15866
G1 X143.851 Y146.942 E22.18079
G1 X143.725 Y147.093 E22.18565
G1 X143.093 Y147.725 E22.20778
G1 X142.942 Y147.851 E22.21264
G1 X142.210 Y148.364 E22.23477
G1 X142.040 Y148.462 E22.23963
G1 X141.230 Y148.839 E22.26176
G1 X141.045 Y148.907 E22.26662
G1 X140.182 Y149.138 E22.28875
G1 X139.989 Y149.172 E22.29361
G1 X139.049 Y149.250 E22.31695
G1 X106.951 Y149.250 E23.11162
G1 X106.011 Y149.172 E23.13496
G1 X105.818 Y149.138 E23.13982
G1 X104.955 Y148.907 E23.16195
G1 X104.770 Y148.839 E23.16681
G1 X103.960 Y148.462 E23.18894
G1 X103.790 Y148.364 E23.19381
G1 X103.058 Y147.851 E23.21593
G1 X102.907 Y147.725 E23.22080
G1 X102.275 Y147.093 E23.24292
G1 X102.149 Y146.942 E23.24779
G1 X101.716 Y146.324 E23.26647
G1 X101.538 Y146.040 E23.27477
G1 X101.161 Y145.230 E23.29689
G1 X101.093 Y145.045 E23.30176
G1 X100.862 Y144.182 E23.32389
G1 X100.828 Y143.989 E23.32875
G1 X100.750 Y143.049 E23.35209
G1 X100.754 Y120.853 E23.90161
G1 X100.828 Y120.011 E23.92252
G1 X100.862 Y119.818 E23.92738
G1 X101.093 Y118.955 E23.94951
G1 X101.161 Y118.770 E23.95438
G1 X101.538 Y117.960 E23.97650
G1 X101.636 Y117.790 E23.98137
G1 X102.149 Y117.058 E24.00349
G1 X102.275 Y116.907 E24.00836
G1 X102.854 Y116.328 E24.02863
G1 X103.245 Y116.644 F7800.000
G1 X104.059 Y116.059 E24.05344 F1800.000
G1 X104.962 Y115.623 E24.07826
G1 X105.926 Y115.351 E24.10308
G1 X106.962 Y115.250 E24.12883
G1 X139.114 Y115.253 E24.92485
G1 X140.074 Y115.351 E24.94872 F1800.000
G1 X141.038 Y115.623 E24.97354
G1 X141.941 Y116.059 E24.99835
G1 X142.755 Y116.644 E25.02317
G1 X143.356 Y117.245 E25.04421
G1 X143.941 Y118.059 E25.06903
G1 X144.377 Y118.962 E25.09385
G1 X144.649 Y119.926 E25.11866
G1 X144.750 Y120.962 E25.14442
G1 X144.750 Y143.038 E25.69098
G1 X144.649 Y144.074 E25.71673
G1 X144.377 Y145.038 E25.74155
G1 X143.941 Y145.941 E25.76637
G1 X143.356 Y146.755 E25.79118
G1 X142.637 Y147.454 E25.81600
G1 X141.809 Y148.018 E25.84082
G1 X141.038 Y148.377 E25.86186
G1 X140.074 Y148.649 E25.88668
G1 X139.038 Y148.750 E25.91244
G1 X106.962 Y148.750 E26.70656
G1 X105.926 Y148.649 E26.73232
G1 X104.962 Y148.377 E26.75714
