; generated by Slic3r 1.1.7 on 2015-04-10 at 14:08:46

; perimeters extrusion width = 0.50mm
; infill extrusion width = 1.02mm
; solid infill extrusion width = 0.85mm
; top infill extrusion width = 0.43mm

G21 ; set units to millimeters
M107
M190 S60 ; wait for bed temperature to be reached
;--------------------------------------
G28 ; home all axes
G1 Z5 F500 ; lift nozzle
M109 S230 ; wait for extruder temp to be reached
M3001 ; Aktivate Z-Compensation 
; Move Z-axis n-steps up (see manual)
;M3004 S0 ; + n-steps bed down // - n-steps bed up! old Firmware Version <= 0.91.48
;M3006 S0 ; configure the static z-offset (units are [um])
G90 ; use absolute coordinates
M82 ; use absolute distances for extrusion
G92 E0 ; start line
G1 F300 E-0.5
G1 X230 Y22 Z0.35 F5000
G1 F800 E13
G1 X20 E25 F1000
; Acceleration up to...
; Acc printing
M201 X3000 Y3000 Z100
; Acc travel
M202 X3000 Y3000 Z100
; ZJERK 
M205 Z0.1
;--------------------------------------
G90 ; use absolute coordinates
G92 E0
M82 ; use absolute distances for extrusion
G1 F960.000 E-1.00000
G92 E0
G1 Z0.350 F7800.000
G1 X93.329 Y89.763 F7800.000
G1 E1.00000 F960.000
G1 X95.238 Y88.872 E1.05214 F1800.000
G1 X95.697 Y88.857 E1.06352
G1 X118.423 Y80.586 E1.66226
G1 X120.521 Y80.769 E1.71440
G1 X120.926 Y80.986 E1.72578 F1800.000
G1 X144.743 Y85.185 E2.32452
G1 X146.468 Y86.393 E2.37666
G1 X146.711 Y86.784 E2.38804
G1 X165.237 Y102.329 E2.98678
G1 X166.128 Y104.238 E3.03892
G1 X166.143 Y104.697 E3.05030
G1 X174.414 Y127.423 E3.64904
G1 X174.231 Y129.521 E3.70118
G1 X174.014 Y129.926 E3.71256
G1 X169.815 Y153.743 E4.31130
G1 X168.607 Y155.468 E4.36344
G1 X168.216 Y155.711 E4.37482
G1 X152.671 Y174.237 E4.97356
G1 X150.762 Y175.127 E5.02570
G1 X150.303 Y175.143 E5.03708
G1 X127.577 Y183.414 E5.63582
G1 X125.479 Y183.231 E5.68796
G1 X125.074 Y183.014 E5.69934
G1 X101.257 Y178.815 E6.29808
G1 X99.532 Y177.607 E6.35022
G1 X99.289 Y177.216 E6.36160
G1 X80.763 Y161.671 E6.96034
G1 X79.873 Y159.762 E7.01248
G1 X79.857 Y159.303 E7.02386
G1 X71.586 Y136.577 E7.62260
G1 X71.769 Y134.479 E7.67474
G1 X71.986 Y134.074 E7.68612
G1 X76.185 Y110.257 E8.28486
G1 X77.393 Y108.532 E8.33700
G1 X77.784 Y108.289 E8.34838
G1 X93.281 Y89.820 E8.94526
G1 X93.641 Y90.169 F7800.000
G1 X95.349 Y89.372 E8.99191 F1800.000
G1 X95.785 Y89.357 E9.00273
G1 X118.490 Y81.094 E9.60091
G1 X120.367 Y81.258 E9.64756 F1800.000
G1 X120.753 Y81.463 E9.65838
G1 X144.547 Y85.659 E10.25656
G1 X146.091 Y86.739 E10.30321
G1 X146.322 Y87.110 E10.31403
G1 X164.831 Y102.641 E10.91221
G1 X165.628 Y104.349 E10.95886
G1 X165.643 Y104.785 E10.96968
G1 X173.906 Y127.490 E11.56785
G1 X173.742 Y129.367 E11.61451
G1 X173.537 Y129.753 E11.62532
G1 X169.341 Y153.547 E12.22350
G1 X168.261 Y155.091 E12.27016
G1 X167.890 Y155.322 E12.28097
G1 X152.359 Y173.831 E12.87915
G1 X150.651 Y174.627 E12.92581
G1 X150.215 Y174.643 E12.93662
G1 X127.510 Y182.906 E13.53480
G1 X125.633 Y182.742 E13.58145
G1 X125.247 Y182.537 E13.59227
G1 X101.453 Y178.341 E14.19045
G1 X99.909 Y177.261 E14.23710
G1 X99.678 Y176.890 E14.24792
G1 X81.169 Y161.359 E14.84610
G1 X80.373 Y159.651 E14.89275
G1 X80.357 Y159.215 E14.90357
G1 X72.094 Y136.510 E15.50174
G1 X72.258 Y134.633 E15.54840
G1 X72.463 Y134.247 E15.55921
G1 X76.659 Y110.453 E16.15739
G1 X77.739 Y108.909 E16.20405
G1 X78.110 Y108.678 E16.21486
G1 X93.593 Y90.226 E16.81118
G1 X93.953 Y90.575 F7800.000
G1 X95.459 Y89.872 E16.85235 F1800.000
G1 X95.873 Y89.857 E16.86260
G1 X118.557 Y81.601 E17.46022
G1 X120.213 Y81.746 E17.50139
G1 X120.579 Y81.940 E17.51164 F1800.000
G1 X144.351 Y86.132 E18.10926
G1 X145.713 Y87.085 E18.15042
G1 X145.933 Y87.436 E18.16068
G1 X164.425 Y102.952 E18.75830
G1 X165.128 Y104.459 E18.79946
G1 X165.143 Y104.873 E18.80971
G1 X173.399 Y127.557 E19.40733
G1 X173.254 Y129.213 E19.44850
G1 X173.060 Y129.579 E19.45875
G1 X168.868 Y153.351 E20.05637
G1 X167.915 Y154.713 E20.09754
G1 X167.564 Y154.933 E20.10779
G1 X152.047 Y173.425 E20.70541
G1 X150.541 Y174.127 E20.74657
G1 X150.127 Y174.143 E20.75683
G1 X127.443 Y182.399 E21.35444
G1 X125.787 Y182.254 E21.39561
G1 X125.421 Y182.060 E21.40586
G1 X101.649 Y177.868 E22.00348
G1 X100.287 Y176.915 E22.04465
G1 X100.067 Y176.564 E22.05490
G1 X81.575 Y161.047 E22.65252
G1 X80.873 Y159.541 E22.69368
G1 X80.857 Y159.127 E22.70394
G1 X72.601 Y136.443 E23.30155
G1 X72.746 Y134.787 E23.34272
G1 X72.940 Y134.421 E23.35297
G1 X77.132 Y110.649 E23.95059
G1 X78.085 Y109.287 E23.99176
G1 X78.436 Y109.067 E24.00201
G1 X93.904 Y90.633 E24.59777
G1 X94.264 Y90.981 F7800.000
G1 X95.570 Y90.372 E24.63345 F1800.000
G1 X95.962 Y90.357 E24.64314
G1 X118.623 Y82.109 E25.24020
G1 X120.059 Y82.235 E25.27587 F1800.000
G1 X120.405 Y82.417 E25.28557
G1 X144.155 Y86.605 E25.88262
G1 X145.336 Y87.431 E25.91830
G1 X145.544 Y87.763 E25.92799
G1 X164.019 Y103.264 E26.52505
G1 X164.628 Y104.570 E26.56072
G1 X164.643 Y104.962 E26.57042
G1 X172.891 Y127.623 E27.16747
G1 X172.765 Y129.059 E27.20315
G1 X172.583 Y129.405 E27.21284
G1 X168.395 Y153.155 E27.80990
G1 X167.569 Y154.336 E27.84558
G1 X167.237 Y154.544 E27.85527
G1 X151.736 Y173.018 E28.45233
G1 X150.430 Y173.627 E28.48800
G1 X150.038 Y173.643 E28.49769
G1 X127.377 Y181.891 E29.09475
G1 X125.941 Y181.765 E29.13043
G1 X125.595 Y181.583 E29.14012
G1 X101.845 Y177.395 E29.73718
G1 X100.664 Y176.569 E29.77285
G1 X100.456 Y176.237 E29.78255
G1 X81.982 Y160.736 E30.37960
G1 X81.373 Y159.430 E30.41528
G1 X81.357 Y159.038 E30.42497
G1 X73.109 Y136.377 E31.02203
G1 X73.235 Y134.941 E31.05770
G1 X73.417 Y134.595 E31.06740
G1 X77.605 Y110.845 E31.66445
G1 X78.431 Y109.664 E31.70013
G1 X78.763 Y109.456 E31.70982
G1 X94.216 Y91.039 E32.30502
G1 X94.576 Y91.388 F7800.000
G1 X95.681 Y90.872 E32.33521 F1800.000
G1 X96.050 Y90.857 E32.34434
G1 X118.690 Y82.617 E32.94083
G1 X119.905 Y82.723 E32.97102
G1 X120.232 Y82.894 E32.98015 F1800.000
G1 X143.959 Y87.078 E33.57665
G1 X144.958 Y87.777 E33.60684
G1 X145.155 Y88.089 E33.61597
G1 X163.612 Y103.576 E34.21246
G1 X164.128 Y104.681 E34.24265
G1 X164.143 Y105.050 E34.25178
G1 X172.383 Y127.690 E34.84828
G1 X172.277 Y128.905 E34.87846
G1 X172.106 Y129.232 E34.88760
G1 X167.922 Y152.959 E35.48409
G1 X167.223 Y153.958 E35.51428
G1 X166.911 Y154.155 E35.52341
G1 X151.424 Y172.612 E36.11991
G1 X150.319 Y173.127 E36.15009
G1 X149.950 Y173.143 E36.15923
G1 X127.310 Y181.383 E36.75572
G1 X126.095 Y181.277 E36.78591
G1 X125.768 Y181.106 E36.79504
G1 X102.041 Y176.922 E37.39154
G1 X101.042 Y176.223 E37.42172
G1 X100.845 Y175.911 E37.43086
G1 X82.388 Y160.424 E38.02735
G1 X81.873 Y159.319 E38.05754
G1 X81.857 Y158.950 E38.06667
G1 X73.617 Y136.310 E38.66316
G1 X73.723 Y135.095 E38.69335
G1 X73.894 Y134.768 E38.70248
G1 X78.078 Y111.041 E39.29898
G1 X78.777 Y110.042 E39.32916
G1 X79.089 Y109.845 E39.33830
G1 X94.528 Y91.445 E39.93293
G1 X94.888 Y91.794 F7800.000
G1 X95.792 Y91.372 E39.95763 F1800.000
G1 X96.138 Y91.357 E39.96620
G1 X118.757 Y83.125 E40.56214
G1 X119.751 Y83.212 E40.58684 F1800.000
G1 X120.058 Y83.371 E40.59541
G1 X143.763 Y87.551 E41.19134
G1 X144.580 Y88.123 E41.21604
G1 X144.767 Y88.415 E41.22461
G1 X163.206 Y103.888 E41.82054
G1 X163.628 Y104.792 E41.84524
G1 X163.643 Y105.138 E41.85381
G1 X171.875 Y127.757 E42.44975
G1 X171.788 Y128.751 E42.47445
G1 X171.629 Y129.058 E42.48302
G1 X167.449 Y152.763 E43.07895
G1 X166.877 Y153.580 E43.10365
G1 X166.585 Y153.767 E43.11222
G1 X151.112 Y172.206 E43.70815
G1 X150.208 Y172.627 E43.73285
G1 X149.862 Y172.643 E43.74142
G1 X127.243 Y180.875 E44.33736
G1 X126.249 Y180.788 E44.36205
G1 X125.942 Y180.629 E44.37063
G1 X102.237 Y176.449 E44.96656
G1 X101.420 Y175.877 E44.99126
G1 X101.233 Y175.585 E44.99983
G1 X82.794 Y160.112 E45.59576
G1 X82.373 Y159.208 E45.62046
G1 X82.357 Y158.862 E45.62903
G1 X74.125 Y136.243 E46.22496
G1 X74.212 Y135.249 E46.24966
G1 X74.371 Y134.942 E46.25823
G1 X78.551 Y111.237 E46.85417
G1 X79.123 Y110.420 E46.87887
G1 X79.415 Y110.233 E46.88744
G1 X94.840 Y91.852 E47.48151
G1 X95.200 Y92.200 F7800.000
G1 X95.903 Y91.872 E47.50072 F1800.000
G1 X96.226 Y91.857 E47.50873
G1 X118.824 Y83.632 E48.10410
G1 X119.597 Y83.700 E48.12331
G1 X119.884 Y83.848 E48.13133 F1800.000
G1 X143.567 Y88.024 E48.72670
G1 X144.203 Y88.469 E48.74591
G1 X144.378 Y88.742 E48.75392
G1 X162.800 Y104.200 E49.34929
G1 X163.128 Y104.903 E49.36850
G1 X163.143 Y105.226 E49.37651
G1 X171.368 Y127.824 E49.97188
G1 X171.300 Y128.597 E49.99109
G1 X171.152 Y128.884 E49.99910
G1 X166.976 Y152.567 E50.59447
G1 X166.531 Y153.203 E50.61368
G1 X166.258 Y153.378 E50.62169
G1 X150.800 Y171.800 E51.21706
G1 X150.097 Y172.127 E51.23627
G1 X149.774 Y172.143 E51.24429
G1 X127.176 Y180.368 E51.83966
G1 X126.403 Y180.300 E51.85887
G1 X126.116 Y180.152 E51.86688
G1 X102.433 Y175.976 E52.46225
G1 X101.797 Y175.531 E52.48146
G1 X101.622 Y175.258 E52.48947
G1 X83.200 Y159.800 E53.08484
G1 X82.873 Y159.097 E53.10405
G1 X82.857 Y158.774 E53.11206
G1 X74.632 Y136.176 E53.70743
G1 X74.700 Y135.403 E53.72664
G1 X74.848 Y135.116 E53.73465
G1 X79.024 Y111.433 E54.33002
G1 X79.469 Y110.797 E54.34923
G1 X79.742 Y110.622 E54.35724
G1 X95.151 Y92.258 E54.95076
G1 X95.511 Y92.607 F7800.000
G1 X96.014 Y92.372 E54.96448 F1800.000
G1 X96.314 Y92.357 E54.97193
G1 X118.891 Y84.140 E55.56674
G1 X119.443 Y84.188 E55.58046 F1800.000
G1 X119.711 Y84.326 E55.58791
G1 X143.371 Y88.497 E56.18272
G1 X143.825 Y88.815 E56.19644
G1 X143.989 Y89.068 E56.20389
G1 X162.393 Y104.511 E56.79870
G1 X162.628 Y105.014 E56.81242
G1 X162.643 Y105.314 E56.81987
G1 X170.860 Y127.891 E57.41468
G1 X170.812 Y128.443 E57.42840
G1 X170.674 Y128.711 E57.43585
G1 X166.502 Y152.371 E58.03066
G1 X166.185 Y152.825 E58.04438
G1 X165.932 Y152.989 E58.05183
G1 X150.489 Y171.393 E58.64664
G1 X149.986 Y171.627 E58.66036
G1 X149.686 Y171.643 E58.66781
G1 X127.109 Y179.860 E59.26262
G1 X126.557 Y179.812 E59.27634
G1 X126.289 Y179.674 E59.28379
G1 X102.629 Y175.502 E59.87860
G1 X102.175 Y175.185 E59.89232
G1 X102.011 Y174.932 E59.89977
G1 X83.607 Y159.489 E60.49458
G1 X83.373 Y158.986 E60.50831
G1 X83.357 Y158.686 E60.51575
G1 X75.140 Y136.109 E61.11056
G1 X75.188 Y135.557 E61.12429
G1 X75.326 Y135.289 E61.13173
G1 X79.498 Y111.629 E61.72654
G1 X79.815 Y111.175 E61.74027
G1 X80.068 Y111.011 E61.74772
G1 X95.463 Y92.664 E62.34067
G1 X95.823 Y93.013 F7800.000
G1 X96.125 Y92.872 E62.34890 F1800.000
G1 X96.402 Y92.857 E62.35579
G1 X118.958 Y84.648 E62.95004
G1 X119.289 Y84.677 E62.95827
G1 X119.537 Y84.803 E62.96516 F1800.000
G1 X143.175 Y88.971 E63.55941
G1 X143.448 Y89.161 E63.56764
G1 X143.600 Y89.394 E63.57453
G1 X161.987 Y104.823 E64.16878
G1 X162.128 Y105.125 E64.17701
G1 X162.143 Y105.402 E64.18390
G1 X170.352 Y127.958 E64.77815
G1 X170.323 Y128.289 E64.78638
G1 X170.197 Y128.537 E64.79327
G1 X166.029 Y152.175 E65.38752
G1 X165.839 Y152.448 E65.39575
G1 X165.606 Y152.600 E65.40264
G1 X150.177 Y170.987 E65.99689
G1 X149.875 Y171.127 E66.00512
G1 X149.598 Y171.143 E66.01201
G1 X127.042 Y179.352 E66.60626
G1 X126.711 Y179.323 E66.61449
G1 X126.463 Y179.197 E66.62138
G1 X102.825 Y175.029 E67.21563
G1 X102.552 Y174.839 E67.22386
G1 X102.400 Y174.606 E67.23075
G1 X84.013 Y159.177 E67.82500
G1 X83.873 Y158.875 E67.83323
G1 X83.857 Y158.598 E67.84012
G1 X75.648 Y136.042 E68.43436
G1 X75.677 Y135.711 E68.44260
G1 X75.803 Y135.463 E68.44949
G1 X79.971 Y111.825 E69.04373
G1 X80.161 Y111.552 E69.05197
G1 X80.394 Y111.400 E69.05886
G1 X95.775 Y93.070 E69.65125
G1 X96.135 Y93.419 F7800.000
G1 X96.235 Y93.372 E69.65399 F1800.000
G1 X96.491 Y93.357 E69.66032
G1 X119.024 Y85.156 E70.25401
G1 X119.135 Y85.165 E70.25675 F1800.000
G1 X119.363 Y85.280 E70.26308
G1 X142.979 Y89.444 E70.85676
G1 X143.070 Y89.507 E70.85951
G1 X143.211 Y89.721 E70.86584
G1 X161.581 Y105.135 E71.45952
G1 X161.628 Y105.235 E71.46227
G1 X161.643 Y105.490 E71.46860
G1 X169.844 Y128.024 E72.06228
G1 X169.835 Y128.135 E72.06503
G1 X169.720 Y128.363 E72.07135
G1 X165.556 Y151.979 E72.66504
G1 X165.493 Y152.070 E72.66779
G1 X165.279 Y152.211 E72.67411
G1 X149.865 Y170.581 E73.26780
G1 X149.765 Y170.627 E73.27054
G1 X149.509 Y170.643 E73.27687
G1 X126.976 Y178.844 E73.87056
G1 X126.865 Y178.835 E73.87330
G1 X126.637 Y178.720 E73.87963
G1 X103.021 Y174.556 E74.47332
G1 X102.930 Y174.493 E74.47606
G1 X102.789 Y174.279 E74.48239
G1 X84.419 Y158.865 E75.07608
G1 X84.373 Y158.765 E75.07882
G1 X84.357 Y158.509 E75.08515
G1 X76.156 Y135.975 E75.67883
G1 X76.165 Y135.865 E75.68158
G1 X76.280 Y135.637 E75.68791
G1 X80.444 Y112.021 E76.28159
G1 X80.507 Y111.930 E76.28434
G1 X80.721 Y111.789 E76.29067
G1 X96.087 Y93.477 E76.88250
G1 F960.000 E75.88250
G92 E0
G1 X157.163 Y161.106 F7800.000
G1 E1.00000 F960.000
G1 X149.593 Y170.127 E1.29157 F1260.000
G1 X149.463 Y170.127 E1.29477
G1 X126.966 Y178.316 E1.88748
G1 X126.854 Y178.251 E1.89069
G1 X103.277 Y174.094 E2.48340
G1 X103.212 Y173.981 E2.48661
G1 X84.873 Y158.593 E3.07932
G1 X84.873 Y158.463 E3.08253
G1 X76.684 Y135.966 E3.67524
G1 X76.749 Y135.854 E3.67845
G1 X80.906 Y112.277 E4.27116
G1 X81.019 Y112.212 E4.27437
G1 X96.407 Y93.872 E4.86708
G1 X96.537 Y93.872 E4.87028
G1 X119.034 Y85.684 E5.46299
G1 X119.146 Y85.749 E5.46620
G1 X142.723 Y89.906 E6.05891 F1260.000
G1 X142.788 Y90.019 E6.06212
G1 X161.128 Y105.407 E6.65483
G1 X161.128 Y105.537 E6.65804
G1 X169.316 Y128.034 E7.25075
G1 X169.251 Y128.146 E7.25396
G1 X165.094 Y151.723 E7.84667
G1 X164.981 Y151.788 E7.84988
G1 X157.211 Y161.048 E8.14916
G1 F960.000 E7.14916
G92 E0
G1 X119.599 Y85.961 F7800.000
G1 X156.780 Y160.784 F7800.000
G1 E1.00000 F960.000
G1 X149.353 Y169.636 E1.28606 F1800.000
G1 X127.004 Y177.770 E1.87485
G1 X103.583 Y173.640 E2.46365
G1 X85.364 Y158.353 E3.05245
G1 X77.230 Y136.004 E3.64124
G1 X81.360 Y112.583 E4.23004
G1 X96.647 Y94.364 E4.81884
G1 X118.996 Y86.230 E5.40764 F1800.000
G1 X142.417 Y90.360 E5.99643
G1 X160.636 Y105.647 E6.58523
G1 X168.770 Y127.996 E7.17403
G1 X164.640 Y151.417 E7.76282
G1 X156.828 Y160.727 E8.06371
G1 X117.519 Y162.157 F7800.000
G1 X117.391 Y164.608 E8.12448 F1260.000
G1 X116.054 Y166.667 E8.18525
G1 X113.867 Y167.781 E8.24601
G1 X111.416 Y167.653 E8.30678
G1 X109.357 Y166.316 E8.36755
G1 X108.243 Y164.129 E8.42832
G1 X108.371 Y161.678 E8.48908
G1 X109.708 Y159.619 E8.54985
G1 X110.263 Y159.337 E8.56526
G1 X111.895 Y158.505 E8.61062 F1260.000
G1 X114.346 Y158.633 E8.67139
G1 X116.405 Y159.970 E8.73215
G1 X117.485 Y162.090 E8.79106
G1 F960.000 E7.79106
G92 E0
G1 X109.903 Y158.990 F7800.000
G1 X118.018 Y162.183 F7800.000
G1 E1.00000 F960.000
G1 X117.883 Y164.768 E1.06408 F1800.000
G1 X116.400 Y167.052 E1.13149
G1 X113.974 Y168.288 E1.19889
G1 X111.256 Y168.145 E1.26629
G1 X108.972 Y166.662 E1.33369
G1 X107.736 Y164.237 E1.40109
G1 X107.879 Y161.518 E1.46849
G1 X109.362 Y159.235 E1.53589
G1 X111.787 Y157.999 E1.60330
G1 X113.751 Y158.102 E1.65197
G1 X114.506 Y158.141 E1.67070 F1800.000
G1 X116.789 Y159.624 E1.73810
G1 X118.025 Y162.050 E1.80550
G1 X118.022 Y162.109 E1.80696
G1 F960.000 E0.80696
G92 E0
G1 X92.625 Y136.106 F7800.000
G1 E1.00000 F960.000
G1 X90.254 Y136.742 E1.06077 F1260.000
G1 X87.883 Y136.106 E1.12154
G1 X86.148 Y134.371 E1.18230
G1 X85.512 Y132.000 E1.24307
G1 X86.148 Y129.629 E1.30384
G1 X87.883 Y127.893 E1.36461
G1 X88.484 Y127.732 E1.38001
G1 X90.254 Y127.258 E1.42537 F1260.000
G1 X92.625 Y127.893 E1.48614
G1 X94.361 Y129.629 E1.54691
G1 X94.996 Y132.000 E1.60768
G1 X94.361 Y134.371 E1.66844
G1 X92.678 Y136.053 E1.72735
G1 F960.000 E0.72735
G92 E0
G1 X88.282 Y127.275 F7800.000
G1 X92.754 Y136.589 F7800.000
G1 E1.00000 F960.000
G1 X90.254 Y137.259 E1.06408 F1800.000
